;This Gcode has been generated specifically for the LulzBot Mini
;Basic settings: Layer height: 0.25 Walls: 1 Fill: 20
;Filament Diameter: 2.85
;Nozzle Size: 0.5
G26                          ; clear potential 'probe fail' condition
G21                          ; metric values
G90                          ; absolute positioning
M82                          ; set extruder to absolute mode
M107                         ; start with the fan off
G92 E0                       ; set extruder position to 0
M140 S60; get bed heating up
G28                          ; home all
M109 R140                    ; set to cleaning temp and wait
G1 Z150 E-30 F75             ; suck up XXmm of filament
M109 R140                    ; heat up rest of way
G1 X45 Y174 F11520           ; move behind scraper
G1 Z0  F1200                 ; CRITICAL: set Z to height of top of scraper
G1 X45 Y174 Z-.5 F4000       ; wiping ; plunge into wipe pad
G1 X55 Y172 Z-.5 F4000       ; wiping
G1 X45 Y174 Z0 F4000         ; wiping
G1 X55 Y172 F4000            ; wiping
G1 X45 Y174 F4000            ; wiping
G1 X55 Y172 F4000            ; wiping
G1 X45 Y174 F4000            ; wiping
G1 X55 Y172 F4000            ; wiping
G1 X60 Y174 F4000            ; wiping
G1 X80 Y172 F4000            ; wiping
G1 X60 Y174 F4000            ; wiping
G1 X80 Y172 F4000            ; wiping
G1 X60 Y174 F4000            ; wiping
G1 X90 Y172 F4000            ; wiping
G1 X80 Y174 F4000            ; wiping
G1 X100 Y172 F4000           ; wiping
G1 X80 Y174 F4000            ; wiping
G1 X100 Y172 F4000           ; wiping
G1 X80 Y174 F4000            ; wiping
G1 X100 Y172 F4000           ; wiping
G1 X110 Y174 F4000           ; wiping
G1 X100 Y172 F4000           ; wiping
G1 X110 Y174 F4000           ; wiping
G1 X100 Y172 F4000           ; wiping
G1 X110 Y174 F4000           ; wiping
G1 X115 Y172 Z-0.5 F1000     ; wipe slower and bury noz in cleanish area
G1 Z10                       ; raise z
G28 X0 Y0                    ; home x and y
M109 R140                    ; set to probing temp
M204 S300                    ; Set probing acceleration
G29                          ; Probe
M204 S2000                   ; Restore standard acceleration
G1 X5 Y15 Z10 F5000          ; get out the way
G4 S1                        ; pause
M400                         ; clear buffer
M109 R205    ; set extruder temp and wait
G4 S15                       ; wait for bed to temp up
G1 Z2 E0 F75                 ; extrude filament back into nozzle
M140 S60; get bed temping up during first layer

;Layer count: 86
;LAYER:0
M107
G0 F10500 X37.236 Y54.939 Z0.425
;TYPE:SKIRT
G1 F900 X51.763 Y54.939 E0.60487
G1 X52.404 Y54.938 E0.63156
G1 X122.810 Y54.940 E3.56313
G1 X122.810 Y63.688 E3.92737
G1 X121.584 Y63.688 E3.97842
G1 X120.355 Y67.063 E4.12798
G1 X54.134 Y67.063 E6.88529
G1 X46.815 Y81.065 E7.54314
G1 X46.815 Y101.062 E8.37578
G1 X37.192 Y101.062 E8.77646
G1 X37.191 Y58.303 E10.55686
G1 X37.236 Y54.939 E10.69694
G1 F600 E8.94694
G1 Z0.525
G0 F10500 X41.440 Y59.188
;TYPE:WALL-INNER
G1 Z0.425
G1 F600 E10.69694
G1 F900 X51.769 Y59.188 E11.12702
G1 X52.408 Y59.187 E11.15362
G1 X118.561 Y59.188 E13.90810
G1 X118.561 Y59.571 E13.92405
G1 X117.562 Y62.315 E14.04564
G1 X116.807 Y60.242 E14.13750
G1 X116.512 Y59.439 E14.17312
G1 X113.891 Y59.439 E14.28225
G1 X112.844 Y62.314 E14.40965
G1 X111.796 Y59.439 E14.53707
G1 X109.173 Y59.439 E14.64628
G1 X108.126 Y62.315 E14.77372
G1 X107.078 Y59.439 E14.90118
G1 X104.455 Y59.439 E15.01039
G1 X103.408 Y62.315 E15.13783
G1 X102.360 Y59.439 E15.26529
G1 X99.738 Y59.439 E15.37446
G1 X98.690 Y62.315 E15.50191
G1 X97.643 Y59.439 E15.62935
G1 X95.019 Y59.439 E15.73861
G1 X93.972 Y62.314 E15.86601
G1 X92.925 Y59.439 E15.99341
G1 X90.302 Y59.439 E16.10263
G1 X89.255 Y62.316 E16.23011
G1 X88.207 Y59.439 E16.35760
G1 X85.584 Y59.439 E16.46681
G1 X84.537 Y62.314 E16.59422
G1 X83.489 Y59.439 E16.72163
G1 X80.866 Y59.439 E16.83085
G1 X79.819 Y62.315 E16.95829
G1 X78.772 Y59.439 E17.08572
G1 X76.150 Y59.439 E17.19490
G1 X75.102 Y62.314 E17.32231
G1 X74.055 Y59.439 E17.44971
G1 X71.431 Y59.439 E17.55897
G1 X70.384 Y62.315 E17.68641
G1 X69.336 Y59.439 E17.81386
G1 X66.714 Y59.439 E17.92304
G1 X65.666 Y62.315 E18.05049
G1 X64.619 Y59.439 E18.17793
G1 X61.996 Y59.439 E18.28715
G1 X60.948 Y62.315 E18.41460
G1 X59.901 Y59.439 E18.54204
G1 X57.278 Y59.439 E18.65126
G1 X56.231 Y62.314 E18.77866
G1 X55.183 Y59.439 E18.90607
G1 X53.323 Y59.439 E18.98352
G1 X42.697 Y79.770 E19.93871
G1 X42.566 Y79.976 E19.94887
G1 X42.566 Y96.813 E20.64993
G1 X41.441 Y96.813 E20.69677
G1 X41.440 Y59.188 E22.26340
G0 F10500 X40.815 Y58.563
;TYPE:WALL-OUTER
G1 F900 X119.186 Y58.563 E25.52661
G1 X119.186 Y60.064 E25.58911
G1 X119.047 Y60.064 E25.59490
G1 X117.818 Y63.439 E25.74445
G1 X117.306 Y63.439 E25.76577
G1 X116.076 Y60.064 E25.91534
G1 X114.329 Y60.064 E25.98808
G1 X113.099 Y63.439 E26.13765
G1 X112.588 Y63.439 E26.15893
G1 X111.358 Y60.064 E26.30850
G1 X109.611 Y60.064 E26.38124
G1 X108.382 Y63.439 E26.53079
G1 X107.870 Y63.439 E26.55211
G1 X106.640 Y60.064 E26.70168
G1 X104.893 Y60.064 E26.77442
G1 X103.664 Y63.439 E26.92398
G1 X103.152 Y63.439 E26.94530
G1 X101.922 Y60.064 E27.09487
G1 X100.176 Y60.064 E27.16757
G1 X98.946 Y63.439 E27.31714
G1 X98.434 Y63.439 E27.33846
G1 X97.205 Y60.064 E27.48801
G1 X95.457 Y60.064 E27.56080
G1 X94.228 Y63.439 E27.71035
G1 X93.717 Y63.439 E27.73163
G1 X92.487 Y60.064 E27.88120
G1 X90.740 Y60.064 E27.95394
G1 X89.511 Y63.439 E28.10349
G1 X88.998 Y63.439 E28.12485
G1 X87.769 Y60.064 E28.27441
G1 X86.022 Y60.064 E28.34715
G1 X84.792 Y63.439 E28.49672
G1 X84.281 Y63.439 E28.51800
G1 X83.051 Y60.064 E28.66757
G1 X81.304 Y60.064 E28.74031
G1 X80.075 Y63.439 E28.88986
G1 X79.563 Y63.439 E28.91118
G1 X78.334 Y60.064 E29.06074
G1 X76.588 Y60.064 E29.13344
G1 X75.357 Y63.439 E29.28302
G1 X74.846 Y63.439 E29.30430
G1 X73.617 Y60.064 E29.45385
G1 X71.869 Y60.064 E29.52664
G1 X70.640 Y63.439 E29.67619
G1 X70.128 Y63.439 E29.69751
G1 X68.898 Y60.064 E29.84708
G1 X67.152 Y60.064 E29.91978
G1 X65.922 Y63.439 E30.06935
G1 X65.410 Y63.439 E30.09067
G1 X64.181 Y60.064 E30.24023
G1 X62.434 Y60.064 E30.31297
G1 X61.204 Y63.439 E30.46254
G1 X60.692 Y63.439 E30.48386
G1 X59.463 Y60.064 E30.63341
G1 X57.716 Y60.064 E30.70615
G1 X56.486 Y63.439 E30.85572
G1 X55.975 Y63.439 E30.87700
G1 X54.745 Y60.064 E31.02657
G1 X53.702 Y60.064 E31.07000
G1 X43.239 Y80.083 E32.01053
G1 X43.191 Y80.158 E32.01424
G1 X43.191 Y97.438 E32.73374
G1 X40.816 Y97.438 E32.83263
G1 X40.815 Y58.563 E34.45131
G0 F10500 X41.138 Y58.976
G0 X61.174 Y59.406
;TYPE:FILL
G1 F900 X61.614 Y59.846 E34.47722
G0 F10500 X62.101 Y59.588
G0 X64.912 Y59.609
G1 F900 X66.016 Y60.712 E34.54220
G0 F10500 X66.819 Y59.588
G0 X69.231 Y59.588
G0 X75.317 Y59.407
G1 F900 X75.765 Y59.855 E34.56858
G0 F10500 X76.255 Y59.588
G0 X79.072 Y59.626
G1 F900 X80.166 Y60.720 E34.63300
G0 F10500 X80.970 Y59.588
G0 X83.384 Y59.588
G0 X88.103 Y59.588
G0 X93.232 Y59.644
G1 F900 X94.316 Y60.728 E34.69683
G0 F10500 X92.820 Y59.588
G0 X90.406 Y59.588
G0 X89.914 Y59.862
G1 F900 X89.459 Y59.407 E34.72362
G0 F10500 X103.601 Y59.406
G1 F900 X104.064 Y59.870 E34.75091
G0 F10500 X104.559 Y59.588
G0 X107.389 Y59.660
G1 F900 X108.467 Y60.737 E34.81436
G0 F10500 X109.277 Y59.588
G0 X111.691 Y59.588
G0 X117.743 Y59.406
G1 F900 X118.273 Y59.716 E34.84206
G1 X118.140 Y59.804 E34.85082
G1 X117.300 Y59.406 E34.88952
G0 F10500 X116.913 Y59.903
;TYPE:SKIN
G1 F900 X117.861 Y60.851 E34.94535
G0 F10500 X117.422 Y61.296
G1 F900 X117.622 Y61.497 E34.95715
G0 F10500 X116.408 Y59.587
G0 X113.996 Y59.588
G0 X113.222 Y60.632
G1 F900 X112.026 Y59.435 E35.02761
G0 F10500 X112.881 Y59.407
G1 F900 X113.458 Y59.984 E35.06159
G0 F10500 X111.691 Y59.588
G0 X109.277 Y59.588
G0 X108.820 Y59.766
G1 F900 X108.461 Y59.406 E35.08275
G0 F10500 X107.577 Y59.406
G1 F900 X108.584 Y60.413 E35.14205
G0 F10500 X108.349 Y61.062
G1 F900 X107.644 Y60.357 E35.18357
G0 F10500 X106.973 Y59.588
G0 X104.559 Y59.588
G0 X103.946 Y60.195
G1 F900 X103.158 Y59.406 E35.23000
G0 F10500 X102.754 Y59.886
G1 F900 X103.710 Y60.843 E35.28632
G0 F10500 X103.262 Y61.278
G1 F900 X103.475 Y61.491 E35.29886
G0 F10500 X104.559 Y59.588
G0 X106.973 Y59.588
G0 X111.691 Y59.588
G0 X112.534 Y60.828
G1 F900 X112.987 Y61.280 E35.32551
G0 F10500 X111.691 Y59.588
G0 X109.277 Y59.588
G0 X104.182 Y59.546
G1 F900 X104.042 Y59.406 E35.33375
G0 F10500 X99.843 Y59.588
G0 X99.309 Y59.977
G1 F900 X98.738 Y59.406 E35.36738
G0 F10500 X97.867 Y59.419
G1 F900 X99.073 Y60.625 E35.43839
G0 F10500 X98.836 Y61.272
G1 F900 X98.374 Y60.809 E35.46562
G0 F10500 X97.539 Y59.588
G0 X95.123 Y59.588
G0 X94.434 Y60.405
G1 F900 X93.435 Y59.406 E35.52445
G0 F10500 X94.319 Y59.406
G1 F900 X94.670 Y59.757 E35.54512
G0 F10500 X90.032 Y59.539
G1 F900 X89.848 Y59.797 E35.55287
G1 X89.016 Y59.407 E35.59113
G0 F10500 X88.595 Y59.870
G1 F900 X89.560 Y60.835 E35.64795
G0 F10500 X89.103 Y61.261
G1 F900 X89.325 Y61.483 E35.66102
G0 F10500 X90.406 Y59.588
G0 X92.820 Y59.588
G0 X93.485 Y60.340
G1 F900 X94.197 Y61.053 E35.70298
G0 F10500 X92.820 Y59.588
G0 X90.406 Y59.588
G0 X85.689 Y59.588
G0 X84.922 Y60.616
G1 F900 X83.713 Y59.407 E35.77417
G0 F10500 X84.597 Y59.407
G1 F900 X85.158 Y59.968 E35.80721
G0 F10500 X83.384 Y59.588
G0 X80.519 Y59.749
G1 F900 X80.177 Y59.406 E35.82737
G0 F10500 X79.293 Y59.406
G1 F900 X80.284 Y60.397 E35.88573
G0 F10500 X80.048 Y61.045
G1 F900 X79.326 Y60.323 E35.92824
G0 F10500 X78.668 Y59.588
G0 X76.255 Y59.588
G0 X75.646 Y60.179
G1 F900 X74.874 Y59.407 E35.97370
G0 F10500 X74.437 Y59.854
G1 F900 X75.410 Y60.827 E36.03100
G0 F10500 X74.944 Y61.244
G1 F900 X75.174 Y61.475 E36.04457
G0 F10500 X73.951 Y59.588
G0 X71.535 Y59.588
G0 X70.772 Y60.608
G1 F900 X69.571 Y59.407 E36.11529
G0 F10500 X70.455 Y59.407
G1 F900 X71.008 Y59.960 E36.14786
G0 F10500 X69.231 Y59.588
G0 X66.370 Y59.742
G1 F900 X66.035 Y59.406 E36.16761
G0 F10500 X65.151 Y59.406
G1 F900 X66.134 Y60.389 E36.22550
G0 F10500 X65.898 Y61.037
G1 F900 X65.165 Y60.304 E36.26866
G0 F10500 X64.515 Y59.588
G0 X62.101 Y59.588
G0 X61.496 Y60.171
G1 F900 X60.731 Y59.406 E36.31370
G0 F10500 X60.277 Y59.836
G1 F900 X61.260 Y60.818 E36.37156
G0 F10500 X60.784 Y61.226
G1 F900 X61.024 Y61.466 E36.38569
G0 F10500 X62.101 Y59.588
G0 X64.515 Y59.588
G0 X69.231 Y59.588
G0 X70.055 Y60.775
G1 F900 X70.536 Y61.255 E36.41399
G0 F10500 X71.535 Y59.588
G0 X73.951 Y59.588
G0 X75.758 Y59.407
G1 F900 X75.883 Y59.532 E36.42135
G0 F10500 X61.732 Y59.523
G1 F900 X61.615 Y59.406 E36.42824
G0 F10500 X57.383 Y59.588
G0 X56.858 Y59.952
G1 F900 X56.311 Y59.406 E36.46042
G0 F10500 X55.427 Y59.406
G1 F900 X56.622 Y60.600 E36.53075
G0 F10500 X56.386 Y61.248
G1 F900 X55.897 Y60.759 E36.55955
G0 F10500 X55.078 Y59.588
G0 X53.409 Y59.580
G0 X52.681 Y60.195
G1 F900 X51.892 Y59.406 E36.60601
G0 F10500 X51.008 Y59.406
G1 F900 X52.378 Y60.775 E36.68665
G0 F10500 X52.074 Y61.356
G1 F900 X50.124 Y59.406 E36.80148
G0 F10500 X49.240 Y59.406
G1 F900 X51.770 Y61.936 E36.95046
G0 F10500 X51.467 Y62.516
G1 F900 X48.356 Y59.406 E37.13362
G0 F10500 X47.473 Y59.406
G1 F900 X51.164 Y63.097 E37.35096
G0 F10500 X50.860 Y63.677
G1 F900 X46.589 Y59.406 E37.60246
G0 F10500 X45.705 Y59.406
G1 F900 X50.557 Y64.258 E37.88817
G0 F10500 X50.254 Y64.838
G1 F900 X44.821 Y59.406 E38.20806
G0 F10500 X43.937 Y59.406
G1 F900 X49.950 Y65.419 E38.56214
G0 F10500 X49.647 Y65.999
G1 F900 X43.053 Y59.406 E38.95040
G0 F10500 X42.169 Y59.406
G1 F900 X49.344 Y66.580 E39.37287
G0 F10500 X49.040 Y67.161
G1 F900 X41.659 Y59.779 E39.80753
G0 F10500 X52.776 Y59.406
G1 F900 X52.984 Y59.614 E39.81977
G0 F10500 X48.737 Y67.741
G1 F900 X41.659 Y60.663 E40.23656
G0 F10500 X41.659 Y61.547
G1 F900 X48.433 Y68.322 E40.63548
G0 F10500 X48.130 Y68.902
G1 F900 X41.659 Y62.431 E41.01652
G0 F10500 X41.659 Y63.315
G1 F900 X47.827 Y69.483 E41.37972
G0 F10500 X47.523 Y70.062
G1 F900 X41.659 Y64.198 E41.72503
G0 F10500 X41.659 Y65.082
G1 F900 X47.219 Y70.643 E42.05246
G0 F10500 X46.916 Y71.224
G1 F900 X41.659 Y65.966 E42.36204
G0 F10500 X41.659 Y66.850
G1 F900 X46.613 Y71.804 E42.65376
G0 F10500 X46.309 Y72.385
G1 F900 X41.659 Y67.734 E42.92760
G0 F10500 X41.659 Y68.618
G1 F900 X46.006 Y72.965 E43.18358
G0 F10500 X45.703 Y73.546
G1 F900 X41.659 Y69.502 E43.42171
G0 F10500 X41.659 Y70.386
G1 F900 X45.399 Y74.126 E43.64194
G0 F10500 X45.096 Y74.707
G1 F900 X41.659 Y71.269 E43.84435
G0 F10500 X41.659 Y72.153
G1 F900 X44.793 Y75.287 E44.02890
G0 F10500 X44.489 Y75.868
G1 F900 X41.659 Y73.037 E44.19557
G0 F10500 X41.659 Y73.921
G1 F900 X44.186 Y76.448 E44.34438
G0 F10500 X43.883 Y77.029
G1 F900 X41.659 Y74.805 E44.47534
G0 F10500 X41.659 Y75.689
G1 F900 X43.579 Y77.609 E44.58840
G0 F10500 X43.275 Y78.189
G1 F900 X41.659 Y76.573 E44.68355
G0 F10500 X41.659 Y77.457
G1 F900 X42.972 Y78.770 E44.76087
G0 F10500 X42.668 Y79.350
G1 F900 X41.659 Y78.341 E44.82028
G0 F10500 X41.659 Y79.224
G1 F900 X42.003 Y80.010 E44.86075
G1 X42.003 Y80.894 E44.90121
G1 X42.003 Y81.778 E44.94167
G1 X42.003 Y82.662 E44.98213
G1 X42.003 Y83.546 E45.02259
G1 X42.003 Y84.430 E45.06305
G1 X42.003 Y85.314 E45.10351
G1 X42.003 Y86.198 E45.14397
G1 X42.003 Y87.081 E45.18438
G1 X42.003 Y87.965 E45.22484
G1 X42.003 Y88.849 E45.26530
G1 X42.003 Y89.733 E45.30576
G1 X42.003 Y90.617 E45.34622
G1 X42.003 Y91.501 E45.38668
G1 X42.003 Y92.385 E45.42714
G1 X42.003 Y93.269 E45.46760
G1 X42.003 Y94.152 E45.50801
G1 X42.003 Y95.036 E45.54847
G1 X42.003 Y95.920 E45.58893
G1 X42.234 Y96.593 E45.61856
G0 F10500 X42.796 Y79.824
G0 X53.409 Y59.580
G0 X55.078 Y59.588
G0 X59.797 Y59.588
G0 X64.515 Y59.588
G0 X69.231 Y59.588
G0 X73.951 Y59.588
G0 X78.668 Y59.588
G0 X83.384 Y59.588
G0 X84.214 Y60.792
G1 F900 X84.685 Y61.263 E45.64629
;LAYER:1
M106 S191
G0 F10500 X85.715 Y59.626 Z0.675
;TYPE:WALL-INNER
G1 F1140 X84.537 Y62.859 E45.71371
G1 X83.358 Y59.626 E45.78114
G1 X80.997 Y59.626 E45.82741
G1 X79.819 Y62.860 E45.89485
G1 X78.641 Y59.626 E45.96229
G1 X76.281 Y59.626 E46.00853
G1 X75.102 Y62.859 E46.07596
G1 X73.924 Y59.626 E46.14338
G1 X71.562 Y59.626 E46.18966
G1 X70.384 Y62.860 E46.25710
G1 X69.205 Y59.626 E46.32455
G1 X66.845 Y59.626 E46.37080
G1 X65.666 Y62.860 E46.43824
G1 X64.488 Y59.626 E46.50568
G1 X62.127 Y59.626 E46.55195
G1 X60.948 Y62.860 E46.61939
G1 X59.770 Y59.626 E46.68683
G1 X57.409 Y59.626 E46.73310
G1 X56.231 Y62.859 E46.80052
G1 X55.052 Y59.626 E46.86795
G1 X53.441 Y59.626 E46.89952
G1 X42.758 Y80.056 E47.35125
G1 X42.753 Y97.000 E47.68326
G1 X41.254 Y97.000 E47.71263
G1 X41.253 Y59.001 E48.45720
G1 X118.748 Y59.001 E49.97566
G1 X118.748 Y59.626 E49.98791
G1 X117.562 Y62.860 E50.05540
G1 X116.688 Y60.463 E50.10539
G1 X116.382 Y59.626 E50.12286
G1 X114.022 Y59.626 E50.16910
G1 X112.844 Y62.859 E50.23652
G1 X111.665 Y59.626 E50.30395
G1 X109.304 Y59.626 E50.35021
G1 X108.126 Y62.860 E50.41765
G1 X106.947 Y59.626 E50.48510
G1 X104.586 Y59.626 E50.53136
G1 X103.408 Y62.860 E50.59880
G1 X102.229 Y59.626 E50.66625
G1 X99.869 Y59.626 E50.71249
G1 X98.690 Y62.860 E50.77994
G1 X97.512 Y59.626 E50.84738
G1 X95.150 Y59.626 E50.89367
G1 X93.972 Y62.859 E50.96109
G1 X92.794 Y59.626 E51.02851
G1 X90.433 Y59.626 E51.07477
G1 X89.255 Y62.861 E51.14223
G1 X88.076 Y59.626 E51.20970
G1 X85.715 Y59.626 E51.25596
G0 F10500 X86.065 Y60.126
;TYPE:WALL-OUTER
G1 F1080 X84.835 Y63.501 E51.32635
G1 X84.238 Y63.501 E51.33804
G1 X83.008 Y60.126 E51.40843
G1 X81.347 Y60.126 E51.44098
G1 X80.118 Y63.501 E51.51135
G1 X79.520 Y63.501 E51.52307
G1 X78.291 Y60.126 E51.59345
G1 X76.631 Y60.126 E51.62598
G1 X75.400 Y63.501 E51.69637
G1 X74.803 Y63.501 E51.70807
G1 X73.574 Y60.126 E51.77845
G1 X71.912 Y60.126 E51.81101
G1 X70.683 Y63.501 E51.88139
G1 X70.085 Y63.501 E51.89311
G1 X68.855 Y60.126 E51.96350
G1 X67.195 Y60.126 E51.99602
G1 X65.965 Y63.501 E52.06641
G1 X65.367 Y63.501 E52.07812
G1 X64.138 Y60.126 E52.14850
G1 X62.477 Y60.126 E52.18105
G1 X61.247 Y63.501 E52.25144
G1 X60.649 Y63.501 E52.26315
G1 X59.420 Y60.126 E52.33353
G1 X57.759 Y60.126 E52.36608
G1 X56.529 Y63.501 E52.43646
G1 X55.932 Y63.501 E52.44816
G1 X54.702 Y60.126 E52.51855
G1 X53.744 Y60.126 E52.53732
G1 X43.258 Y80.179 E52.98072
G1 X43.253 Y97.500 E53.32012
G1 X40.754 Y97.500 E53.36908
G1 X40.753 Y58.501 E54.13324
G1 X119.248 Y58.501 E55.67130
G1 X119.248 Y60.126 E55.70314
G1 X119.090 Y60.126 E55.70623
G1 X117.861 Y63.501 E55.77661
G1 X117.263 Y63.501 E55.78833
G1 X116.033 Y60.126 E55.85872
G1 X114.372 Y60.126 E55.89126
G1 X113.142 Y63.501 E55.96165
G1 X112.545 Y63.501 E55.97335
G1 X111.315 Y60.126 E56.04373
G1 X109.654 Y60.126 E56.07628
G1 X108.425 Y63.501 E56.14666
G1 X107.827 Y63.501 E56.15837
G1 X106.597 Y60.126 E56.22876
G1 X104.936 Y60.126 E56.26131
G1 X103.707 Y63.501 E56.33169
G1 X103.109 Y63.501 E56.34340
G1 X101.879 Y60.126 E56.41379
G1 X100.219 Y60.126 E56.44632
G1 X98.989 Y63.501 E56.51670
G1 X98.391 Y63.501 E56.52842
G1 X97.162 Y60.126 E56.59880
G1 X95.500 Y60.126 E56.63136
G1 X94.271 Y63.501 E56.70174
G1 X93.674 Y63.501 E56.71344
G1 X92.444 Y60.126 E56.78383
G1 X90.783 Y60.126 E56.81637
G1 X89.554 Y63.501 E56.88675
G1 X88.955 Y63.501 E56.89849
G1 X87.726 Y60.126 E56.96887
G1 X86.065 Y60.126 E57.00141
G0 F10500 X85.436 Y59.873
;TYPE:SKIN
G1 F1380 X84.116 Y61.193 E57.03799
G0 F10500 X83.927 Y60.676
G1 F1380 X85.428 Y59.174 E57.07960
G0 F10500 X85.859 Y59.451
G1 F1380 X86.350 Y59.312 E57.08726
G1 X87.057 Y59.312 E57.09490
G1 X87.764 Y59.312 E57.10255
G1 X88.292 Y59.491 E57.11020
G1 X88.963 Y59.174 E57.12474
G0 F10500 X89.671 Y59.174
G1 F1380 X88.518 Y60.327 E57.15669
G0 F10500 X88.707 Y60.845
G1 F1380 X90.378 Y59.174 E57.20299
G0 F10500 X90.808 Y59.451
G1 F1380 X91.300 Y59.312 E57.21065
G1 X92.007 Y59.312 E57.21830
G1 X92.709 Y59.317 E57.22594
G1 X93.206 Y59.174 E57.23608
G0 F10500 X93.913 Y59.174
G1 F1380 X93.109 Y59.978 E57.25836
G0 F10500 X93.298 Y60.497
G1 F1380 X94.620 Y59.174 E57.29500
G0 F10500 X95.011 Y59.491
G1 F1380 X93.487 Y61.015 E57.33723
G0 F10500 X93.676 Y61.533
G1 F1380 X94.605 Y60.604 E57.36298
G0 F10500 X94.200 Y61.716
G1 F1380 X93.864 Y62.052 E57.37229
G0 F10500 X92.733 Y59.713
G0 X90.494 Y59.713
G0 X90.023 Y60.237
G1 F1380 X88.896 Y61.364 E57.40352
G0 F10500 X89.084 Y61.882
G1 F1380 X89.618 Y61.349 E57.41830
G0 F10500 X88.015 Y59.713
G0 X85.776 Y59.713
G0 X85.031 Y60.985
G1 F1380 X84.305 Y61.712 E57.43843
G0 F10500 X84.625 Y62.098
G1 F1380 X84.521 Y62.203 E57.44133
G0 F10500 X83.738 Y60.157
G1 F1380 X84.721 Y59.174 E57.46857
G0 F10500 X84.014 Y59.174
G1 F1380 X83.428 Y59.406 E57.48144
G1 X82.814 Y59.312 E57.48908
G1 X82.107 Y59.312 E57.49673
G1 X81.400 Y59.312 E57.50437
G1 X80.909 Y59.451 E57.51437
G0 F10500 X80.852 Y59.508
G1 F1380 X79.336 Y61.024 E57.55638
G0 F10500 X79.525 Y61.542
G1 F1380 X80.446 Y60.620 E57.58192
G0 F10500 X80.041 Y61.733
G1 F1380 X79.714 Y62.060 E57.59098
G0 F10500 X79.147 Y60.505
G1 F1380 X80.478 Y59.174 E57.62786
G0 F10500 X95.052 Y59.450
G1 F1380 X95.543 Y59.312 E57.63548
G1 X96.250 Y59.312 E57.64310
G1 X96.957 Y59.312 E57.65072
G1 X97.574 Y59.402 E57.65836
G1 X98.156 Y59.174 E57.67061
G0 F10500 X98.863 Y59.174
G1 F1380 X97.889 Y60.149 E57.69762
G0 F10500 X98.077 Y60.667
G1 F1380 X99.570 Y59.174 E57.73899
G0 F10500 X99.598 Y59.854
G1 F1380 X98.266 Y61.185 E57.77588
G0 F10500 X98.455 Y61.704
G1 F1380 X99.192 Y60.967 E57.79631
G0 F10500 X98.787 Y62.079
G1 F1380 X98.662 Y62.204 E57.79977
G0 F10500 X100.001 Y59.451
G1 F1380 X100.492 Y59.312 E57.80743
G1 X101.199 Y59.312 E57.81508
G1 X101.906 Y59.312 E57.82272
G1 X102.438 Y59.487 E57.83038
G1 X103.106 Y59.174 E57.84484
G0 F10500 X103.813 Y59.174
G1 F1380 X102.668 Y60.319 E57.87657
G0 F10500 X102.857 Y60.838
G1 F1380 X104.520 Y59.174 E57.92266
G0 F10500 X104.950 Y59.451
G1 F1380 X105.442 Y59.312 E57.93032
G1 X106.149 Y59.312 E57.93796
G1 X106.855 Y59.313 E57.94560
G1 X107.348 Y59.174 E57.95564
G0 F10500 X108.055 Y59.174
G1 F1380 X107.259 Y59.971 E57.97771
G0 F10500 X107.448 Y60.489
G1 F1380 X108.762 Y59.174 E58.01413
G0 F10500 X109.171 Y59.473
G1 F1380 X107.637 Y61.007 E58.05664
G0 F10500 X107.826 Y61.526
G1 F1380 X108.767 Y60.584 E58.08273
G0 F10500 X108.361 Y61.697
G1 F1380 X108.014 Y62.044 E58.09235
G0 F10500 X106.886 Y59.713
G0 X104.647 Y59.713
G0 X104.181 Y60.220
G1 F1380 X103.045 Y61.356 E58.12383
G0 F10500 X103.235 Y61.873
G1 F1380 X103.777 Y61.332 E58.13883
G0 F10500 X104.647 Y59.713
G0 X106.886 Y59.713
G0 X111.604 Y59.713
G0 X112.039 Y60.140
G1 F1380 X113.005 Y59.174 E58.16560
G0 F10500 X113.712 Y59.174
G1 F1380 X112.228 Y60.659 E58.20674
G0 F10500 X112.417 Y61.177
G1 F1380 X113.756 Y59.838 E58.24384
G0 F10500 X114.144 Y59.450
G1 F1380 X114.635 Y59.312 E58.25145
G1 X115.342 Y59.312 E58.25907
G1 X116.049 Y59.312 E58.26669
G1 X116.585 Y59.483 E58.27432
G1 X117.248 Y59.174 E58.28865
G0 F10500 X117.955 Y59.174
G1 F1380 X116.818 Y60.311 E58.32016
G0 F10500 X117.007 Y60.829
G1 F1380 X118.572 Y59.264 E58.36353
G0 F10500 X112.298 Y59.174
G1 F1380 X111.720 Y59.398 E58.37597
G1 X111.099 Y59.312 E58.38363
G1 X110.392 Y59.312 E58.39128
G1 X109.685 Y59.312 E58.39893
G1 X109.193 Y59.451 E58.40894
G0 F10500 X111.604 Y59.713
G0 X112.606 Y61.695
G1 F1380 X113.351 Y60.950 E58.42959
G0 F10500 X112.946 Y62.062
G1 F1380 X112.805 Y62.203 E58.43349
G0 F10500 X114.083 Y59.713
G0 X116.322 Y59.713
G0 X117.196 Y61.347
G1 F1380 X118.353 Y60.191 E58.46554
G0 F10500 X117.943 Y61.307
G1 F1380 X117.386 Y61.865 E58.48099
G0 F10500 X116.322 Y59.713
G0 X114.083 Y59.713
G0 X109.365 Y59.713
G0 X104.647 Y59.713
G0 X99.930 Y59.713
G0 X95.211 Y59.713
G0 X90.494 Y59.713
G0 X79.771 Y59.174
G1 F1380 X78.959 Y59.987 E58.50351
G0 F10500 X78.770 Y59.469
G1 F1380 X78.710 Y59.174 E58.51166
G1 X77.865 Y59.312 E58.51931
G1 X77.158 Y59.312 E58.52695
G1 X76.666 Y59.451 E58.53697
G0 F10500 X76.236 Y59.174
G1 F1380 X74.558 Y60.852 E58.58347
G0 F10500 X74.368 Y60.335
G1 F1380 X75.528 Y59.174 E58.61563
G0 F10500 X74.821 Y59.174
G1 F1380 X74.008 Y59.633 E58.63341
G1 X73.760 Y59.174 E58.64108
G1 X72.915 Y59.312 E58.64873
G1 X72.208 Y59.312 E58.65637
G1 X71.716 Y59.451 E58.66639
G0 F10500 X71.286 Y59.174
G1 F1380 X69.777 Y60.683 E58.70821
G0 F10500 X69.966 Y61.201
G1 F1380 X71.278 Y59.889 E58.74456
G0 F10500 X70.579 Y59.174
G1 F1380 X69.588 Y60.165 E58.77202
G0 F10500 X70.874 Y61.001
G1 F1380 X70.155 Y61.719 E58.79193
G0 F10500 X70.468 Y62.113
G1 F1380 X70.378 Y62.204 E58.79444
G0 F10500 X69.144 Y59.713
G0 X66.906 Y59.713
G0 X66.288 Y60.637
G1 F1380 X65.374 Y61.550 E58.81976
G0 F10500 X65.882 Y61.750
G1 F1380 X65.563 Y62.069 E58.82860
G0 F10500 X65.186 Y61.032
G1 F1380 X66.694 Y59.524 E58.87038
G0 F10500 X66.767 Y59.450
G1 F1380 X67.258 Y59.312 E58.87802
G1 X67.966 Y59.312 E58.88565
G1 X68.673 Y59.312 E58.89327
G1 X69.281 Y59.410 E58.90089
G1 X69.872 Y59.174 E58.91336
G0 F10500 X66.336 Y59.174
G1 F1380 X64.997 Y60.513 E58.95047
G0 F10500 X64.427 Y59.713
G0 X62.093 Y59.174
G1 F1380 X60.406 Y60.862 E58.99723
G0 F10500 X60.595 Y61.380
G1 F1380 X61.703 Y60.272 E59.02793
G0 F10500 X61.386 Y59.174
G1 F1380 X60.217 Y60.343 E59.06033
G0 F10500 X61.298 Y61.384
G1 F1380 X60.784 Y61.898 E59.07457
G0 F10500 X62.188 Y59.713
G0 X64.427 Y59.713
G0 X69.144 Y59.713
G0 X73.863 Y59.713
G0 X74.746 Y61.371
G1 F1380 X75.864 Y60.253 E59.10555
G0 F10500 X75.458 Y61.366
G1 F1380 X74.935 Y61.889 E59.12004
G0 F10500 X73.863 Y59.713
G0 X71.623 Y59.713
G0 X65.629 Y59.174
G1 F1380 X64.809 Y59.995 E59.14278
G0 F10500 X64.620 Y59.476
G1 F1380 X64.568 Y59.174 E59.15115
G1 X63.723 Y59.312 E59.15880
G1 X63.015 Y59.312 E59.16646
G1 X62.524 Y59.451 E59.17646
G0 F10500 X60.679 Y59.174
G1 F1380 X59.862 Y59.637 E59.19445
G1 X59.618 Y59.174 E59.20208
G1 X58.773 Y59.312 E59.20970
G1 X58.066 Y59.312 E59.21732
G1 X57.575 Y59.450 E59.22731
G0 F10500 X57.144 Y59.174
G1 F1380 X55.628 Y60.690 E59.26932
G0 F10500 X55.439 Y60.172
G1 F1380 X56.437 Y59.174 E59.29698
G0 F10500 X55.729 Y59.174
G1 F1380 X55.135 Y59.414 E59.31028
G1 X54.531 Y59.312 E59.31789
G1 X54.040 Y59.450 E59.32789
G0 F10500 X53.608 Y59.174
G1 F1380 X41.428 Y71.354 E59.66540
G0 F10500 X41.428 Y72.061
G1 F1380 X52.561 Y60.929 E59.97389
G0 F10500 X51.786 Y62.411
G1 F1380 X41.428 Y72.769 E60.26091
G0 F10500 X41.428 Y73.476
G1 F1380 X51.011 Y63.893 E60.52646
G0 F10500 X50.236 Y65.375
G1 F1380 X41.428 Y74.183 E60.77054
G0 F10500 X41.428 Y74.890
G1 F1380 X49.461 Y66.857 E60.99314
G0 F10500 X48.686 Y68.339
G1 F1380 X41.428 Y75.597 E61.19426
G0 F10500 X41.428 Y76.304
G1 F1380 X47.911 Y69.821 E61.37391
G0 F10500 X47.136 Y71.303
G1 F1380 X41.428 Y77.011 E61.53208
G0 F10500 X41.428 Y77.718
G1 F1380 X46.361 Y72.786 E61.66876
G0 F10500 X45.586 Y74.268
G1 F1380 X41.429 Y78.425 E61.78396
G0 F10500 X41.429 Y79.132
G1 F1380 X44.811 Y75.750 E61.87767
G0 F10500 X44.036 Y77.232
G1 F1380 X41.429 Y79.839 E61.94991
G0 F10500 X41.429 Y80.546
G1 F1380 X43.261 Y78.714 E62.00068
G0 F10500 X41.428 Y70.647
G1 F1380 X52.901 Y59.174 E62.31860
G0 F10500 X52.194 Y59.174
G1 F1380 X41.428 Y69.940 E62.61694
G0 F10500 X41.428 Y69.233
G1 F1380 X51.487 Y59.174 E62.89568
G0 F10500 X50.780 Y59.174
G1 F1380 X41.428 Y68.526 E63.15483
G0 F10500 X41.428 Y67.819
G1 F1380 X50.073 Y59.174 E63.39438
G0 F10500 X49.365 Y59.174
G1 F1380 X41.428 Y67.112 E63.61434
G0 F10500 X41.428 Y66.405
G1 F1380 X48.658 Y59.174 E63.81470
G0 F10500 X47.951 Y59.174
G1 F1380 X41.428 Y65.697 E63.99545
G0 F10500 X41.428 Y64.990
G1 F1380 X47.244 Y59.174 E64.15662
G0 F10500 X46.537 Y59.174
G1 F1380 X41.428 Y64.283 E64.29819
G0 F10500 X41.428 Y63.576
G1 F1380 X45.830 Y59.174 E64.42017
G0 F10500 X45.123 Y59.174
G1 F1380 X41.428 Y62.869 E64.52256
G0 F10500 X41.428 Y62.162
G1 F1380 X44.416 Y59.174 E64.60536
G0 F10500 X43.709 Y59.174
G1 F1380 X41.428 Y61.455 E64.66857
G0 F10500 X41.428 Y60.748
G1 F1380 X43.001 Y59.174 E64.71217
G0 F10500 X42.294 Y59.174
G1 F1380 X41.428 Y60.041 E64.73618
G0 F10500 X54.991 Y59.713
G0 X55.816 Y61.209
G1 F1380 X57.119 Y59.906 E64.77229
G0 F10500 X41.587 Y59.174
G1 F1380 X41.428 Y59.334 E64.77671
G0 F10500 X54.991 Y59.713
G0 X56.006 Y61.726
G1 F1380 X56.714 Y61.019 E64.79632
G0 F10500 X56.308 Y62.132
G1 F1380 X56.237 Y62.202 E64.79827
G0 F10500 X54.991 Y59.713
G0 X53.489 Y59.705
G0 X42.581 Y80.101
G1 F1380 X41.429 Y81.253 E64.83019
G0 F10500 X41.429 Y81.960
G1 F1380 X42.581 Y80.808 E64.86212
G0 F10500 X42.581 Y81.515
G1 F1380 X41.429 Y82.667 E64.89404
G0 F10500 X41.429 Y83.374
G1 F1380 X42.581 Y82.222 E64.92596
G0 F10500 X42.581 Y82.930
G1 F1380 X41.429 Y84.082 E64.95788
G0 F10500 X41.429 Y84.789
G1 F1380 X42.581 Y83.637 E64.98981
G0 F10500 X42.581 Y84.344
G1 F1380 X41.429 Y85.496 E65.02173
G0 F10500 X41.429 Y86.203
G1 F1380 X42.580 Y85.052 E65.05362
G0 F10500 X42.580 Y85.759
G1 F1380 X41.429 Y86.910 E65.08552
G0 F10500 X41.429 Y87.617
G1 F1380 X42.580 Y86.466 E65.11741
G0 F10500 X42.580 Y87.173
G1 F1380 X41.429 Y88.324 E65.14931
G0 F10500 X41.429 Y89.031
G1 F1380 X42.579 Y87.881 E65.18117
G0 F10500 X42.579 Y88.588
G1 F1380 X41.429 Y89.738 E65.21304
G0 F10500 X41.429 Y90.446
G1 F1380 X42.579 Y89.295 E65.24492
G0 F10500 X42.579 Y90.003
G1 F1380 X41.429 Y91.153 E65.27679
G0 F10500 X41.429 Y91.860
G1 F1380 X42.579 Y90.710 E65.30866
G0 F10500 X42.579 Y91.417
G1 F1380 X41.429 Y92.567 E65.34052
G0 F10500 X41.429 Y93.274
G1 F1380 X42.578 Y92.125 E65.37236
G0 F10500 X42.578 Y92.832
G1 F1380 X41.429 Y93.981 E65.40420
G0 F10500 X41.429 Y94.688
G1 F1380 X42.578 Y93.539 E65.43604
G0 F10500 X42.578 Y94.246
G1 F1380 X41.429 Y95.395 E65.46788
G0 F10500 X41.429 Y96.102
G1 F1380 X42.577 Y94.954 E65.49969
G0 F10500 X42.577 Y95.661
G1 F1380 X41.429 Y96.809 E65.53151
G0 F10500 X42.122 Y96.824
G1 F1380 X42.577 Y96.368 E65.54413
;LAYER:2
G0 F10500 X42.753 Y97.000 Z0.925
;TYPE:WALL-INNER
G1 F1440 X41.254 Y97.000 E65.57350
G1 X41.253 Y59.001 E66.31806
G1 X118.748 Y59.001 E67.83653
G1 X118.748 Y59.626 E67.84877
G1 X117.562 Y62.860 E67.91627
G1 X116.746 Y60.619 E67.96300
G1 X116.382 Y59.626 E67.98372
G1 X114.022 Y59.626 E68.02997
G1 X112.844 Y62.859 E68.09739
G1 X111.665 Y59.626 E68.16482
G1 X109.304 Y59.626 E68.21108
G1 X108.126 Y62.860 E68.27852
G1 X106.947 Y59.626 E68.34597
G1 X104.586 Y59.626 E68.39223
G1 X103.408 Y62.860 E68.45967
G1 X102.229 Y59.626 E68.52712
G1 X99.869 Y59.626 E68.57336
G1 X98.690 Y62.860 E68.64081
G1 X97.512 Y59.626 E68.70825
G1 X95.150 Y59.626 E68.75453
G1 X93.972 Y62.859 E68.82196
G1 X92.794 Y59.626 E68.88938
G1 X90.433 Y59.626 E68.93564
G1 X89.255 Y62.861 E69.00310
G1 X88.076 Y59.626 E69.07057
G1 X85.715 Y59.626 E69.11683
G1 X84.537 Y62.859 E69.18425
G1 X83.358 Y59.626 E69.25168
G1 X80.997 Y59.626 E69.29794
G1 X79.819 Y62.860 E69.36538
G1 X78.641 Y59.626 E69.43282
G1 X76.281 Y59.626 E69.47907
G1 X75.102 Y62.859 E69.54650
G1 X73.924 Y59.626 E69.61392
G1 X71.562 Y59.626 E69.66020
G1 X70.384 Y62.860 E69.72764
G1 X69.205 Y59.626 E69.79509
G1 X66.845 Y59.626 E69.84133
G1 X65.666 Y62.860 E69.90878
G1 X64.488 Y59.626 E69.97622
G1 X62.127 Y59.626 E70.02248
G1 X60.948 Y62.860 E70.08993
G1 X59.770 Y59.626 E70.15737
G1 X57.409 Y59.626 E70.20363
G1 X56.231 Y62.859 E70.27106
G1 X55.052 Y59.626 E70.33849
G1 X53.437 Y59.626 E70.37013
G1 X42.756 Y80.059 E70.82190
G1 X42.753 Y97.000 E71.15385
G0 F10500 X43.253 Y97.500
;TYPE:WALL-OUTER
G1 F1320 X40.754 Y97.500 E71.20282
G1 X40.753 Y58.501 E71.96698
G1 X119.248 Y58.501 E73.50503
G1 X119.248 Y60.126 E73.53687
G1 X119.090 Y60.126 E73.53997
G1 X117.861 Y63.501 E73.61035
G1 X117.263 Y63.501 E73.62207
G1 X116.033 Y60.126 E73.69245
G1 X114.372 Y60.126 E73.72500
G1 X113.142 Y63.501 E73.79538
G1 X112.545 Y63.501 E73.80708
G1 X111.315 Y60.126 E73.87747
G1 X109.654 Y60.126 E73.91001
G1 X108.425 Y63.501 E73.98039
G1 X107.827 Y63.501 E73.99211
G1 X106.597 Y60.126 E74.06250
G1 X104.936 Y60.126 E74.09504
G1 X103.707 Y63.501 E74.16542
G1 X103.109 Y63.501 E74.17714
G1 X101.879 Y60.126 E74.24752
G1 X100.219 Y60.126 E74.28005
G1 X98.989 Y63.501 E74.35044
G1 X98.391 Y63.501 E74.36215
G1 X97.162 Y60.126 E74.43253
G1 X95.500 Y60.126 E74.46510
G1 X94.271 Y63.501 E74.53548
G1 X93.674 Y63.501 E74.54718
G1 X92.444 Y60.126 E74.61756
G1 X90.783 Y60.126 E74.65011
G1 X89.554 Y63.501 E74.72049
G1 X88.955 Y63.501 E74.73222
G1 X87.726 Y60.126 E74.80260
G1 X86.065 Y60.126 E74.83515
G1 X84.835 Y63.501 E74.90553
G1 X84.238 Y63.501 E74.91723
G1 X83.008 Y60.126 E74.98762
G1 X81.347 Y60.126 E75.02016
G1 X80.118 Y63.501 E75.09054
G1 X79.520 Y63.501 E75.10226
G1 X78.291 Y60.126 E75.17264
G1 X76.631 Y60.126 E75.20517
G1 X75.400 Y63.501 E75.27556
G1 X74.803 Y63.501 E75.28726
G1 X73.574 Y60.126 E75.35764
G1 X71.912 Y60.126 E75.39020
G1 X70.683 Y63.501 E75.46058
G1 X70.085 Y63.501 E75.47230
G1 X68.855 Y60.126 E75.54268
G1 X67.195 Y60.126 E75.57521
G1 X65.965 Y63.501 E75.64560
G1 X65.367 Y63.501 E75.65731
G1 X64.138 Y60.126 E75.72769
G1 X62.477 Y60.126 E75.76024
G1 X61.247 Y63.501 E75.83062
G1 X60.649 Y63.501 E75.84234
G1 X59.420 Y60.126 E75.91272
G1 X57.759 Y60.126 E75.94527
G1 X56.529 Y63.501 E76.01565
G1 X55.932 Y63.501 E76.02735
G1 X54.702 Y60.126 E76.09774
G1 X53.740 Y60.126 E76.11659
G1 X43.256 Y80.182 E76.56002
G1 X43.253 Y97.500 E76.89936
G0 F10500 X42.578 Y96.672
;TYPE:SKIN
G1 F1920 X41.428 Y95.522 E76.93122
G0 F10500 X41.428 Y96.229
G1 F1920 X42.023 Y96.824 E76.94771
G0 F10500 X42.578 Y95.964
G1 F1920 X41.428 Y94.815 E76.97957
G0 F10500 X41.428 Y94.108
G1 F1920 X42.578 Y95.257 E77.01142
G0 F10500 X42.578 Y94.550
G1 F1920 X41.428 Y93.401 E77.04327
G0 F10500 X41.428 Y92.693
G1 F1920 X42.578 Y93.843 E77.07514
G0 F10500 X42.579 Y93.137
G1 F1920 X41.428 Y91.986 E77.10703
G0 F10500 X41.428 Y91.279
G1 F1920 X42.579 Y92.430 E77.13893
G0 F10500 X42.579 Y91.723
G1 F1920 X41.428 Y90.572 E77.17082
G0 F10500 X41.428 Y89.865
G1 F1920 X42.579 Y91.015 E77.20271
G0 F10500 X42.579 Y90.308
G1 F1920 X41.428 Y89.158 E77.23459
G0 F10500 X41.428 Y88.451
G1 F1920 X42.579 Y89.602 E77.26648
G0 F10500 X42.579 Y88.895
G1 F1920 X41.428 Y87.744 E77.29838
G0 F10500 X41.428 Y87.037
G1 F1920 X42.579 Y88.188 E77.33027
G0 F10500 X42.579 Y87.481
G1 F1920 X41.428 Y86.329 E77.36218
G0 F10500 X41.428 Y85.622
G1 F1920 X42.579 Y86.774 E77.39409
G0 F10500 X42.580 Y86.067
G1 F1920 X41.428 Y84.915 E77.42601
G0 F10500 X41.428 Y84.208
G1 F1920 X42.580 Y85.360 E77.45793
G0 F10500 X42.580 Y84.653
G1 F1920 X41.428 Y83.501 E77.48986
G0 F10500 X41.428 Y82.794
G1 F1920 X42.580 Y83.946 E77.52178
G0 F10500 X42.581 Y83.239
G1 F1920 X41.428 Y82.087 E77.55371
G0 F10500 X41.428 Y81.380
G1 F1920 X42.581 Y82.532 E77.58565
G0 F10500 X42.581 Y81.825
G1 F1920 X41.428 Y80.673 E77.61759
G0 F10500 X41.428 Y79.965
G1 F1920 X42.581 Y81.118 E77.64954
G0 F10500 X42.581 Y80.411
G1 F1920 X41.428 Y79.258 E77.68149
G0 F10500 X41.428 Y78.551
G1 F1920 X42.688 Y79.811 E77.71640
G0 F10500 X42.931 Y79.347
G1 F1920 X41.427 Y77.843 E77.75808
G0 F10500 X41.427 Y77.136
G1 F1920 X43.173 Y78.882 E77.80646
G0 F10500 X43.416 Y78.418
G1 F1920 X41.427 Y76.429 E77.86158
G0 F10500 X41.427 Y75.722
G1 F1920 X43.659 Y77.954 E77.92343
G0 F10500 X43.902 Y77.489
G1 F1920 X41.427 Y75.015 E77.99200
G0 F10500 X41.427 Y74.308
G1 F1920 X44.144 Y77.025 E78.06729
G0 F10500 X44.387 Y76.560
G1 F1920 X41.427 Y73.601 E78.14930
G0 F10500 X41.427 Y72.894
G1 F1920 X44.630 Y76.096 E78.23804
G0 F10500 X44.872 Y75.632
G1 F1920 X41.427 Y72.187 E78.33350
G0 F10500 X41.427 Y71.480
G1 F1920 X45.115 Y75.167 E78.43569
G0 F10500 X45.358 Y74.703
G1 F1920 X41.427 Y70.772 E78.54462
G0 F10500 X41.427 Y70.065
G1 F1920 X45.601 Y74.239 E78.66028
G0 F10500 X45.843 Y73.774
G1 F1920 X41.427 Y69.358 E78.78265
G0 F10500 X41.427 Y68.651
G1 F1920 X46.086 Y73.310 E78.91175
G0 F10500 X46.329 Y72.846
G1 F1920 X41.427 Y67.944 E79.04759
G0 F10500 X41.427 Y67.237
G1 F1920 X46.572 Y72.381 E79.19015
G0 F10500 X46.814 Y71.917
G1 F1920 X41.427 Y66.530 E79.33943
G0 F10500 X41.427 Y65.823
G1 F1920 X47.057 Y71.452 E79.49542
G0 F10500 X47.300 Y70.988
G1 F1920 X41.427 Y65.116 E79.65815
G0 F10500 X41.427 Y64.408
G1 F1920 X47.543 Y70.524 E79.82763
G0 F10500 X47.785 Y70.059
G1 F1920 X41.427 Y63.701 E80.00381
G0 F10500 X41.427 Y62.994
G1 F1920 X48.028 Y69.594 E80.18672
G0 F10500 X48.271 Y69.131
G1 F1920 X41.427 Y62.287 E80.37637
G0 F10500 X41.427 Y61.580
G1 F1920 X48.513 Y68.666 E80.57273
G0 F10500 X48.756 Y68.201
G1 F1920 X41.427 Y60.873 E80.77580
G0 F10500 X41.427 Y60.166
G1 F1920 X48.999 Y67.738 E80.98563
G0 F10500 X49.242 Y67.273
G1 F1920 X41.427 Y59.459 E81.20217
G0 F10500 X41.851 Y59.175
G1 F1920 X49.484 Y66.808 E81.41369
G0 F10500 X49.727 Y66.344
G1 F1920 X42.558 Y59.175 E81.61234
G0 F10500 X43.265 Y59.175
G1 F1920 X49.970 Y65.880 E81.79814
G0 F10500 X50.213 Y65.415
G1 F1920 X43.972 Y59.175 E81.97107
G0 F10500 X44.679 Y59.175
G1 F1920 X50.455 Y64.951 E82.13113
G0 F10500 X50.698 Y64.486
G1 F1920 X45.387 Y59.175 E82.27830
G0 F10500 X46.094 Y59.175
G1 F1920 X50.941 Y64.022 E82.41261
G0 F10500 X51.183 Y63.558
G1 F1920 X46.801 Y59.175 E82.53405
G0 F10500 X47.508 Y59.175
G1 F1920 X51.426 Y63.093 E82.64262
G0 F10500 X51.668 Y62.629
G1 F1920 X48.215 Y59.175 E82.73832
G0 F10500 X48.922 Y59.175
G1 F1920 X51.912 Y62.165 E82.82117
G0 F10500 X52.154 Y61.700
G1 F1920 X49.629 Y59.175 E82.89114
G0 F10500 X50.336 Y59.175
G1 F1920 X52.397 Y61.236 E82.94826
G0 F10500 X52.640 Y60.772
G1 F1920 X51.043 Y59.175 E82.99251
G0 F10500 X51.751 Y59.175
G1 F1920 X52.883 Y60.307 E83.02388
G0 F10500 X53.485 Y59.705
G0 X54.991 Y59.713
G0 X55.358 Y59.954
G1 F1920 X56.637 Y61.233 E83.05932
G0 F10500 X56.447 Y61.750
G1 F1920 X55.765 Y61.068 E83.07822
G0 F10500 X56.825 Y60.715
G1 F1920 X55.286 Y59.175 E83.12088
G0 F10500 X54.853 Y59.450
G1 F1920 X54.362 Y59.312 E83.12847
G1 X53.655 Y59.312 E83.13607
G1 X53.145 Y59.509 E83.14367
G1 X52.458 Y59.175 E83.15864
G0 F10500 X55.993 Y59.175
G1 F1920 X57.014 Y60.196 E83.18693
G0 F10500 X57.203 Y59.678
G1 F1920 X57.053 Y59.175 E83.20088
G1 X57.898 Y59.312 E83.20846
G1 X58.605 Y59.312 E83.21605
G1 X59.312 Y59.312 E83.22364
G1 X59.803 Y59.450 E83.23364
G0 F10500 X59.942 Y59.588
G1 F1920 X61.416 Y61.062 E83.27448
G0 F10500 X61.605 Y60.544
G1 F1920 X60.236 Y59.175 E83.31242
G0 F10500 X60.943 Y59.175
G1 F1920 X61.794 Y60.026 E83.33600
G0 F10500 X60.347 Y60.700
G1 F1920 X61.227 Y61.581 E83.36040
G0 F10500 X60.753 Y61.813
G1 F1920 X61.038 Y62.098 E83.36830
G0 F10500 X62.188 Y59.713
G0 X64.427 Y59.713
G0 X64.932 Y60.336
G1 F1920 X66.007 Y61.410 E83.39807
G0 F10500 X66.195 Y60.892
G1 F1920 X64.478 Y59.175 E83.44565
G0 F10500 X64.046 Y59.450
G1 F1920 X63.555 Y59.312 E83.45324
G1 X62.848 Y59.312 E83.46084
G1 X62.169 Y59.341 E83.46843
G1 X61.650 Y59.175 E83.47910
G0 F10500 X65.186 Y59.175
G1 F1920 X66.384 Y60.374 E83.51231
G0 F10500 X65.336 Y61.447
G1 F1920 X65.818 Y61.929 E83.52567
G0 F10500 X66.906 Y59.713
G0 X69.144 Y59.713
G0 X69.517 Y59.971
G1 F1920 X70.787 Y61.241 E83.56086
G0 F10500 X70.598 Y61.759
G1 F1920 X69.922 Y61.084 E83.57958
G0 F10500 X70.975 Y60.722
G1 F1920 X69.428 Y59.175 E83.62245
G0 F10500 X68.996 Y59.450
G1 F1920 X68.505 Y59.312 E83.63005
G1 X67.798 Y59.312 E83.63764
G1 X67.091 Y59.312 E83.64523
G1 X66.587 Y59.515 E83.65283
G1 X65.893 Y59.175 E83.66797
G0 F10500 X70.135 Y59.175
G1 F1920 X71.164 Y60.204 E83.69649
G0 F10500 X71.623 Y59.713
G0 X74.102 Y59.606
G1 F1920 X75.567 Y61.071 E83.73708
G0 F10500 X75.755 Y60.553
G1 F1920 X74.378 Y59.175 E83.77525
G0 F10500 X73.947 Y59.451
G1 F1920 X73.455 Y59.313 E83.78290
G1 X72.748 Y59.313 E83.79052
G1 X72.041 Y59.313 E83.79814
G1 X71.451 Y59.430 E83.80576
G1 X70.842 Y59.175 E83.81869
G0 F10500 X75.085 Y59.175
G1 F1920 X75.944 Y60.034 E83.84250
G0 F10500 X74.508 Y60.719
G1 F1920 X75.378 Y61.589 E83.86660
G0 F10500 X74.914 Y61.832
G1 F1920 X75.188 Y62.107 E83.87421
G0 F10500 X76.342 Y59.713
G0 X78.580 Y59.713
G0 X79.092 Y60.353
G1 F1920 X80.156 Y61.418 E83.90371
G0 F10500 X80.345 Y60.900
G1 F1920 X78.621 Y59.175 E83.95150
G0 F10500 X78.189 Y59.450
G1 F1920 X77.697 Y59.312 E83.95913
G1 X76.990 Y59.312 E83.96672
G1 X76.316 Y59.346 E83.97431
G1 X75.792 Y59.175 E83.98511
G0 F10500 X79.328 Y59.175
G1 F1920 X80.534 Y60.381 E84.01853
G0 F10500 X81.058 Y59.713
G0 X83.297 Y59.713
G0 X83.675 Y59.987
G1 F1920 X84.936 Y61.248 E84.05347
G0 F10500 X84.747 Y61.766
G1 F1920 X84.082 Y61.101 E84.07190
G0 F10500 X85.125 Y60.729
G1 F1920 X83.570 Y59.175 E84.11497
G0 F10500 X83.138 Y59.450
G1 F1920 X82.647 Y59.312 E84.12257
G1 X81.940 Y59.312 E84.13016
G1 X81.233 Y59.312 E84.13775
G1 X80.732 Y59.519 E84.14534
G1 X80.035 Y59.175 E84.16057
G0 F10500 X84.277 Y59.175
G1 F1920 X85.313 Y60.211 E84.18927
G0 F10500 X85.776 Y59.713
G0 X88.260 Y59.622
G1 F1920 X89.717 Y61.079 E84.22965
G0 F10500 X89.528 Y61.597
G1 F1920 X88.666 Y60.735 E84.25353
G0 F10500 X89.072 Y61.848
G1 F1920 X89.339 Y62.115 E84.26093
G0 F10500 X89.905 Y60.560
G1 F1920 X88.520 Y59.175 E84.29931
G0 F10500 X88.088 Y59.450
G1 F1920 X87.597 Y59.312 E84.30691
G1 X86.890 Y59.312 E84.31450
G1 X86.183 Y59.312 E84.32209
G1 X85.597 Y59.434 E84.32969
G1 X84.985 Y59.175 E84.34271
G0 F10500 X89.227 Y59.175
G1 F1920 X90.094 Y60.042 E84.36674
G0 F10500 X92.763 Y59.175
G1 F1920 X94.495 Y60.908 E84.41475
G0 F10500 X94.306 Y61.426
G1 F1920 X93.251 Y60.371 E84.44398
G0 F10500 X93.657 Y61.483
G1 F1920 X94.118 Y61.944 E84.45675
G0 F10500 X94.684 Y60.389
G1 F1920 X93.470 Y59.175 E84.49040
G0 F10500 X94.177 Y59.175
G1 F1920 X95.016 Y59.661 E84.50970
G1 X95.237 Y59.175 E84.51729
G1 X96.082 Y59.312 E84.52487
G1 X96.789 Y59.312 E84.53247
G1 X97.280 Y59.450 E84.54246
G0 F10500 X97.712 Y59.175
G1 F1920 X99.276 Y60.739 E84.58580
G0 F10500 X99.087 Y61.257
G1 F1920 X97.836 Y60.006 E84.62046
G0 F10500 X98.420 Y59.175
G1 F1920 X99.465 Y60.220 E84.64942
G0 F10500 X98.241 Y61.118
G1 F1920 X98.898 Y61.775 E84.66763
G0 F10500 X99.653 Y59.702
G1 F1920 X99.480 Y59.175 E84.68221
G1 X100.325 Y59.312 E84.68979
G1 X101.032 Y59.312 E84.69739
G1 X101.739 Y59.312 E84.70498
G1 X102.230 Y59.450 E84.71497
G0 F10500 X102.419 Y59.639
G1 F1920 X103.866 Y61.086 E84.75507
G0 F10500 X104.055 Y60.568
G1 F1920 X102.662 Y59.175 E84.79367
G0 F10500 X103.369 Y59.175
G1 F1920 X104.244 Y60.050 E84.81792
G0 F10500 X102.825 Y60.752
G1 F1920 X103.678 Y61.605 E84.84155
G0 F10500 X103.231 Y61.865
G1 F1920 X103.490 Y62.124 E84.84873
G0 F10500 X104.647 Y59.713
G0 X106.886 Y59.713
G0 X107.410 Y60.387
G1 F1920 X108.458 Y61.435 E84.87777
G0 F10500 X108.646 Y60.917
G1 F1920 X106.905 Y59.175 E84.92603
G0 F10500 X106.473 Y59.450
G1 F1920 X105.982 Y59.312 E84.93362
G1 X105.275 Y59.312 E84.94122
G1 X104.608 Y59.353 E84.94881
G1 X104.076 Y59.175 E84.95980
G0 F10500 X107.612 Y59.175
G1 F1920 X108.835 Y60.398 E84.99369
G0 F10500 X107.816 Y61.500
G1 F1920 X108.269 Y61.953 E85.00625
G0 F10500 X109.365 Y59.713
G0 X111.604 Y59.713
G0 X111.995 Y60.023
G1 F1920 X113.237 Y61.265 E85.04066
G0 F10500 X113.048 Y61.783
G1 F1920 X112.401 Y61.136 E85.05859
G0 F10500 X113.426 Y60.746
G1 F1920 X111.855 Y59.175 E85.10212
G0 F10500 X111.423 Y59.450
G1 F1920 X110.931 Y59.312 E85.10975
G1 X110.224 Y59.312 E85.11734
G1 X109.517 Y59.312 E85.12494
G1 X109.025 Y59.527 E85.13253
G1 X108.319 Y59.175 E85.14799
G0 F10500 X112.562 Y59.175
G1 F1920 X113.615 Y60.228 E85.17717
G0 F10500 X114.083 Y59.713
G0 X116.579 Y59.657
G1 F1920 X118.021 Y61.098 E85.21711
G0 F10500 X118.211 Y60.582
G1 F1920 X116.804 Y59.175 E85.25610
G0 F10500 X116.372 Y59.450
G1 F1920 X115.881 Y59.312 E85.26370
G1 X115.174 Y59.312 E85.27129
G1 X114.467 Y59.312 E85.27888
G1 X113.889 Y59.442 E85.28647
G1 X113.269 Y59.175 E85.29970
G0 F10500 X117.511 Y59.175
G1 F1920 X118.400 Y60.064 E85.32433
G0 F10500 X116.985 Y60.770
G1 F1920 X117.831 Y61.616 E85.34778
G0 F10500 X117.391 Y61.883
G1 F1920 X117.642 Y62.134 E85.35473
G0 F10500 X118.572 Y59.529
G1 F1920 X118.219 Y59.175 E85.36453
G0 F10500 X92.331 Y59.450
G1 F1920 X91.840 Y59.312 E85.37212
G1 X91.132 Y59.312 E85.37973
G1 X90.462 Y59.349 E85.38733
G1 X89.934 Y59.175 E85.39822
G0 F10500 X85.776 Y59.713
G0 X81.058 Y59.713
G0 X79.968 Y61.936
G1 F1920 X79.496 Y61.465 E85.41128
;LAYER:3
G0 F10500 X80.579 Y60.775 Z1.175
;TYPE:WALL-INNER
G1 F1740 X79.819 Y62.859 E85.45475
G1 X78.641 Y59.626 E85.52217
G1 X76.281 Y59.626 E85.56842
G1 X75.102 Y62.858 E85.63583
G1 X73.924 Y59.626 E85.70323
G1 X71.561 Y59.626 E85.74953
G1 X71.144 Y60.775 E85.77348
G1 X70.384 Y62.860 E85.81697
G1 X69.205 Y59.626 E85.88441
G1 X66.845 Y59.626 E85.93066
G1 X65.666 Y62.859 E85.99809
G1 X64.488 Y59.626 E86.06551
G1 X62.127 Y59.626 E86.11177
G1 X60.948 Y62.859 E86.17920
G1 X59.770 Y59.626 E86.24662
G1 X57.409 Y59.626 E86.29289
G1 X56.231 Y62.859 E86.36031
G1 X55.052 Y59.626 E86.42774
G1 X53.437 Y59.626 E86.45938
G1 X42.755 Y80.062 E86.91122
G1 X42.753 Y97.000 E87.24310
G1 X41.254 Y97.000 E87.27248
G1 X41.253 Y59.001 E88.01704
G1 X118.748 Y59.001 E89.53550
G1 X118.748 Y59.626 E89.54775
G1 X118.322 Y60.775 E89.57176
G1 X117.562 Y62.860 E89.61524
G1 X116.383 Y59.626 E89.68269
G1 X114.022 Y59.626 E89.72895
G1 X112.844 Y62.859 E89.79638
G1 X111.665 Y59.626 E89.86381
G1 X109.303 Y59.626 E89.91009
G1 X108.886 Y60.775 E89.93404
G1 X108.126 Y62.860 E89.97752
G1 X106.947 Y59.626 E90.04497
G1 X104.585 Y59.626 E90.09125
G1 X104.168 Y60.775 E90.11520
G1 X103.408 Y62.860 E90.15869
G1 X102.229 Y59.626 E90.22613
G1 X99.869 Y59.626 E90.27238
G1 X98.690 Y62.859 E90.33981
G1 X97.512 Y59.626 E90.40723
G1 X95.149 Y59.626 E90.45353
G1 X94.732 Y60.775 E90.47748
G1 X93.972 Y62.859 E90.52095
G1 X92.794 Y59.626 E90.58837
G1 X90.432 Y59.626 E90.63465
G1 X90.015 Y60.775 E90.65860
G1 X89.255 Y62.861 E90.70210
G1 X88.076 Y59.626 E90.76957
G1 X85.715 Y59.626 E90.81583
G1 X84.537 Y62.859 E90.88325
G1 X83.358 Y59.626 E90.95068
G1 X80.996 Y59.626 E90.99697
G1 X80.579 Y60.775 E91.02092
G0 F10500 X81.347 Y60.126
;TYPE:WALL-OUTER
G1 F1500 X80.118 Y63.501 E91.09130
G1 X79.520 Y63.501 E91.10301
G1 X78.291 Y60.126 E91.17339
G1 X76.631 Y60.126 E91.20592
G1 X75.400 Y63.501 E91.27631
G1 X74.803 Y63.501 E91.28801
G1 X73.574 Y60.126 E91.35839
G1 X71.912 Y60.126 E91.39095
G1 X70.683 Y63.501 E91.46133
G1 X70.085 Y63.501 E91.47305
G1 X68.855 Y60.126 E91.54344
G1 X67.195 Y60.126 E91.57596
G1 X65.965 Y63.501 E91.64635
G1 X65.367 Y63.501 E91.65807
G1 X64.138 Y60.126 E91.72844
G1 X62.477 Y60.126 E91.76099
G1 X61.247 Y63.501 E91.83138
G1 X60.649 Y63.501 E91.84309
G1 X59.420 Y60.126 E91.91347
G1 X57.759 Y60.126 E91.94602
G1 X56.529 Y63.501 E92.01640
G1 X55.932 Y63.501 E92.02810
G1 X54.702 Y60.126 E92.09849
G1 X53.740 Y60.126 E92.11734
G1 X43.255 Y80.185 E92.56084
G1 X43.253 Y97.500 E92.90011
G1 X40.754 Y97.500 E92.94908
G1 X40.754 Y58.501 E93.71324
G1 X119.248 Y58.501 E95.25128
G1 X119.248 Y60.126 E95.28312
G1 X119.090 Y60.126 E95.28621
G1 X117.861 Y63.501 E95.35659
G1 X117.263 Y63.501 E95.36831
G1 X116.033 Y60.126 E95.43869
G1 X114.372 Y60.126 E95.47124
G1 X113.142 Y63.501 E95.54163
G1 X112.545 Y63.501 E95.55332
G1 X111.315 Y60.126 E95.62371
G1 X109.654 Y60.126 E95.65626
G1 X108.425 Y63.501 E95.72663
G1 X107.827 Y63.501 E95.73835
G1 X106.597 Y60.126 E95.80874
G1 X104.936 Y60.126 E95.84128
G1 X103.707 Y63.501 E95.91166
G1 X103.109 Y63.501 E95.92338
G1 X101.879 Y60.126 E95.99377
G1 X100.219 Y60.126 E96.02629
G1 X98.989 Y63.501 E96.09668
G1 X98.391 Y63.501 E96.10840
G1 X97.162 Y60.126 E96.17877
G1 X95.500 Y60.126 E96.21134
G1 X94.271 Y63.501 E96.28172
G1 X93.674 Y63.501 E96.29342
G1 X92.444 Y60.126 E96.36380
G1 X90.783 Y60.126 E96.39635
G1 X89.554 Y63.501 E96.46673
G1 X88.955 Y63.501 E96.47847
G1 X87.726 Y60.126 E96.54884
G1 X86.065 Y60.126 E96.58139
G1 X84.835 Y63.501 E96.65178
G1 X84.238 Y63.501 E96.66347
G1 X83.008 Y60.126 E96.73386
G1 X81.347 Y60.126 E96.76641
G0 F10500 X80.446 Y60.620
;TYPE:SKIN
G1 F2400 X79.525 Y61.542 E96.79194
G0 F10500 X80.042 Y61.732
G1 F2400 X79.714 Y62.060 E96.80103
G0 F10500 X79.336 Y61.024
G1 F2400 X80.851 Y59.509 E96.84301
G0 F10500 X80.909 Y59.451
G1 F2400 X81.400 Y59.312 E96.85067
G1 X82.107 Y59.312 E96.85832
G1 X82.814 Y59.312 E96.86597
G1 X83.428 Y59.406 E96.87361
G1 X84.014 Y59.174 E96.88596
G0 F10500 X84.721 Y59.174
G1 F2400 X83.738 Y60.157 E96.91320
G0 F10500 X83.927 Y60.676
G1 F2400 X85.428 Y59.174 E96.95480
G0 F10500 X85.859 Y59.451
G1 F2400 X86.350 Y59.312 E96.96246
G1 X87.057 Y59.312 E96.97011
G1 X87.764 Y59.312 E96.97776
G1 X88.292 Y59.491 E96.98540
G1 X88.963 Y59.174 E96.99995
G0 F10500 X89.671 Y59.174
G1 F2400 X88.518 Y60.327 E97.03190
G0 F10500 X88.707 Y60.845
G1 F2400 X90.378 Y59.174 E97.07820
G0 F10500 X90.808 Y59.451
G1 F2400 X91.300 Y59.312 E97.08585
G1 X92.007 Y59.312 E97.09350
G1 X92.709 Y59.317 E97.10115
G1 X93.206 Y59.174 E97.11128
G0 F10500 X93.913 Y59.174
G1 F2400 X93.109 Y59.978 E97.13356
G0 F10500 X93.298 Y60.497
G1 F2400 X94.620 Y59.174 E97.17021
G0 F10500 X95.009 Y59.493
G1 F2400 X93.487 Y61.015 E97.21238
G0 F10500 X93.676 Y61.533
G1 F2400 X94.605 Y60.604 E97.23813
G0 F10500 X94.200 Y61.716
G1 F2400 X93.864 Y62.052 E97.24744
G0 F10500 X92.733 Y59.713
G0 X90.494 Y59.713
G0 X90.021 Y60.238
G1 F2400 X88.896 Y61.364 E97.27863
G0 F10500 X89.084 Y61.882
G1 F2400 X89.618 Y61.349 E97.29341
G0 F10500 X88.015 Y59.713
G0 X85.776 Y59.713
G0 X85.436 Y59.873
G1 F2400 X84.116 Y61.193 E97.32999
G0 F10500 X84.305 Y61.712
G1 F2400 X85.031 Y60.985 E97.35012
G0 F10500 X84.625 Y62.098
G1 F2400 X84.521 Y62.203 E97.35302
G0 F10500 X85.776 Y59.713
G0 X88.015 Y59.713
G0 X92.733 Y59.713
G0 X97.451 Y59.713
G0 X97.889 Y60.149
G1 F2400 X98.863 Y59.174 E97.38002
G0 F10500 X99.570 Y59.174
G1 F2400 X98.078 Y60.666 E97.42136
G0 F10500 X98.267 Y61.185
G1 F2400 X99.598 Y59.854 E97.45825
G0 F10500 X98.156 Y59.174
G1 F2400 X97.574 Y59.402 E97.47089
G1 X96.957 Y59.312 E97.47853
G1 X96.250 Y59.312 E97.48615
G1 X95.543 Y59.312 E97.49377
G1 X95.052 Y59.450 E97.50377
G0 F10500 X80.478 Y59.174
G1 F2400 X79.147 Y60.505 E97.54065
G0 F10500 X78.580 Y59.713
G0 X76.236 Y59.174
G1 F2400 X74.558 Y60.852 E97.58715
G0 F10500 X74.368 Y60.335
G1 F2400 X75.528 Y59.174 E97.61931
G0 F10500 X74.821 Y59.174
G1 F2400 X74.008 Y59.633 E97.63709
G1 X73.760 Y59.174 E97.64475
G1 X72.915 Y59.312 E97.65240
G1 X72.208 Y59.312 E97.66005
G1 X71.716 Y59.451 E97.67007
G0 F10500 X71.286 Y59.174
G1 F2400 X69.777 Y60.683 E97.71188
G0 F10500 X69.588 Y60.165
G1 F2400 X70.579 Y59.174 E97.73935
G0 F10500 X69.872 Y59.174
G1 F2400 X69.281 Y59.410 E97.75244
G1 X68.673 Y59.312 E97.76007
G1 X67.966 Y59.312 E97.76768
G1 X67.258 Y59.312 E97.77531
G1 X66.767 Y59.450 E97.78531
G0 F10500 X66.694 Y59.524
G1 F2400 X65.186 Y61.031 E97.82708
G0 F10500 X64.997 Y60.513
G1 F2400 X66.336 Y59.174 E97.86419
G0 F10500 X65.629 Y59.174
G1 F2400 X64.809 Y59.995 E97.88692
G0 F10500 X64.620 Y59.476
G1 F2400 X64.568 Y59.174 E97.89529
G1 X63.723 Y59.312 E97.90294
G1 X63.015 Y59.312 E97.91060
G1 X62.524 Y59.451 E97.92060
G0 F10500 X62.093 Y59.174
G1 F2400 X60.407 Y60.861 E97.96733
G0 F10500 X60.596 Y61.379
G1 F2400 X61.703 Y60.272 E97.99801
G0 F10500 X61.386 Y59.174
G1 F2400 X60.217 Y60.343 E98.03040
G0 F10500 X61.297 Y61.385
G1 F2400 X60.785 Y61.898 E98.04460
G0 F10500 X62.188 Y59.713
G0 X64.427 Y59.713
G0 X65.375 Y61.550
G1 F2400 X66.287 Y60.637 E98.06989
G0 F10500 X65.881 Y61.750
G1 F2400 X65.564 Y62.068 E98.07869
G0 F10500 X66.906 Y59.713
G0 X69.144 Y59.713
G0 X69.966 Y61.201
G1 F2400 X71.277 Y59.891 E98.11500
G0 F10500 X76.666 Y59.451
G1 F2400 X77.158 Y59.312 E98.12266
G1 X77.865 Y59.312 E98.13030
G1 X78.563 Y59.321 E98.13796
G1 X79.064 Y59.174 E98.14819
G0 F10500 X79.771 Y59.174
G1 F2400 X78.959 Y59.987 E98.17071
G1 F600 E96.42071
G1 Z1.275
G0 F10500 X60.679 Y59.174
G1 Z1.175
G1 F600 E98.17071
G1 F2400 X59.862 Y59.637 E98.18870
G1 X59.618 Y59.174 E98.19633
G1 X58.773 Y59.312 E98.20395
G1 X58.066 Y59.312 E98.21157
G1 X57.575 Y59.450 E98.22156
G0 F10500 X57.144 Y59.174
G1 F2400 X55.628 Y60.690 E98.26357
G0 F10500 X55.439 Y60.172
G1 F2400 X56.437 Y59.174 E98.29123
G0 F10500 X55.729 Y59.174
G1 F2400 X55.135 Y59.414 E98.30453
G1 X54.531 Y59.312 E98.31214
G1 X53.824 Y59.312 E98.31976
G1 X53.333 Y59.450 E98.32976
G0 F10500 X53.327 Y59.456
G1 F2400 X41.428 Y71.354 E98.65947
G0 F10500 X41.428 Y72.061
G1 F2400 X52.552 Y60.937 E98.96772
G0 F10500 X51.778 Y62.419
G1 F2400 X41.428 Y72.769 E99.25453
G0 F10500 X41.428 Y73.476
G1 F2400 X51.004 Y63.900 E99.51988
G0 F10500 X50.230 Y65.381
G1 F2400 X41.428 Y74.183 E99.76379
G0 F10500 X41.428 Y74.890
G1 F2400 X49.455 Y66.863 E99.98623
G0 F10500 X48.681 Y68.344
G1 F2400 X41.428 Y75.597 E100.18721
G0 F10500 X41.428 Y76.304
G1 F2400 X47.907 Y69.826 E100.36673
G0 F10500 X47.132 Y71.307
G1 F2400 X41.428 Y77.011 E100.52479
G0 F10500 X41.428 Y77.718
G1 F2400 X46.357 Y72.789 E100.66138
G0 F10500 X45.583 Y74.270
G1 F2400 X41.429 Y78.425 E100.77650
G0 F10500 X41.429 Y79.132
G1 F2400 X44.809 Y75.752 E100.87016
G0 F10500 X44.035 Y77.233
G1 F2400 X41.429 Y79.839 E100.94238
G0 F10500 X41.429 Y80.546
G1 F2400 X43.260 Y78.715 E100.99312
G0 F10500 X41.428 Y70.647
G1 F2400 X52.901 Y59.174 E101.31104
G0 F10500 X52.194 Y59.174
G1 F2400 X41.428 Y69.940 E101.60937
G0 F10500 X41.428 Y69.233
G1 F2400 X51.487 Y59.174 E101.88811
G0 F10500 X50.780 Y59.174
G1 F2400 X41.428 Y68.526 E102.14726
G0 F10500 X41.428 Y67.819
G1 F2400 X50.073 Y59.174 E102.38682
G0 F10500 X49.365 Y59.174
G1 F2400 X41.428 Y67.112 E102.60677
G0 F10500 X41.428 Y66.405
G1 F2400 X48.658 Y59.174 E102.80713
G0 F10500 X47.951 Y59.174
G1 F2400 X41.428 Y65.697 E102.98789
G0 F10500 X41.428 Y64.990
G1 F2400 X47.244 Y59.174 E103.14905
G0 F10500 X46.537 Y59.174
G1 F2400 X41.428 Y64.283 E103.29063
G0 F10500 X41.428 Y63.576
G1 F2400 X45.830 Y59.174 E103.41261
G0 F10500 X45.123 Y59.174
G1 F2400 X41.428 Y62.869 E103.51500
G0 F10500 X41.428 Y62.162
G1 F2400 X44.416 Y59.174 E103.59780
G0 F10500 X43.709 Y59.174
G1 F2400 X41.428 Y61.455 E103.66101
G0 F10500 X41.428 Y60.748
G1 F2400 X43.001 Y59.174 E103.70461
G0 F10500 X42.294 Y59.174
G1 F2400 X41.428 Y60.041 E103.72862
G0 F10500 X54.991 Y59.713
G0 X55.816 Y61.209
G1 F2400 X57.119 Y59.906 E103.76473
G0 F10500 X41.587 Y59.174
G1 F2400 X41.428 Y59.334 E103.76915
G0 F10500 X54.991 Y59.713
G0 X56.006 Y61.726
G1 F2400 X56.714 Y61.019 E103.78875
G0 F10500 X56.308 Y62.132
G1 F2400 X56.237 Y62.202 E103.79071
G0 F10500 X57.470 Y59.713
G0 X59.709 Y59.713
G0 X64.427 Y59.713
G0 X69.144 Y59.713
G0 X70.155 Y61.719
G1 F2400 X70.873 Y61.002 E103.81059
G0 F10500 X70.468 Y62.113
G1 F2400 X70.378 Y62.204 E103.81310
G0 F10500 X71.623 Y59.713
G0 X73.863 Y59.713
G0 X74.746 Y61.371
G1 F2400 X75.864 Y60.253 E103.84408
G0 F10500 X75.458 Y61.366
G1 F2400 X74.935 Y61.889 E103.85857
G0 F10500 X76.342 Y59.713
G0 X78.580 Y59.713
G0 X83.297 Y59.713
G0 X88.015 Y59.713
G0 X92.733 Y59.713
G0 X97.451 Y59.713
G0 X98.456 Y61.703
G1 F2400 X99.191 Y60.968 E103.87894
G0 F10500 X98.785 Y62.081
G1 F2400 X98.663 Y62.203 E103.88232
G0 F10500 X100.001 Y59.451
G1 F2400 X100.492 Y59.312 E103.88998
G1 X101.199 Y59.312 E103.89762
G1 X101.906 Y59.312 E103.90527
G1 X102.438 Y59.487 E103.91293
G1 X103.106 Y59.174 E103.92738
G0 F10500 X103.813 Y59.174
G1 F2400 X102.668 Y60.319 E103.95911
G0 F10500 X102.857 Y60.838
G1 F2400 X104.520 Y59.174 E104.00521
G0 F10500 X104.950 Y59.451
G1 F2400 X105.442 Y59.312 E104.01286
G1 X106.149 Y59.312 E104.02051
G1 X106.855 Y59.313 E104.02815
G1 X107.348 Y59.174 E104.03818
G0 F10500 X108.055 Y59.174
G1 F2400 X107.259 Y59.971 E104.06025
G0 F10500 X107.448 Y60.489
G1 F2400 X108.762 Y59.174 E104.09668
G0 F10500 X109.170 Y59.474
G1 F2400 X107.637 Y61.007 E104.13916
G0 F10500 X107.826 Y61.526
G1 F2400 X108.766 Y60.585 E104.16522
G0 F10500 X108.361 Y61.697
G1 F2400 X108.014 Y62.044 E104.17484
G0 F10500 X106.886 Y59.713
G0 X104.647 Y59.713
G0 X104.180 Y60.222
G1 F2400 X103.045 Y61.356 E104.20628
G0 F10500 X103.235 Y61.873
G1 F2400 X103.776 Y61.333 E104.22125
G0 F10500 X104.647 Y59.713
G0 X106.886 Y59.713
G0 X111.604 Y59.713
G0 X112.039 Y60.140
G1 F2400 X113.005 Y59.174 E104.24802
G0 F10500 X113.712 Y59.174
G1 F2400 X112.228 Y60.659 E104.28916
G0 F10500 X112.417 Y61.177
G1 F2400 X113.756 Y59.838 E104.32626
G0 F10500 X114.143 Y59.451
G1 F2400 X114.634 Y59.312 E104.33392
G1 X115.341 Y59.312 E104.34157
G1 X116.048 Y59.312 E104.34922
G1 X116.585 Y59.483 E104.35688
G1 X117.248 Y59.174 E104.37121
G0 F10500 X117.955 Y59.174
G1 F2400 X116.818 Y60.311 E104.40272
G0 F10500 X117.007 Y60.829
G1 F2400 X118.571 Y59.265 E104.44606
G0 F10500 X112.298 Y59.174
G1 F2400 X111.720 Y59.398 E104.45850
G1 X111.099 Y59.312 E104.46616
G1 X110.392 Y59.312 E104.47381
G1 X109.685 Y59.312 E104.48145
G1 X109.193 Y59.451 E104.49147
G0 F10500 X111.604 Y59.713
G0 X112.606 Y61.695
G1 F2400 X113.351 Y60.950 E104.51212
G0 F10500 X112.946 Y62.062
G1 F2400 X112.805 Y62.203 E104.51602
G0 F10500 X114.083 Y59.713
G0 X116.322 Y59.713
G0 X117.196 Y61.347
G1 F2400 X118.351 Y60.192 E104.54803
G0 F10500 X117.941 Y61.310
G1 F2400 X117.385 Y61.866 E104.56344
G0 F10500 X118.857 Y58.892
G0 X41.144 Y58.892
G0 X42.579 Y80.103
G1 F2400 X41.429 Y81.253 E104.59530
G0 F10500 X41.429 Y81.960
G1 F2400 X42.579 Y80.810 E104.62717
G0 F10500 X42.579 Y81.518
G1 F2400 X41.429 Y82.667 E104.65902
G0 F10500 X41.429 Y83.374
G1 F2400 X42.579 Y82.225 E104.69088
G0 F10500 X42.579 Y82.932
G1 F2400 X41.429 Y84.082 E104.72274
G0 F10500 X41.429 Y84.789
G1 F2400 X42.579 Y83.639 E104.75461
G0 F10500 X42.579 Y84.346
G1 F2400 X41.429 Y85.496 E104.78648
G0 F10500 X41.429 Y86.203
G1 F2400 X42.579 Y85.053 E104.81835
G0 F10500 X42.578 Y85.761
G1 F2400 X41.429 Y86.910 E104.85019
G0 F10500 X41.429 Y87.617
G1 F2400 X42.578 Y86.468 E104.88203
G0 F10500 X42.578 Y87.175
G1 F2400 X41.429 Y88.324 E104.91386
G0 F10500 X41.429 Y89.031
G1 F2400 X42.578 Y87.882 E104.94570
G0 F10500 X42.578 Y88.589
G1 F2400 X41.429 Y89.738 E104.97754
G0 F10500 X41.429 Y90.446
G1 F2400 X42.578 Y89.296 E105.00940
G0 F10500 X42.578 Y90.004
G1 F2400 X41.429 Y91.153 E105.04124
G0 F10500 X41.429 Y91.860
G1 F2400 X42.578 Y90.711 E105.07308
G0 F10500 X42.577 Y91.419
G1 F2400 X41.429 Y92.567 E105.10489
G0 F10500 X41.429 Y93.274
G1 F2400 X42.577 Y92.126 E105.13670
G0 F10500 X42.577 Y92.833
G1 F2400 X41.429 Y93.981 E105.16851
G0 F10500 X41.429 Y94.688
G1 F2400 X42.577 Y93.540 E105.20032
G0 F10500 X42.577 Y94.247
G1 F2400 X41.429 Y95.395 E105.23213
G0 F10500 X41.429 Y96.102
G1 F2400 X42.577 Y94.954 E105.26395
G0 F10500 X42.577 Y95.661
G1 F2400 X41.429 Y96.809 E105.29576
G0 F10500 X42.122 Y96.824
G1 F2400 X42.577 Y96.368 E105.30838
;LAYER:4
G0 F10500 X42.752 Y95.572 Z1.425
;TYPE:WALL-INNER
G1 F2100 X42.753 Y97.000 E105.33636
G1 X41.254 Y97.000 E105.36573
G1 X41.253 Y59.001 E106.11030
G1 X118.748 Y59.001 E107.62876
G1 X118.748 Y59.626 E107.64101
G1 X117.562 Y62.860 E107.70850
G1 X116.383 Y59.626 E107.77595
G1 X114.022 Y59.626 E107.82221
G1 X112.844 Y62.859 E107.88963
G1 X111.665 Y59.626 E107.95706
G1 X109.304 Y59.626 E108.00333
G1 X108.126 Y62.860 E108.07077
G1 X106.947 Y59.626 E108.13821
G1 X104.586 Y59.626 E108.18448
G1 X103.408 Y62.860 E108.25192
G1 X102.229 Y59.626 E108.31937
G1 X99.869 Y59.626 E108.36561
G1 X98.690 Y62.860 E108.43306
G1 X97.512 Y59.626 E108.50050
G1 X95.150 Y59.626 E108.54678
G1 X93.973 Y62.859 E108.61419
G1 X92.794 Y59.626 E108.68162
G1 X90.433 Y59.626 E108.72789
G1 X89.255 Y62.862 E108.79536
G1 X88.076 Y59.626 E108.86285
G1 X85.715 Y59.626 E108.90911
G1 X84.537 Y62.859 E108.97653
G1 X83.358 Y59.626 E109.04396
G1 X80.997 Y59.626 E109.09023
G1 X79.819 Y62.861 E109.15768
G1 X78.641 Y59.626 E109.22514
G1 X76.281 Y59.626 E109.27139
G1 X75.102 Y62.859 E109.33882
G1 X73.924 Y59.626 E109.40624
G1 X71.562 Y59.626 E109.45252
G1 X70.384 Y62.860 E109.51996
G1 X69.205 Y59.626 E109.58741
G1 X66.845 Y59.626 E109.63365
G1 X65.666 Y62.860 E109.70110
G1 X64.488 Y59.626 E109.76854
G1 X62.127 Y59.626 E109.81480
G1 X60.948 Y62.860 E109.88225
G1 X59.770 Y59.626 E109.94969
G1 X57.409 Y59.626 E109.99595
G1 X56.231 Y62.859 E110.06338
G1 X55.052 Y59.626 E110.13081
G1 X53.437 Y59.626 E110.16245
G1 X42.753 Y80.065 E110.61435
G1 X42.752 Y95.572 E110.91820
G0 F10500 X43.252 Y95.571
;TYPE:WALL-OUTER
G1 F1800 X43.253 Y97.500 E110.95600
G1 X40.754 Y97.500 E111.00497
G1 X40.754 Y58.501 E111.76913
G1 X119.248 Y58.501 E113.30716
G1 X119.248 Y60.126 E113.33900
G1 X119.090 Y60.126 E113.34210
G1 X117.861 Y63.501 E113.41248
G1 X117.263 Y63.501 E113.42420
G1 X116.033 Y60.126 E113.49458
G1 X114.372 Y60.126 E113.52713
G1 X113.142 Y63.501 E113.59751
G1 X112.545 Y63.501 E113.60921
G1 X111.315 Y60.126 E113.67960
G1 X109.654 Y60.126 E113.71214
G1 X108.425 Y63.501 E113.78252
G1 X107.827 Y63.501 E113.79424
G1 X106.597 Y60.126 E113.86463
G1 X104.936 Y60.126 E113.89717
G1 X103.707 Y63.501 E113.96755
G1 X103.109 Y63.501 E113.97927
G1 X101.879 Y60.126 E114.04965
G1 X100.219 Y60.126 E114.08218
G1 X98.989 Y63.501 E114.15257
G1 X98.391 Y63.501 E114.16428
G1 X97.162 Y60.126 E114.23466
G1 X95.500 Y60.126 E114.26723
G1 X94.271 Y63.501 E114.33761
G1 X93.674 Y63.501 E114.34931
G1 X92.444 Y60.126 E114.41969
G1 X90.783 Y60.126 E114.45224
G1 X89.554 Y63.501 E114.52262
G1 X88.955 Y63.501 E114.53435
G1 X87.726 Y60.126 E114.60473
G1 X86.065 Y60.126 E114.63728
G1 X84.835 Y63.501 E114.70766
G1 X84.238 Y63.501 E114.71936
G1 X83.008 Y60.126 E114.78975
G1 X81.347 Y60.126 E114.82229
G1 X80.118 Y63.501 E114.89267
G1 X79.520 Y63.501 E114.90439
G1 X78.291 Y60.126 E114.97477
G1 X76.631 Y60.126 E115.00730
G1 X75.400 Y63.501 E115.07769
G1 X74.803 Y63.501 E115.08939
G1 X73.574 Y60.126 E115.15977
G1 X71.912 Y60.126 E115.19233
G1 X70.683 Y63.501 E115.26271
G1 X70.085 Y63.501 E115.27443
G1 X68.855 Y60.126 E115.34481
G1 X67.195 Y60.126 E115.37734
G1 X65.965 Y63.501 E115.44773
G1 X65.367 Y63.501 E115.45944
G1 X64.138 Y60.126 E115.52982
G1 X62.477 Y60.126 E115.56237
G1 X61.247 Y63.501 E115.63275
G1 X60.649 Y63.501 E115.64447
G1 X59.420 Y60.126 E115.71485
G1 X57.759 Y60.126 E115.74740
G1 X56.529 Y63.501 E115.81778
G1 X55.932 Y63.501 E115.82948
G1 X54.702 Y60.126 E115.89987
G1 X53.740 Y60.126 E115.91872
G1 X43.253 Y80.188 E116.36228
G1 X43.252 Y95.571 E116.66370
G0 F10500 X42.578 Y95.611
;TYPE:FILL
G1 F2400 X41.428 Y94.461 E116.69557
G0 F10500 X42.577 Y95.308
G1 F2400 X41.429 Y96.456 E116.72738
G0 F10500 X41.429 Y89.385
G1 F2400 X42.577 Y88.237 E116.75920
G0 F10500 X42.578 Y88.540
G1 F2400 X41.428 Y87.390 E116.79106
G0 F10500 X41.429 Y82.314
G1 F2400 X42.577 Y81.165 E116.82289
G0 F10500 X42.578 Y81.469
G1 F2400 X41.428 Y80.319 E116.85475
G0 F10500 X44.508 Y76.328
G1 F2400 X41.427 Y73.247 E116.94013
G0 F10500 X41.428 Y75.243
G1 F2400 X49.068 Y67.604 E117.15183
G0 F10500 X49.363 Y67.040
G1 F2400 X41.497 Y59.175 E117.36978
G0 F10500 X43.355 Y59.174
G1 F2400 X41.428 Y61.101 E117.42318
G0 F10500 X41.427 Y66.176
G1 F2400 X46.936 Y71.685 E117.57584
G0 F10500 X41.428 Y68.172
G1 F2400 X50.426 Y59.174 E117.82518
G0 F10500 X48.569 Y59.175
G1 F2400 X51.790 Y62.397 E117.91445
G0 F10500 X53.485 Y59.705
G0 X54.991 Y59.713
G0 X55.722 Y60.949
G1 F2400 X57.497 Y59.174 E117.96363
G0 F10500 X56.919 Y60.455
G1 F2400 X55.640 Y59.175 E117.99909
G0 F10500 X62.711 Y59.175
G1 F2400 X62.986 Y59.450 E118.00671
G0 F10500 X64.292 Y59.451
G1 F2400 X64.568 Y59.174 E118.01437
G0 F10500 X69.782 Y59.175
G1 F2400 X71.070 Y60.463 E118.05006
G0 F10500 X69.872 Y60.942
G1 F2400 X71.639 Y59.174 E118.09904
G0 F10500 X76.853 Y59.175
G1 F2400 X77.128 Y59.450 E118.10666
G0 F10500 X78.434 Y59.451
G1 F2400 X78.710 Y59.174 E118.11432
G0 F10500 X79.698 Y62.020
G1 F2400 X79.874 Y62.197 E118.11922
G0 F10500 X78.580 Y59.713
G0 X76.342 Y59.713
G0 X71.623 Y59.713
G0 X66.906 Y59.713
G0 X65.723 Y62.187
G1 F2400 X65.538 Y62.003 E118.12433
G0 F10500 X66.906 Y59.713
G0 X69.144 Y59.713
G0 X73.863 Y59.713
G0 X78.580 Y59.713
G0 X83.297 Y59.713
G0 X84.021 Y60.934
G1 F2400 X85.781 Y59.174 E118.17310
G0 F10500 X85.219 Y60.471
G1 F2400 X83.924 Y59.175 E118.20900
G0 F10500 X90.995 Y59.175
G1 F2400 X91.270 Y59.450 E118.21662
G0 F10500 X92.576 Y59.451
G1 F2400 X92.853 Y59.174 E118.22429
G0 F10500 X98.066 Y59.175
G1 F2400 X99.371 Y60.480 E118.26046
G0 F10500 X98.172 Y60.926
G1 F2400 X99.924 Y59.174 E118.30901
G0 F10500 X105.137 Y59.175
G1 F2400 X105.412 Y59.450 E118.31663
G0 F10500 X106.718 Y59.451
G1 F2400 X106.995 Y59.174 E118.32430
G0 F10500 X112.208 Y59.175
G1 F2400 X113.520 Y60.487 E118.36066
G0 F10500 X112.323 Y60.917
G1 F2400 X114.066 Y59.174 E118.40896
G0 F10500 X109.365 Y59.713
G0 X108.165 Y62.203
G1 F2400 X108.019 Y62.057 E118.41300
G0 F10500 X106.886 Y59.713
G0 X104.647 Y59.713
G0 X99.930 Y59.713
G0 X95.211 Y59.713
G0 X94.022 Y62.202
G1 F2400 X93.862 Y62.042 E118.41744
;LAYER:5
G0 F10500 X92.794 Y59.626 Z1.675
;TYPE:WALL-INNER
G1 F2100 X90.433 Y59.626 E118.46370
G1 X89.255 Y62.862 E118.53118
G1 X88.076 Y59.626 E118.59866
G1 X85.715 Y59.626 E118.64492
G1 X84.537 Y62.860 E118.71236
G1 X83.358 Y59.626 E118.77981
G1 X80.997 Y59.626 E118.82607
G1 X79.819 Y62.861 E118.89353
G1 X78.641 Y59.626 E118.96099
G1 X76.281 Y59.626 E119.00724
G1 X75.102 Y62.859 E119.07467
G1 X73.924 Y59.626 E119.14209
G1 X71.562 Y59.626 E119.18837
G1 X70.384 Y62.861 E119.25583
G1 X69.205 Y59.626 E119.32330
G1 X66.845 Y59.626 E119.36954
G1 X65.666 Y62.861 E119.43700
G1 X64.488 Y59.626 E119.50446
G1 X62.127 Y59.626 E119.55073
G1 X60.948 Y62.861 E119.61819
G1 X59.770 Y59.626 E119.68565
G1 X57.409 Y59.626 E119.73191
G1 X56.231 Y62.860 E119.79936
G1 X55.052 Y59.626 E119.86680
G1 X53.437 Y59.626 E119.89845
G1 X42.753 Y80.065 E120.35035
G1 X42.753 Y97.000 E120.68218
G1 X41.254 Y97.000 E120.71155
G1 X41.253 Y59.001 E121.45612
G1 X118.748 Y59.001 E122.97458
G1 X118.748 Y59.626 E122.98683
G1 X117.562 Y62.860 E123.05432
G1 X116.383 Y59.626 E123.12177
G1 X114.022 Y59.626 E123.16803
G1 X112.844 Y62.860 E123.23547
G1 X111.665 Y59.626 E123.30292
G1 X109.304 Y59.626 E123.34918
G1 X108.126 Y62.861 E123.41664
G1 X106.947 Y59.626 E123.48411
G1 X104.586 Y59.626 E123.53037
G1 X103.408 Y62.861 E123.59783
G1 X102.229 Y59.626 E123.66530
G1 X99.869 Y59.626 E123.71154
G1 X98.690 Y62.861 E123.77901
G1 X97.512 Y59.626 E123.84646
G1 X95.150 Y59.626 E123.89275
G1 X93.972 Y62.860 E123.96019
G1 X92.794 Y59.626 E124.02763
G0 F10500 X92.444 Y60.126
;TYPE:WALL-OUTER
G1 F1800 X90.783 Y60.126 E124.06017
G1 X89.554 Y63.501 E124.13055
G1 X88.955 Y63.501 E124.14229
G1 X87.726 Y60.126 E124.21267
G1 X86.065 Y60.126 E124.24522
G1 X84.835 Y63.501 E124.31560
G1 X84.238 Y63.501 E124.32730
G1 X83.008 Y60.126 E124.39769
G1 X81.347 Y60.126 E124.43023
G1 X80.118 Y63.501 E124.50061
G1 X79.520 Y63.501 E124.51233
G1 X78.291 Y60.126 E124.58271
G1 X76.631 Y60.126 E124.61523
G1 X75.400 Y63.501 E124.68563
G1 X74.803 Y63.501 E124.69732
G1 X73.574 Y60.126 E124.76770
G1 X71.912 Y60.126 E124.80027
G1 X70.683 Y63.501 E124.87065
G1 X70.085 Y63.501 E124.88236
G1 X68.855 Y60.126 E124.95275
G1 X67.195 Y60.126 E124.98528
G1 X65.965 Y63.501 E125.05566
G1 X65.367 Y63.501 E125.06738
G1 X64.138 Y60.126 E125.13776
G1 X62.477 Y60.126 E125.17031
G1 X61.247 Y63.501 E125.24069
G1 X60.649 Y63.501 E125.25241
G1 X59.420 Y60.126 E125.32279
G1 X57.759 Y60.126 E125.35533
G1 X56.529 Y63.501 E125.42572
G1 X55.932 Y63.501 E125.43742
G1 X54.702 Y60.126 E125.50780
G1 X53.740 Y60.126 E125.52665
G1 X43.253 Y80.188 E125.97022
G1 X43.253 Y97.500 E126.30944
G1 X40.754 Y97.500 E126.35840
G1 X40.754 Y58.501 E127.12256
G1 X119.248 Y58.501 E128.66060
G1 X119.248 Y60.126 E128.69244
G1 X119.090 Y60.126 E128.69554
G1 X117.861 Y63.501 E128.76592
G1 X117.263 Y63.501 E128.77763
G1 X116.033 Y60.126 E128.84802
G1 X114.372 Y60.126 E128.88057
G1 X113.142 Y63.501 E128.95095
G1 X112.545 Y63.501 E128.96265
G1 X111.315 Y60.126 E129.03304
G1 X109.654 Y60.126 E129.06558
G1 X108.425 Y63.501 E129.13596
G1 X107.827 Y63.501 E129.14768
G1 X106.597 Y60.126 E129.21806
G1 X104.936 Y60.126 E129.25061
G1 X103.707 Y63.501 E129.32099
G1 X103.109 Y63.501 E129.33271
G1 X101.879 Y60.126 E129.40309
G1 X100.219 Y60.126 E129.43562
G1 X98.989 Y63.501 E129.50600
G1 X98.391 Y63.501 E129.51772
G1 X97.162 Y60.126 E129.58810
G1 X95.500 Y60.126 E129.62067
G1 X94.271 Y63.501 E129.69105
G1 X93.674 Y63.501 E129.70274
G1 X92.444 Y60.126 E129.77313
G0 F10500 X92.772 Y60.007
G0 X93.859 Y62.039
;TYPE:FILL
G1 F2400 X94.023 Y62.203 E129.77767
G0 F10500 X95.211 Y59.713
G0 X97.451 Y59.713
G0 X98.171 Y60.927
G1 F2400 X99.924 Y59.174 E129.82625
G0 F10500 X99.370 Y60.479
G1 F2400 X98.066 Y59.175 E129.86239
G0 F10500 X92.853 Y59.174
G1 F2400 X92.576 Y59.451 E129.87006
G0 F10500 X91.270 Y59.450
G1 F2400 X90.995 Y59.175 E129.87768
G0 F10500 X85.781 Y59.174
G1 F2400 X84.021 Y60.934 E129.92645
G0 F10500 X85.220 Y60.471
G1 F2400 X83.924 Y59.175 E129.96236
G0 F10500 X81.058 Y59.713
G0 X79.874 Y62.197
G1 F2400 X79.698 Y62.020 E129.96726
G0 F10500 X78.580 Y59.713
G0 X76.342 Y59.713
G0 X71.639 Y59.174
G1 F2400 X69.872 Y60.942 E130.01623
G0 F10500 X71.070 Y60.463
G1 F2400 X69.782 Y59.175 E130.05193
G0 F10500 X64.568 Y59.174
G1 F2400 X64.292 Y59.451 E130.05959
G0 F10500 X62.986 Y59.450
G1 F2400 X62.711 Y59.175 E130.06721
G0 F10500 X76.853 Y59.175
G1 F2400 X77.128 Y59.450 E130.07483
G0 F10500 X78.434 Y59.451
G1 F2400 X78.710 Y59.174 E130.08249
G0 F10500 X71.623 Y59.713
G0 X66.906 Y59.713
G0 X65.724 Y62.188
G1 F2400 X65.538 Y62.002 E130.08764
G0 F10500 X64.427 Y59.713
G0 X62.188 Y59.713
G0 X57.497 Y59.174
G1 F2400 X55.722 Y60.950 E130.13684
G0 F10500 X56.920 Y60.456
G1 F2400 X55.640 Y59.175 E130.17233
G0 F10500 X53.485 Y59.705
G0 X51.790 Y62.397
G1 F2400 X48.569 Y59.175 E130.26160
G0 F10500 X50.426 Y59.174
G1 F2400 X41.428 Y68.172 E130.51094
G0 F10500 X41.427 Y66.176
G1 F2400 X46.936 Y71.685 E130.66359
G0 F10500 X49.068 Y67.604
G1 F2400 X41.428 Y75.243 E130.87529
G0 F10500 X41.427 Y73.247
G1 F2400 X44.508 Y76.328 E130.96067
G0 F10500 X49.363 Y67.040
G1 F2400 X41.497 Y59.175 E131.17862
G0 F10500 X43.355 Y59.174
G1 F2400 X41.428 Y61.101 E131.23202
G0 F10500 X41.428 Y80.319
G1 F2400 X42.578 Y81.469 E131.26389
G0 F10500 X42.577 Y81.165
G1 F2400 X41.429 Y82.314 E131.29571
G0 F10500 X41.428 Y87.390
G1 F2400 X42.578 Y88.540 E131.32758
G0 F10500 X42.577 Y88.237
G1 F2400 X41.429 Y89.385 E131.35939
G0 F10500 X41.428 Y94.461
G1 F2400 X42.578 Y95.611 E131.39126
G0 F10500 X42.577 Y95.308
G1 F2400 X41.429 Y96.456 E131.42307
G0 F10500 X41.144 Y58.892
G0 X118.801 Y59.713
G0 X114.083 Y59.713
G0 X109.365 Y59.713
G0 X104.647 Y59.713
G0 X105.137 Y59.175
G1 F2400 X105.412 Y59.450 E131.43069
G0 F10500 X106.718 Y59.451
G1 F2400 X106.995 Y59.174 E131.43837
G0 F10500 X112.208 Y59.175
G1 F2400 X113.521 Y60.488 E131.47475
G0 F10500 X112.323 Y60.917
G1 F2400 X114.066 Y59.174 E131.52305
G0 F10500 X109.365 Y59.713
G0 X108.166 Y62.204
G1 F2400 X108.019 Y62.057 E131.52713
;LAYER:6
G0 F10500 X106.947 Y59.626 Z1.925
;TYPE:WALL-INNER
G1 F2100 X104.586 Y59.626 E131.57339
G1 X103.408 Y62.861 E131.64085
G1 X102.229 Y59.626 E131.70831
G1 X99.869 Y59.626 E131.75456
G1 X98.690 Y62.861 E131.82202
G1 X97.512 Y59.626 E131.88948
G1 X95.150 Y59.626 E131.93576
G1 X93.972 Y62.860 E132.00320
G1 X92.794 Y59.626 E132.07065
G1 X90.433 Y59.626 E132.11691
G1 X89.255 Y62.862 E132.18439
G1 X88.076 Y59.626 E132.25187
G1 X85.715 Y59.626 E132.29813
G1 X84.537 Y62.860 E132.36557
G1 X83.358 Y59.626 E132.43302
G1 X80.997 Y59.626 E132.47928
G1 X79.819 Y62.861 E132.54674
G1 X78.641 Y59.626 E132.61420
G1 X76.281 Y59.626 E132.66044
G1 X75.102 Y62.859 E132.72787
G1 X73.924 Y59.626 E132.79530
G1 X71.562 Y59.626 E132.84158
G1 X70.384 Y62.861 E132.90904
G1 X69.205 Y59.626 E132.97650
G1 X66.845 Y59.626 E133.02275
G1 X65.666 Y62.861 E133.09021
G1 X64.488 Y59.626 E133.15767
G1 X62.127 Y59.626 E133.20393
G1 X60.948 Y62.861 E133.27140
G1 X59.770 Y59.626 E133.33886
G1 X57.409 Y59.626 E133.38512
G1 X56.231 Y62.860 E133.45256
G1 X55.052 Y59.626 E133.52001
G1 X53.437 Y59.626 E133.55166
G1 X42.753 Y80.065 E134.00356
G1 X42.753 Y97.000 E134.33539
G1 X41.254 Y97.000 E134.36476
G1 X41.253 Y59.001 E135.10933
G1 X118.748 Y59.001 E136.62779
G1 X118.748 Y59.626 E136.64004
G1 X117.562 Y62.860 E136.70753
G1 X116.383 Y59.626 E136.77498
G1 X114.022 Y59.626 E136.82124
G1 X112.844 Y62.860 E136.88868
G1 X111.665 Y59.626 E136.95613
G1 X109.304 Y59.626 E137.00239
G1 X108.126 Y62.861 E137.06985
G1 X106.947 Y59.626 E137.13732
G0 F10500 X106.597 Y60.126
;TYPE:WALL-OUTER
G1 F1800 X104.936 Y60.126 E137.16986
G1 X103.707 Y63.501 E137.24024
G1 X103.109 Y63.501 E137.25196
G1 X101.879 Y60.126 E137.32235
G1 X100.219 Y60.126 E137.35487
G1 X98.989 Y63.501 E137.42526
G1 X98.391 Y63.501 E137.43698
G1 X97.162 Y60.126 E137.50735
G1 X95.500 Y60.126 E137.53992
G1 X94.271 Y63.501 E137.61030
G1 X93.674 Y63.501 E137.62200
G1 X92.444 Y60.126 E137.69238
G1 X90.783 Y60.126 E137.72493
G1 X89.554 Y63.501 E137.79531
G1 X88.955 Y63.501 E137.80704
G1 X87.726 Y60.126 E137.87742
G1 X86.065 Y60.126 E137.90997
G1 X84.835 Y63.501 E137.98036
G1 X84.238 Y63.501 E137.99205
G1 X83.008 Y60.126 E138.06244
G1 X81.347 Y60.126 E138.09499
G1 X80.118 Y63.501 E138.16536
G1 X79.520 Y63.501 E138.17708
G1 X78.291 Y60.126 E138.24746
G1 X76.631 Y60.126 E138.27999
G1 X75.400 Y63.501 E138.35038
G1 X74.803 Y63.501 E138.36208
G1 X73.574 Y60.126 E138.43246
G1 X71.912 Y60.126 E138.46502
G1 X70.683 Y63.501 E138.53540
G1 X70.085 Y63.501 E138.54712
G1 X68.855 Y60.126 E138.61750
G1 X67.195 Y60.126 E138.65003
G1 X65.965 Y63.501 E138.72042
G1 X65.367 Y63.501 E138.73213
G1 X64.138 Y60.126 E138.80251
G1 X62.477 Y60.126 E138.83506
G1 X61.247 Y63.501 E138.90545
G1 X60.649 Y63.501 E138.91716
G1 X59.420 Y60.126 E138.98754
G1 X57.759 Y60.126 E139.02009
G1 X56.529 Y63.501 E139.09047
G1 X55.932 Y63.501 E139.10217
G1 X54.702 Y60.126 E139.17256
G1 X53.740 Y60.126 E139.19141
G1 X43.253 Y80.188 E139.63498
G1 X43.253 Y97.500 E139.97419
G1 X40.754 Y97.500 E140.02316
G1 X40.754 Y58.501 E140.78732
G1 X119.248 Y58.501 E142.32536
G1 X119.248 Y60.126 E142.35720
G1 X119.090 Y60.126 E142.36029
G1 X117.861 Y63.501 E142.43067
G1 X117.263 Y63.501 E142.44239
G1 X116.033 Y60.126 E142.51277
G1 X114.372 Y60.126 E142.54532
G1 X113.142 Y63.501 E142.61571
G1 X112.545 Y63.501 E142.62740
G1 X111.315 Y60.126 E142.69779
G1 X109.654 Y60.126 E142.73034
G1 X108.425 Y63.501 E142.80071
G1 X107.827 Y63.501 E142.81243
G1 X106.597 Y60.126 E142.88282
G0 F10500 X106.925 Y60.007
G0 X108.019 Y62.057
;TYPE:FILL
G1 F2400 X108.166 Y62.204 E142.88689
G0 F10500 X109.365 Y59.713
G0 X111.604 Y59.713
G0 X112.323 Y60.917
G1 F2400 X114.066 Y59.174 E142.93519
G0 F10500 X113.521 Y60.488
G1 F2400 X112.208 Y59.175 E142.97157
G0 F10500 X106.995 Y59.174
G1 F2400 X106.718 Y59.451 E142.97925
G0 F10500 X105.412 Y59.450
G1 F2400 X105.137 Y59.175 E142.98687
G0 F10500 X99.924 Y59.174
G1 F2400 X98.171 Y60.927 E143.03545
G0 F10500 X99.370 Y60.479
G1 F2400 X98.066 Y59.175 E143.07158
G0 F10500 X92.853 Y59.174
G1 F2400 X92.576 Y59.451 E143.07926
G0 F10500 X91.270 Y59.450
G1 F2400 X90.995 Y59.175 E143.08688
G0 F10500 X85.781 Y59.174
G1 F2400 X84.021 Y60.934 E143.13565
G0 F10500 X85.220 Y60.471
G1 F2400 X83.924 Y59.175 E143.17156
G0 F10500 X81.058 Y59.713
G0 X79.874 Y62.197
G1 F2400 X79.698 Y62.020 E143.17645
G0 F10500 X78.580 Y59.713
G0 X76.342 Y59.713
G0 X71.639 Y59.174
G1 F2400 X69.872 Y60.942 E143.22543
G0 F10500 X71.070 Y60.463
G1 F2400 X69.782 Y59.175 E143.26112
G0 F10500 X64.568 Y59.174
G1 F2400 X64.292 Y59.451 E143.26878
G0 F10500 X62.986 Y59.450
G1 F2400 X62.711 Y59.175 E143.27640
G0 F10500 X76.853 Y59.175
G1 F2400 X77.128 Y59.450 E143.28403
G0 F10500 X78.434 Y59.451
G1 F2400 X78.710 Y59.174 E143.29169
G0 F10500 X71.623 Y59.713
G0 X66.906 Y59.713
G0 X65.724 Y62.188
G1 F2400 X65.538 Y62.002 E143.29684
G0 F10500 X64.427 Y59.713
G0 X62.188 Y59.713
G0 X57.497 Y59.174
G1 F2400 X55.722 Y60.950 E143.34604
G0 F10500 X56.920 Y60.456
G1 F2400 X55.640 Y59.175 E143.38152
G0 F10500 X53.485 Y59.705
G0 X51.790 Y62.397
G1 F2400 X48.569 Y59.175 E143.47079
G0 F10500 X50.426 Y59.174
G1 F2400 X41.428 Y68.172 E143.72013
G0 F10500 X41.427 Y66.176
G1 F2400 X46.936 Y71.685 E143.87279
G0 F10500 X49.068 Y67.604
G1 F2400 X41.428 Y75.243 E144.08449
G0 F10500 X41.427 Y73.247
G1 F2400 X44.508 Y76.328 E144.16986
G0 F10500 X49.363 Y67.040
G1 F2400 X41.497 Y59.175 E144.38782
G0 F10500 X43.355 Y59.174
G1 F2400 X41.428 Y61.101 E144.44122
G0 F10500 X41.428 Y80.319
G1 F2400 X42.578 Y81.469 E144.47309
G0 F10500 X42.577 Y81.165
G1 F2400 X41.429 Y82.314 E144.50491
G0 F10500 X41.428 Y87.390
G1 F2400 X42.578 Y88.540 E144.53678
G0 F10500 X42.577 Y88.237
G1 F2400 X41.429 Y89.385 E144.56859
G0 F10500 X41.428 Y94.461
G1 F2400 X42.578 Y95.611 E144.60046
G0 F10500 X42.577 Y95.308
G1 F2400 X41.429 Y96.456 E144.63227
G0 F10500 X41.144 Y58.892
G0 X118.801 Y59.713
G0 X114.083 Y59.713
G0 X109.365 Y59.713
G0 X104.647 Y59.713
G0 X99.930 Y59.713
G0 X95.211 Y59.713
G0 X93.859 Y62.039
G1 F2400 X94.023 Y62.203 E144.63681
;LAYER:7
G0 F10500 X95.150 Y59.626 Z2.175
;TYPE:WALL-INNER
G1 F2100 X93.972 Y62.860 E144.70425
G1 X92.794 Y59.626 E144.77170
G1 X90.433 Y59.626 E144.81796
G1 X89.255 Y62.862 E144.88544
G1 X88.076 Y59.626 E144.95292
G1 X85.715 Y59.626 E144.99918
G1 X84.537 Y62.860 E145.06662
G1 X83.358 Y59.626 E145.13407
G1 X80.997 Y59.626 E145.18033
G1 X79.819 Y62.861 E145.24779
G1 X78.641 Y59.626 E145.31525
G1 X76.281 Y59.626 E145.36150
G1 X75.102 Y62.859 E145.42892
G1 X73.924 Y59.626 E145.49635
G1 X71.562 Y59.626 E145.54263
G1 X70.384 Y62.861 E145.61009
G1 X69.205 Y59.626 E145.67755
G1 X66.845 Y59.626 E145.72380
G1 X65.666 Y62.861 E145.79126
G1 X64.488 Y59.626 E145.85872
G1 X62.127 Y59.626 E145.90499
G1 X60.948 Y62.861 E145.97245
G1 X59.770 Y59.626 E146.03991
G1 X57.409 Y59.626 E146.08617
G1 X56.231 Y62.860 E146.15361
G1 X55.052 Y59.626 E146.22106
G1 X53.437 Y59.626 E146.25271
G1 X42.753 Y80.065 E146.70461
G1 X42.753 Y97.000 E147.03644
G1 X41.254 Y97.000 E147.06581
G1 X41.253 Y59.001 E147.81038
G1 X118.748 Y59.001 E149.32884
G1 X118.748 Y59.626 E149.34109
G1 X117.562 Y62.860 E149.40858
G1 X116.383 Y59.626 E149.47603
G1 X114.022 Y59.626 E149.52229
G1 X112.844 Y62.860 E149.58973
G1 X111.665 Y59.626 E149.65718
G1 X109.304 Y59.626 E149.70344
G1 X108.126 Y62.861 E149.77090
G1 X106.947 Y59.626 E149.83837
G1 X104.586 Y59.626 E149.88463
G1 X103.408 Y62.861 E149.95209
G1 X102.229 Y59.626 E150.01956
G1 X99.869 Y59.626 E150.06580
G1 X98.690 Y62.861 E150.13326
G1 X97.512 Y59.626 E150.20072
G1 X95.150 Y59.626 E150.24701
G0 F10500 X95.500 Y60.126
;TYPE:WALL-OUTER
G1 F1800 X94.271 Y63.501 E150.31738
G1 X93.674 Y63.501 E150.32908
G1 X92.444 Y60.126 E150.39947
G1 X90.783 Y60.126 E150.43201
G1 X89.554 Y63.501 E150.50239
G1 X88.955 Y63.501 E150.51413
G1 X87.726 Y60.126 E150.58451
G1 X86.065 Y60.126 E150.61706
G1 X84.835 Y63.501 E150.68744
G1 X84.238 Y63.501 E150.69914
G1 X83.008 Y60.126 E150.76952
G1 X81.347 Y60.126 E150.80207
G1 X80.118 Y63.501 E150.87245
G1 X79.520 Y63.501 E150.88417
G1 X78.291 Y60.126 E150.95455
G1 X76.631 Y60.126 E150.98707
G1 X75.400 Y63.501 E151.05747
G1 X74.803 Y63.501 E151.06916
G1 X73.574 Y60.126 E151.13954
G1 X71.912 Y60.126 E151.17211
G1 X70.683 Y63.501 E151.24249
G1 X70.085 Y63.501 E151.25420
G1 X68.855 Y60.126 E151.32459
G1 X67.195 Y60.126 E151.35712
G1 X65.965 Y63.501 E151.42750
G1 X65.367 Y63.501 E151.43922
G1 X64.138 Y60.126 E151.50960
G1 X62.477 Y60.126 E151.54214
G1 X61.247 Y63.501 E151.61253
G1 X60.649 Y63.501 E151.62425
G1 X59.420 Y60.126 E151.69463
G1 X57.759 Y60.126 E151.72717
G1 X56.529 Y63.501 E151.79756
G1 X55.932 Y63.501 E151.80926
G1 X54.702 Y60.126 E151.87964
G1 X53.740 Y60.126 E151.89849
G1 X43.253 Y80.188 E152.34206
G1 X43.253 Y97.500 E152.68128
G1 X40.754 Y97.500 E152.73024
G1 X40.754 Y58.501 E153.49440
G1 X119.248 Y58.501 E155.03244
G1 X119.248 Y60.126 E155.06428
G1 X119.090 Y60.126 E155.06738
G1 X117.861 Y63.501 E155.13776
G1 X117.263 Y63.501 E155.14947
G1 X116.033 Y60.126 E155.21986
G1 X114.372 Y60.126 E155.25241
G1 X113.142 Y63.501 E155.32279
G1 X112.545 Y63.501 E155.33449
G1 X111.315 Y60.126 E155.40488
G1 X109.654 Y60.126 E155.43742
G1 X108.425 Y63.501 E155.50780
G1 X107.827 Y63.501 E155.51952
G1 X106.597 Y60.126 E155.58990
G1 X104.936 Y60.126 E155.62245
G1 X103.707 Y63.501 E155.69283
G1 X103.109 Y63.501 E155.70455
G1 X101.879 Y60.126 E155.77493
G1 X100.219 Y60.126 E155.80746
G1 X98.989 Y63.501 E155.87784
G1 X98.391 Y63.501 E155.88956
G1 X97.162 Y60.126 E155.95994
G1 X95.500 Y60.126 E155.99251
G0 F10500 X95.173 Y60.006
G0 X93.859 Y62.039
;TYPE:FILL
G1 F2400 X94.023 Y62.203 E155.99705
G0 F10500 X95.211 Y59.713
G0 X97.451 Y59.713
G0 X98.171 Y60.927
G1 F2400 X99.924 Y59.174 E156.04563
G0 F10500 X99.370 Y60.479
G1 F2400 X98.066 Y59.175 E156.08176
G0 F10500 X92.853 Y59.174
G1 F2400 X92.576 Y59.451 E156.08944
G0 F10500 X91.270 Y59.450
G1 F2400 X90.995 Y59.175 E156.09706
G0 F10500 X85.781 Y59.174
G1 F2400 X84.021 Y60.934 E156.14583
G0 F10500 X85.220 Y60.471
G1 F2400 X83.924 Y59.175 E156.18174
G0 F10500 X81.058 Y59.713
G0 X79.874 Y62.197
G1 F2400 X79.698 Y62.020 E156.18663
G0 F10500 X78.580 Y59.713
G0 X76.342 Y59.713
G0 X71.639 Y59.174
G1 F2400 X69.872 Y60.942 E156.23561
G0 F10500 X71.070 Y60.463
G1 F2400 X69.782 Y59.175 E156.27130
G0 F10500 X64.568 Y59.174
G1 F2400 X64.292 Y59.451 E156.27896
G0 F10500 X62.986 Y59.450
G1 F2400 X62.711 Y59.175 E156.28658
G0 F10500 X76.853 Y59.175
G1 F2400 X77.128 Y59.450 E156.29421
G0 F10500 X78.434 Y59.451
G1 F2400 X78.710 Y59.174 E156.30187
G0 F10500 X71.623 Y59.713
G0 X66.906 Y59.713
G0 X65.724 Y62.188
G1 F2400 X65.538 Y62.002 E156.30702
G0 F10500 X64.427 Y59.713
G0 X62.188 Y59.713
G0 X57.497 Y59.174
G1 F2400 X55.722 Y60.950 E156.35622
G0 F10500 X56.920 Y60.456
G1 F2400 X55.640 Y59.175 E156.39170
G0 F10500 X53.485 Y59.705
G0 X51.790 Y62.397
G1 F2400 X48.569 Y59.175 E156.48097
G0 F10500 X50.426 Y59.174
G1 F2400 X41.428 Y68.172 E156.73031
G0 F10500 X41.427 Y66.176
G1 F2400 X46.936 Y71.685 E156.88297
G0 F10500 X49.068 Y67.604
G1 F2400 X41.428 Y75.243 E157.09467
G0 F10500 X41.427 Y73.247
G1 F2400 X44.508 Y76.328 E157.18004
G0 F10500 X49.363 Y67.040
G1 F2400 X41.497 Y59.175 E157.39800
G0 F10500 X43.355 Y59.174
G1 F2400 X41.428 Y61.101 E157.45140
G0 F10500 X41.428 Y80.319
G1 F2400 X42.578 Y81.469 E157.48327
G0 F10500 X42.577 Y81.165
G1 F2400 X41.429 Y82.314 E157.51509
G0 F10500 X41.428 Y87.390
G1 F2400 X42.578 Y88.540 E157.54696
G0 F10500 X42.577 Y88.237
G1 F2400 X41.429 Y89.385 E157.57877
G0 F10500 X41.428 Y94.461
G1 F2400 X42.578 Y95.611 E157.61064
G0 F10500 X42.577 Y95.308
G1 F2400 X41.429 Y96.456 E157.64245
G0 F10500 X41.145 Y58.892
G0 X118.801 Y59.713
G0 X114.083 Y59.713
G0 X109.365 Y59.713
G0 X104.647 Y59.713
G0 X105.137 Y59.175
G1 F2400 X105.412 Y59.450 E157.65007
G0 F10500 X106.718 Y59.451
G1 F2400 X106.995 Y59.174 E157.65775
G0 F10500 X112.208 Y59.175
G1 F2400 X113.521 Y60.488 E157.69413
G0 F10500 X112.323 Y60.917
G1 F2400 X114.066 Y59.174 E157.74243
G0 F10500 X109.365 Y59.713
G0 X108.166 Y62.204
G1 F2400 X108.019 Y62.057 E157.74650
;LAYER:8
G0 F10500 X106.947 Y59.626 Z2.425
;TYPE:WALL-INNER
G1 F2100 X104.586 Y59.626 E157.79276
G1 X103.408 Y62.860 E157.86021
G1 X102.229 Y59.626 E157.92765
G1 X99.869 Y59.626 E157.97390
G1 X98.690 Y62.860 E158.04134
G1 X97.512 Y59.626 E158.10878
G1 X95.150 Y59.626 E158.15507
G1 X93.972 Y62.859 E158.22249
G1 X92.794 Y59.626 E158.28991
G1 X90.433 Y59.626 E158.33617
G1 X89.255 Y62.861 E158.40363
G1 X88.076 Y59.626 E158.47110
G1 X85.715 Y59.626 E158.51736
G1 X84.537 Y62.859 E158.58478
G1 X83.358 Y59.626 E158.65221
G1 X80.997 Y59.626 E158.69848
G1 X79.819 Y62.860 E158.76592
G1 X78.641 Y59.626 E158.83336
G1 X76.281 Y59.626 E158.87960
G1 X75.102 Y62.859 E158.94703
G1 X73.924 Y59.626 E159.01445
G1 X71.562 Y59.626 E159.06073
G1 X70.384 Y62.860 E159.12818
G1 X69.205 Y59.626 E159.19562
G1 X66.845 Y59.626 E159.24187
G1 X65.666 Y62.860 E159.30931
G1 X64.488 Y59.626 E159.37675
G1 X62.127 Y59.626 E159.42302
G1 X60.948 Y62.860 E159.49046
G1 X59.770 Y59.626 E159.55791
G1 X57.409 Y59.626 E159.60417
G1 X56.231 Y62.859 E159.67159
G1 X55.052 Y59.626 E159.73902
G1 X53.437 Y59.626 E159.77066
G1 X42.753 Y80.065 E160.22257
G1 X42.753 Y97.000 E160.55440
G1 X41.254 Y97.000 E160.58377
G1 X41.253 Y59.001 E161.32833
G1 X118.748 Y59.001 E162.84680
G1 X118.748 Y59.626 E162.85904
G1 X117.562 Y62.860 E162.92654
G1 X116.383 Y59.626 E162.99399
G1 X114.022 Y59.626 E163.04025
G1 X112.844 Y62.859 E163.10767
G1 X111.665 Y59.626 E163.17510
G1 X109.304 Y59.626 E163.22136
G1 X108.126 Y62.860 E163.28880
G1 X106.947 Y59.626 E163.35625
G0 F10500 X106.597 Y60.126
;TYPE:WALL-OUTER
G1 F1800 X104.936 Y60.126 E163.38880
G1 X103.707 Y63.501 E163.45918
G1 X103.109 Y63.501 E163.47089
G1 X101.879 Y60.126 E163.54128
G1 X100.219 Y60.126 E163.57381
G1 X98.989 Y63.501 E163.64419
G1 X98.391 Y63.501 E163.65591
G1 X97.162 Y60.126 E163.72629
G1 X95.500 Y60.126 E163.75885
G1 X94.271 Y63.501 E163.82923
G1 X93.674 Y63.501 E163.84093
G1 X92.444 Y60.126 E163.91132
G1 X90.783 Y60.126 E163.94386
G1 X89.554 Y63.501 E164.01424
G1 X88.955 Y63.501 E164.02598
G1 X87.726 Y60.126 E164.09636
G1 X86.065 Y60.126 E164.12890
G1 X84.835 Y63.501 E164.19929
G1 X84.238 Y63.501 E164.21099
G1 X83.008 Y60.126 E164.28137
G1 X81.347 Y60.126 E164.31392
G1 X80.118 Y63.501 E164.38430
G1 X79.520 Y63.501 E164.39602
G1 X78.291 Y60.126 E164.46640
G1 X76.631 Y60.126 E164.49892
G1 X75.400 Y63.501 E164.56931
G1 X74.803 Y63.501 E164.58101
G1 X73.574 Y60.126 E164.65139
G1 X71.912 Y60.126 E164.68396
G1 X70.683 Y63.501 E164.75434
G1 X70.085 Y63.501 E164.76605
G1 X68.855 Y60.126 E164.83644
G1 X67.195 Y60.126 E164.86897
G1 X65.965 Y63.501 E164.93935
G1 X65.367 Y63.501 E164.95107
G1 X64.138 Y60.126 E165.02145
G1 X62.477 Y60.126 E165.05399
G1 X61.247 Y63.501 E165.12438
G1 X60.649 Y63.501 E165.13610
G1 X59.420 Y60.126 E165.20648
G1 X57.759 Y60.126 E165.23902
G1 X56.529 Y63.501 E165.30941
G1 X55.932 Y63.501 E165.32111
G1 X54.702 Y60.126 E165.39149
G1 X53.740 Y60.126 E165.41034
G1 X43.253 Y80.188 E165.85391
G1 X43.253 Y97.500 E166.19313
G1 X40.754 Y97.500 E166.24209
G1 X40.754 Y58.501 E167.00625
G1 X119.248 Y58.501 E168.54429
G1 X119.248 Y60.126 E168.57613
G1 X119.090 Y60.126 E168.57923
G1 X117.861 Y63.501 E168.64961
G1 X117.263 Y63.501 E168.66132
G1 X116.033 Y60.126 E168.73171
G1 X114.372 Y60.126 E168.76426
G1 X113.142 Y63.501 E168.83464
G1 X112.545 Y63.501 E168.84634
G1 X111.315 Y60.126 E168.91672
G1 X109.654 Y60.126 E168.94927
G1 X108.425 Y63.501 E169.01965
G1 X107.827 Y63.501 E169.03137
G1 X106.597 Y60.126 E169.10175
G0 F10500 X106.925 Y60.007
G0 X108.019 Y62.057
;TYPE:FILL
G1 F2400 X108.165 Y62.203 E169.10580
G0 F10500 X109.365 Y59.713
G0 X111.604 Y59.713
G0 X112.323 Y60.917
G1 F2400 X114.066 Y59.174 E169.15410
G0 F10500 X113.520 Y60.487
G1 F2400 X112.208 Y59.175 E169.19045
G0 F10500 X106.995 Y59.174
G1 F2400 X106.718 Y59.451 E169.19813
G0 F10500 X105.412 Y59.450
G1 F2400 X105.137 Y59.175 E169.20575
G0 F10500 X99.924 Y59.174
G1 F2400 X98.172 Y60.926 E169.25430
G0 F10500 X99.371 Y60.480
G1 F2400 X98.066 Y59.175 E169.29046
G0 F10500 X92.853 Y59.174
G1 F2400 X92.576 Y59.451 E169.29814
G0 F10500 X91.270 Y59.450
G1 F2400 X90.995 Y59.175 E169.30576
G0 F10500 X85.781 Y59.174
G1 F2400 X84.021 Y60.934 E169.35453
G0 F10500 X85.219 Y60.471
G1 F2400 X83.924 Y59.175 E169.39043
G0 F10500 X81.058 Y59.713
G0 X79.874 Y62.196
G1 F2400 X79.699 Y62.021 E169.39528
G0 F10500 X78.580 Y59.713
G0 X76.342 Y59.713
G0 X71.639 Y59.174
G1 F2400 X69.872 Y60.942 E169.44426
G0 F10500 X71.070 Y60.463
G1 F2400 X69.782 Y59.175 E169.47995
G0 F10500 X64.568 Y59.174
G1 F2400 X64.292 Y59.451 E169.48761
G0 F10500 X62.986 Y59.450
G1 F2400 X62.711 Y59.175 E169.49523
G0 F10500 X76.853 Y59.175
G1 F2400 X77.128 Y59.450 E169.50285
G0 F10500 X78.434 Y59.451
G1 F2400 X78.710 Y59.174 E169.51051
G0 F10500 X71.623 Y59.713
G0 X66.906 Y59.713
G0 X65.723 Y62.187
G1 F2400 X65.538 Y62.003 E169.51562
G0 F10500 X64.427 Y59.713
G0 X62.188 Y59.713
G0 X57.497 Y59.174
G1 F2400 X55.722 Y60.949 E169.56481
G0 F10500 X56.919 Y60.455
G1 F2400 X55.640 Y59.175 E169.60027
G0 F10500 X53.485 Y59.705
G0 X51.790 Y62.397
G1 F2400 X48.569 Y59.175 E169.68954
G0 F10500 X50.426 Y59.174
G1 F2400 X41.428 Y68.172 E169.93888
G0 F10500 X41.427 Y66.176
G1 F2400 X46.936 Y71.685 E170.09153
G0 F10500 X49.068 Y67.604
G1 F2400 X41.428 Y75.243 E170.30323
G0 F10500 X41.427 Y73.247
G1 F2400 X44.508 Y76.328 E170.38860
G0 F10500 X49.363 Y67.040
G1 F2400 X41.497 Y59.175 E170.60656
G0 F10500 X43.355 Y59.174
G1 F2400 X41.428 Y61.101 E170.65996
G0 F10500 X41.428 Y80.319
G1 F2400 X42.578 Y81.469 E170.69183
G0 F10500 X42.577 Y81.165
G1 F2400 X41.429 Y82.314 E170.72365
G0 F10500 X41.428 Y87.390
G1 F2400 X42.578 Y88.540 E170.75552
G0 F10500 X42.577 Y88.237
G1 F2400 X41.429 Y89.385 E170.78733
G0 F10500 X41.428 Y94.461
G1 F2400 X42.578 Y95.611 E170.81920
G0 F10500 X42.577 Y95.308
G1 F2400 X41.429 Y96.456 E170.85101
G0 F10500 X41.145 Y58.892
G0 X118.801 Y59.713
G0 X114.083 Y59.713
G0 X109.365 Y59.713
G0 X104.647 Y59.713
G0 X99.930 Y59.713
G0 X95.211 Y59.713
G0 X93.859 Y62.040
G1 F2400 X94.023 Y62.203 E170.85554
;LAYER:9
G0 F10500 X95.150 Y59.626 Z2.675
;TYPE:WALL-INNER
G1 F2100 X93.972 Y62.859 E170.92296
G1 X92.794 Y59.626 E170.99039
G1 X90.433 Y59.626 E171.03665
G1 X89.255 Y62.861 E171.10411
G1 X88.076 Y59.626 E171.17157
G1 X85.715 Y59.626 E171.21784
G1 X84.537 Y62.859 E171.28526
G1 X83.358 Y59.626 E171.35269
G1 X80.997 Y59.626 E171.39895
G1 X79.819 Y62.860 E171.46639
G1 X78.641 Y59.626 E171.53383
G1 X76.281 Y59.626 E171.58007
G1 X75.102 Y62.859 E171.64750
G1 X73.924 Y59.626 E171.71493
G1 X71.562 Y59.626 E171.76121
G1 X70.384 Y62.860 E171.82865
G1 X69.205 Y59.626 E171.89610
G1 X66.845 Y59.626 E171.94234
G1 X65.666 Y62.860 E172.00979
G1 X64.488 Y59.626 E172.07723
G1 X62.127 Y59.626 E172.12349
G1 X60.948 Y62.860 E172.19094
G1 X59.770 Y59.626 E172.25838
G1 X57.409 Y59.626 E172.30464
G1 X56.231 Y62.859 E172.37206
G1 X55.052 Y59.626 E172.43949
G1 X53.437 Y59.626 E172.47114
G1 X42.753 Y80.065 E172.92304
G1 X42.753 Y97.000 E173.25487
G1 X41.254 Y97.000 E173.28424
G1 X41.253 Y59.001 E174.02881
G1 X118.748 Y59.001 E175.54727
G1 X118.748 Y59.626 E175.55952
G1 X117.562 Y62.860 E175.62701
G1 X116.383 Y59.626 E175.69446
G1 X114.022 Y59.626 E175.74072
G1 X112.844 Y62.859 E175.80815
G1 X111.665 Y59.626 E175.87558
G1 X109.304 Y59.626 E175.92184
G1 X108.126 Y62.860 E175.98928
G1 X106.947 Y59.626 E176.05673
G1 X104.586 Y59.626 E176.10299
G1 X103.408 Y62.860 E176.17043
G1 X102.229 Y59.626 E176.23788
G1 X99.869 Y59.626 E176.28412
G1 X98.690 Y62.860 E176.35157
G1 X97.512 Y59.626 E176.41901
G1 X95.150 Y59.626 E176.46529
G0 F10500 X95.500 Y60.126
;TYPE:WALL-OUTER
G1 F1800 X94.271 Y63.501 E176.53567
G1 X93.674 Y63.501 E176.54737
G1 X92.444 Y60.126 E176.61775
G1 X90.783 Y60.126 E176.65030
G1 X89.554 Y63.501 E176.72068
G1 X88.955 Y63.501 E176.73242
G1 X87.726 Y60.126 E176.80279
G1 X86.065 Y60.126 E176.83534
G1 X84.835 Y63.501 E176.90573
G1 X84.238 Y63.501 E176.91742
G1 X83.008 Y60.126 E176.98781
G1 X81.347 Y60.126 E177.02036
G1 X80.118 Y63.501 E177.09073
G1 X79.520 Y63.501 E177.10245
G1 X78.291 Y60.126 E177.17283
G1 X76.631 Y60.126 E177.20536
G1 X75.400 Y63.501 E177.27575
G1 X74.803 Y63.501 E177.28745
G1 X73.574 Y60.126 E177.35783
G1 X71.912 Y60.126 E177.39039
G1 X70.683 Y63.501 E177.46077
G1 X70.085 Y63.501 E177.47249
G1 X68.855 Y60.126 E177.54288
G1 X67.195 Y60.126 E177.57540
G1 X65.965 Y63.501 E177.64579
G1 X65.367 Y63.501 E177.65750
G1 X64.138 Y60.126 E177.72788
G1 X62.477 Y60.126 E177.76043
G1 X61.247 Y63.501 E177.83082
G1 X60.649 Y63.501 E177.84253
G1 X59.420 Y60.126 E177.91291
G1 X57.759 Y60.126 E177.94546
G1 X56.529 Y63.501 E178.01584
G1 X55.932 Y63.501 E178.02754
G1 X54.702 Y60.126 E178.09793
G1 X53.740 Y60.126 E178.11678
G1 X43.253 Y80.188 E178.56035
G1 X43.253 Y97.500 E178.89956
G1 X40.754 Y97.500 E178.94853
G1 X40.754 Y58.501 E179.71269
G1 X119.248 Y58.501 E181.25073
G1 X119.248 Y60.126 E181.28257
G1 X119.090 Y60.126 E181.28566
G1 X117.861 Y63.501 E181.35604
G1 X117.263 Y63.501 E181.36776
G1 X116.033 Y60.126 E181.43814
G1 X114.372 Y60.126 E181.47069
G1 X113.142 Y63.501 E181.54108
G1 X112.545 Y63.501 E181.55277
G1 X111.315 Y60.126 E181.62316
G1 X109.654 Y60.126 E181.65571
G1 X108.425 Y63.501 E181.72609
G1 X107.827 Y63.501 E181.73780
G1 X106.597 Y60.126 E181.80819
G1 X104.936 Y60.126 E181.84073
G1 X103.707 Y63.501 E181.91111
G1 X103.109 Y63.501 E181.92283
G1 X101.879 Y60.126 E181.99322
G1 X100.219 Y60.126 E182.02574
G1 X98.989 Y63.501 E182.09613
G1 X98.391 Y63.501 E182.10785
G1 X97.162 Y60.126 E182.17823
G1 X95.500 Y60.126 E182.21079
G0 F10500 X95.173 Y60.006
G0 X93.859 Y62.040
;TYPE:FILL
G1 F2400 X94.023 Y62.203 E182.21532
G0 F10500 X95.211 Y59.713
G0 X97.451 Y59.713
G0 X98.172 Y60.926
G1 F2400 X99.924 Y59.174 E182.26387
G0 F10500 X99.371 Y60.480
G1 F2400 X98.066 Y59.175 E182.30003
G0 F10500 X92.853 Y59.174
G1 F2400 X92.576 Y59.451 E182.30771
G0 F10500 X91.270 Y59.450
G1 F2400 X90.995 Y59.175 E182.31533
G0 F10500 X85.781 Y59.174
G1 F2400 X84.021 Y60.934 E182.36410
G0 F10500 X85.219 Y60.471
G1 F2400 X83.924 Y59.175 E182.40000
G0 F10500 X81.058 Y59.713
G0 X79.874 Y62.196
G1 F2400 X79.699 Y62.021 E182.40485
G0 F10500 X78.580 Y59.713
G0 X76.342 Y59.713
G0 X71.639 Y59.174
G1 F2400 X69.872 Y60.942 E182.45383
G0 F10500 X71.070 Y60.463
G1 F2400 X69.782 Y59.175 E182.48952
G0 F10500 X64.568 Y59.174
G1 F2400 X64.292 Y59.451 E182.49718
G0 F10500 X62.986 Y59.450
G1 F2400 X62.711 Y59.175 E182.50480
G0 F10500 X76.853 Y59.175
G1 F2400 X77.128 Y59.450 E182.51242
G0 F10500 X78.434 Y59.451
G1 F2400 X78.710 Y59.174 E182.52008
G0 F10500 X71.623 Y59.713
G0 X66.906 Y59.713
G0 X65.723 Y62.187
G1 F2400 X65.538 Y62.003 E182.52520
G0 F10500 X64.427 Y59.713
G0 X62.188 Y59.713
G0 X57.497 Y59.174
G1 F2400 X55.722 Y60.949 E182.57438
G0 F10500 X56.919 Y60.455
G1 F2400 X55.640 Y59.175 E182.60984
G0 F10500 X53.485 Y59.705
G0 X51.790 Y62.397
G1 F2400 X48.569 Y59.175 E182.69911
G0 F10500 X50.426 Y59.174
G1 F2400 X41.428 Y68.172 E182.94845
G0 F10500 X41.427 Y66.176
G1 F2400 X46.936 Y71.685 E183.10110
G0 F10500 X49.068 Y67.604
G1 F2400 X41.428 Y75.243 E183.31280
G0 F10500 X41.427 Y73.247
G1 F2400 X44.508 Y76.328 E183.39818
G0 F10500 X49.363 Y67.040
G1 F2400 X41.497 Y59.175 E183.61613
G0 F10500 X43.355 Y59.174
G1 F2400 X41.428 Y61.101 E183.66953
G0 F10500 X41.428 Y80.319
G1 F2400 X42.578 Y81.469 E183.70140
G0 F10500 X42.577 Y81.165
G1 F2400 X41.429 Y82.314 E183.73322
G0 F10500 X41.428 Y87.390
G1 F2400 X42.578 Y88.540 E183.76509
G0 F10500 X42.577 Y88.237
G1 F2400 X41.429 Y89.385 E183.79690
G0 F10500 X41.428 Y94.461
G1 F2400 X42.578 Y95.611 E183.82877
G0 F10500 X42.577 Y95.308
G1 F2400 X41.429 Y96.456 E183.86058
G0 F10500 X41.145 Y58.892
G0 X118.801 Y59.713
G0 X114.083 Y59.713
G0 X109.365 Y59.713
G0 X104.647 Y59.713
G0 X105.137 Y59.175
G1 F2400 X105.412 Y59.450 E183.86820
G0 F10500 X106.718 Y59.451
G1 F2400 X106.995 Y59.174 E183.87588
G0 F10500 X112.208 Y59.175
G1 F2400 X113.520 Y60.487 E183.91223
G0 F10500 X112.323 Y60.917
G1 F2400 X114.066 Y59.174 E183.96053
G0 F10500 X109.365 Y59.713
G0 X108.165 Y62.203
G1 F2400 X108.019 Y62.057 E183.96458
;LAYER:10
G0 F10500 X106.947 Y59.626 Z2.925
;TYPE:WALL-INNER
G1 F2100 X104.586 Y59.626 E184.01084
G1 X103.408 Y62.860 E184.07828
G1 X102.229 Y59.626 E184.14573
G1 X99.869 Y59.626 E184.19197
G1 X98.690 Y62.860 E184.25942
G1 X97.512 Y59.626 E184.32686
G1 X95.150 Y59.626 E184.37314
G1 X93.972 Y62.859 E184.44057
G1 X92.794 Y59.626 E184.50799
G1 X90.433 Y59.626 E184.55425
G1 X89.255 Y62.861 E184.62171
G1 X88.076 Y59.626 E184.68918
G1 X85.715 Y59.626 E184.73544
G1 X84.537 Y62.859 E184.80286
G1 X83.358 Y59.626 E184.87029
G1 X80.997 Y59.626 E184.91655
G1 X79.819 Y62.860 E184.98399
G1 X78.641 Y59.626 E185.05144
G1 X76.281 Y59.626 E185.09768
G1 X75.102 Y62.859 E185.16511
G1 X73.924 Y59.626 E185.23253
G1 X71.562 Y59.626 E185.27881
G1 X70.384 Y62.860 E185.34625
G1 X69.205 Y59.626 E185.41370
G1 X66.845 Y59.626 E185.45994
G1 X65.666 Y62.860 E185.52739
G1 X64.488 Y59.626 E185.59483
G1 X62.127 Y59.626 E185.64109
G1 X60.948 Y62.860 E185.70854
G1 X59.770 Y59.626 E185.77598
G1 X57.409 Y59.626 E185.82225
G1 X56.231 Y62.859 E185.88967
G1 X55.052 Y59.626 E185.95710
G1 X53.437 Y59.626 E185.98874
G1 X42.752 Y80.066 E186.44067
G1 X42.753 Y97.000 E186.77248
G1 X41.254 Y97.000 E186.80185
G1 X41.253 Y59.001 E187.54642
G1 X118.748 Y59.001 E189.06488
G1 X118.748 Y59.626 E189.07713
G1 X117.562 Y62.860 E189.14462
G1 X116.383 Y59.626 E189.21207
G1 X114.022 Y59.626 E189.25833
G1 X112.844 Y62.859 E189.32576
G1 X111.665 Y59.626 E189.39319
G1 X109.304 Y59.626 E189.43945
G1 X108.126 Y62.860 E189.50689
G1 X106.947 Y59.626 E189.57434
G0 F10500 X106.597 Y60.126
;TYPE:WALL-OUTER
G1 F1800 X104.936 Y60.126 E189.60688
G1 X103.707 Y63.501 E189.67726
G1 X103.109 Y63.501 E189.68898
G1 X101.879 Y60.126 E189.75936
G1 X100.219 Y60.126 E189.79189
G1 X98.989 Y63.501 E189.86228
G1 X98.391 Y63.501 E189.87399
G1 X97.162 Y60.126 E189.94437
G1 X95.500 Y60.126 E189.97694
G1 X94.271 Y63.501 E190.04732
G1 X93.674 Y63.501 E190.05902
G1 X92.444 Y60.126 E190.12940
G1 X90.783 Y60.126 E190.16195
G1 X89.554 Y63.501 E190.23233
G1 X88.955 Y63.501 E190.24406
G1 X87.726 Y60.126 E190.31444
G1 X86.065 Y60.126 E190.34699
G1 X84.835 Y63.501 E190.41737
G1 X84.238 Y63.501 E190.42907
G1 X83.008 Y60.126 E190.49946
G1 X81.347 Y60.126 E190.53200
G1 X80.118 Y63.501 E190.60238
G1 X79.520 Y63.501 E190.61410
G1 X78.291 Y60.126 E190.68448
G1 X76.631 Y60.126 E190.71701
G1 X75.400 Y63.501 E190.78740
G1 X74.803 Y63.501 E190.79910
G1 X73.574 Y60.126 E190.86948
G1 X71.912 Y60.126 E190.90204
G1 X70.683 Y63.501 E190.97242
G1 X70.085 Y63.501 E190.98414
G1 X68.855 Y60.126 E191.05452
G1 X67.195 Y60.126 E191.08705
G1 X65.965 Y63.501 E191.15744
G1 X65.367 Y63.501 E191.16915
G1 X64.138 Y60.126 E191.23953
G1 X62.477 Y60.126 E191.27208
G1 X61.247 Y63.501 E191.34246
G1 X60.649 Y63.501 E191.35418
G1 X59.420 Y60.126 E191.42456
G1 X57.759 Y60.126 E191.45711
G1 X56.529 Y63.501 E191.52749
G1 X55.932 Y63.501 E191.53919
G1 X54.702 Y60.126 E191.60958
G1 X53.740 Y60.126 E191.62843
G1 X43.252 Y80.189 E192.07202
G1 X43.253 Y97.500 E192.41122
G1 X40.754 Y97.500 E192.46018
G1 X40.754 Y58.501 E193.22434
G1 X119.248 Y58.501 E194.76238
G1 X119.248 Y60.126 E194.79422
G1 X119.090 Y60.126 E194.79732
G1 X117.861 Y63.501 E194.86770
G1 X117.263 Y63.501 E194.87941
G1 X116.033 Y60.126 E194.94980
G1 X114.372 Y60.126 E194.98235
G1 X113.142 Y63.501 E195.05273
G1 X112.545 Y63.501 E195.06443
G1 X111.315 Y60.126 E195.13482
G1 X109.654 Y60.126 E195.16736
G1 X108.425 Y63.501 E195.23774
G1 X107.827 Y63.501 E195.24946
G1 X106.597 Y60.126 E195.31984
G0 F10500 X106.925 Y60.007
G0 X108.019 Y62.057
;TYPE:FILL
G1 F2400 X108.165 Y62.203 E195.32389
G0 F10500 X109.365 Y59.713
G0 X111.604 Y59.713
G0 X112.323 Y60.917
G1 F2400 X114.066 Y59.174 E195.37219
G0 F10500 X113.520 Y60.487
G1 F2400 X112.208 Y59.175 E195.40855
G0 F10500 X106.995 Y59.174
G1 F2400 X106.718 Y59.451 E195.41622
G0 F10500 X105.412 Y59.450
G1 F2400 X105.137 Y59.175 E195.42384
G0 F10500 X99.924 Y59.174
G1 F2400 X98.172 Y60.926 E195.47239
G0 F10500 X99.371 Y60.480
G1 F2400 X98.066 Y59.175 E195.50855
G0 F10500 X92.853 Y59.174
G1 F2400 X92.576 Y59.451 E195.51623
G0 F10500 X91.270 Y59.450
G1 F2400 X90.995 Y59.175 E195.52385
G0 F10500 X85.781 Y59.174
G1 F2400 X84.021 Y60.934 E195.57262
G0 F10500 X85.219 Y60.471
G1 F2400 X83.924 Y59.175 E195.60852
G0 F10500 X81.058 Y59.713
G0 X79.874 Y62.196
G1 F2400 X79.699 Y62.021 E195.61337
G0 F10500 X78.580 Y59.713
G0 X76.342 Y59.713
G0 X71.639 Y59.174
G1 F2400 X69.872 Y60.942 E195.66235
G0 F10500 X71.070 Y60.463
G1 F2400 X69.782 Y59.175 E195.69804
G0 F10500 X64.568 Y59.174
G1 F2400 X64.292 Y59.451 E195.70570
G0 F10500 X62.986 Y59.450
G1 F2400 X62.711 Y59.175 E195.71332
G0 F10500 X76.853 Y59.175
G1 F2400 X77.128 Y59.450 E195.72094
G0 F10500 X78.434 Y59.451
G1 F2400 X78.710 Y59.174 E195.72860
G0 F10500 X71.623 Y59.713
G0 X66.906 Y59.713
G0 X65.723 Y62.187
G1 F2400 X65.538 Y62.003 E195.73372
G0 F10500 X64.427 Y59.713
G0 X62.188 Y59.713
G0 X57.497 Y59.174
G1 F2400 X55.722 Y60.949 E195.78290
G0 F10500 X56.919 Y60.455
G1 F2400 X55.640 Y59.175 E195.81836
G0 F10500 X53.485 Y59.705
G0 X51.790 Y62.397
G1 F2400 X48.569 Y59.175 E195.90763
G0 F10500 X50.426 Y59.174
G1 F2400 X41.428 Y68.172 E196.15697
G0 F10500 X41.427 Y66.176
G1 F2400 X46.935 Y71.684 E196.30960
G0 F10500 X49.067 Y67.605
G1 F2400 X41.428 Y75.243 E196.52126
G0 F10500 X41.427 Y73.247
G1 F2400 X44.508 Y76.328 E196.60664
G0 F10500 X49.363 Y67.040
G1 F2400 X41.497 Y59.175 E196.82460
G0 F10500 X43.355 Y59.174
G1 F2400 X41.428 Y61.101 E196.87800
G0 F10500 X41.428 Y80.319
G1 F2400 X42.577 Y81.468 E196.90983
G0 F10500 X42.577 Y81.166
G1 F2400 X41.429 Y82.314 E196.94165
G0 F10500 X41.428 Y87.390
G1 F2400 X42.577 Y88.539 E196.97349
G0 F10500 X42.577 Y88.237
G1 F2400 X41.429 Y89.385 E197.00530
G0 F10500 X41.428 Y94.461
G1 F2400 X42.577 Y95.610 E197.03714
G0 F10500 X42.577 Y95.308
G1 F2400 X41.429 Y96.456 E197.06895
G0 F10500 X41.145 Y58.892
G0 X118.801 Y59.713
G0 X114.083 Y59.713
G0 X109.365 Y59.713
G0 X104.647 Y59.713
G0 X99.930 Y59.713
G0 X95.211 Y59.713
G0 X93.859 Y62.040
G1 F2400 X94.023 Y62.203 E197.07348
;LAYER:11
G0 F10500 X95.150 Y59.626 Z3.175
;TYPE:WALL-INNER
G1 F2100 X93.972 Y62.859 E197.14090
G1 X92.794 Y59.626 E197.20832
G1 X90.433 Y59.626 E197.25459
G1 X89.255 Y62.861 E197.32205
G1 X88.076 Y59.626 E197.38951
G1 X85.715 Y59.626 E197.43577
G1 X84.537 Y62.859 E197.50320
G1 X83.358 Y59.626 E197.57063
G1 X80.997 Y59.626 E197.61689
G1 X79.819 Y62.860 E197.68433
G1 X78.641 Y59.626 E197.75177
G1 X76.281 Y59.626 E197.79801
G1 X75.102 Y62.859 E197.86544
G1 X73.924 Y59.626 E197.93287
G1 X71.562 Y59.626 E197.97915
G1 X70.384 Y62.860 E198.04659
G1 X69.205 Y59.626 E198.11404
G1 X66.845 Y59.626 E198.16028
G1 X65.666 Y62.860 E198.22773
G1 X64.488 Y59.626 E198.29517
G1 X62.127 Y59.626 E198.34143
G1 X60.948 Y62.860 E198.40888
G1 X59.770 Y59.626 E198.47632
G1 X57.409 Y59.626 E198.52258
G1 X56.231 Y62.859 E198.59000
G1 X55.052 Y59.626 E198.65743
G1 X53.437 Y59.626 E198.68908
G1 X42.752 Y80.066 E199.14101
G1 X42.753 Y97.000 E199.47282
G1 X41.254 Y97.000 E199.50219
G1 X41.254 Y59.001 E200.24675
G1 X118.748 Y59.001 E201.76520
G1 X118.748 Y59.626 E201.77744
G1 X117.562 Y62.860 E201.84494
G1 X116.383 Y59.626 E201.91239
G1 X114.022 Y59.626 E201.95865
G1 X112.844 Y62.859 E202.02607
G1 X111.665 Y59.626 E202.09350
G1 X109.304 Y59.626 E202.13976
G1 X108.126 Y62.860 E202.20720
G1 X106.947 Y59.626 E202.27465
G1 X104.586 Y59.626 E202.32091
G1 X103.408 Y62.860 E202.38836
G1 X102.229 Y59.626 E202.45580
G1 X99.869 Y59.626 E202.50205
G1 X98.690 Y62.860 E202.56949
G1 X97.512 Y59.626 E202.63693
G1 X95.150 Y59.626 E202.68322
G0 F10500 X95.500 Y60.126
;TYPE:WALL-OUTER
G1 F1800 X94.271 Y63.501 E202.75360
G1 X93.674 Y63.501 E202.76529
G1 X92.444 Y60.126 E202.83568
G1 X90.783 Y60.126 E202.86823
G1 X89.554 Y63.501 E202.93860
G1 X88.955 Y63.501 E202.95034
G1 X87.726 Y60.126 E203.02072
G1 X86.065 Y60.126 E203.05327
G1 X84.835 Y63.501 E203.12365
G1 X84.238 Y63.501 E203.13535
G1 X83.008 Y60.126 E203.20574
G1 X81.347 Y60.126 E203.23828
G1 X80.118 Y63.501 E203.30866
G1 X79.520 Y63.501 E203.32038
G1 X78.291 Y60.126 E203.39076
G1 X76.631 Y60.126 E203.42328
G1 X75.400 Y63.501 E203.49368
G1 X74.803 Y63.501 E203.50537
G1 X73.574 Y60.126 E203.57575
G1 X71.912 Y60.126 E203.60832
G1 X70.683 Y63.501 E203.67870
G1 X70.085 Y63.501 E203.69042
G1 X68.855 Y60.126 E203.76080
G1 X67.195 Y60.126 E203.79333
