;This Gcode has been generated specifically for the LulzBot Mini
;Basic settings: Layer height: 0.25 Walls: 1 Fill: 20
;Filament Diameter: 2.85
;Nozzle Size: 0.5
G26                          ; clear potential 'probe fail' condition
G21                          ; metric values
G90                          ; absolute positioning
M82                          ; set extruder to absolute mode
M107                         ; start with the fan off
G92 E0                       ; set extruder position to 0
M140 S60; get bed heating up
G28                          ; home all
M109 R140                    ; set to cleaning temp and wait
G1 Z150 E-30 F75             ; suck up XXmm of filament
M109 R140                    ; heat up rest of way
G1 X45 Y174 F11520           ; move behind scraper
G1 Z0  F1200                 ; CRITICAL: set Z to height of top of scraper
G1 X45 Y174 Z-.5 F4000       ; wiping ; plunge into wipe pad
G1 X55 Y172 Z-.5 F4000       ; wiping
G1 X45 Y174 Z0 F4000         ; wiping
G1 X55 Y172 F4000            ; wiping
G1 X45 Y174 F4000            ; wiping
G1 X55 Y172 F4000            ; wiping
G1 X45 Y174 F4000            ; wiping
G1 X55 Y172 F4000            ; wiping
G1 X60 Y174 F4000            ; wiping
G1 X80 Y172 F4000            ; wiping
G1 X60 Y174 F4000            ; wiping
G1 X80 Y172 F4000            ; wiping
G1 X60 Y174 F4000            ; wiping
G1 X90 Y172 F4000            ; wiping
G1 X80 Y174 F4000            ; wiping
G1 X100 Y172 F4000           ; wiping
G1 X80 Y174 F4000            ; wiping
G1 X100 Y172 F4000           ; wiping
G1 X80 Y174 F4000            ; wiping
G1 X100 Y172 F4000           ; wiping
G1 X110 Y174 F4000           ; wiping
G1 X100 Y172 F4000           ; wiping
G1 X110 Y174 F4000           ; wiping
G1 X100 Y172 F4000           ; wiping
G1 X110 Y174 F4000           ; wiping
G1 X115 Y172 Z-0.5 F1000     ; wipe slower and bury noz in cleanish area
G1 Z10                       ; raise z
G28 X0 Y0                    ; home x and y
M109 R140                    ; set to probing temp
M204 S300                    ; Set probing acceleration
G29                          ; Probe
M204 S2000                   ; Restore standard acceleration
G1 X5 Y15 Z10 F5000          ; get out the way
G4 S1                        ; pause
M400                         ; clear buffer
M109 R205    ; set extruder temp and wait
G4 S15                       ; wait for bed to temp up
G1 Z2 E0 F75                 ; extrude filament back into nozzle
M140 S60; get bed temping up during first layer

;Layer count: 87
;LAYER:0
M107
G0 F10500 X59.313 Y55.813 Z0.425
;TYPE:SKIRT
G1 F900 X100.687 Y55.813 E1.72273
G1 X100.687 Y66.688 E2.17554
G1 X99.187 Y66.688 E2.23800
G1 X99.187 Y83.686 E2.94576
G1 X92.187 Y83.686 E3.23723
G1 X92.187 Y100.187 E3.92429
G1 X81.311 Y100.187 E4.37715
G1 X81.311 Y83.686 E5.06422
G1 X60.813 Y83.686 E5.91771
G1 X60.813 Y66.688 E6.62547
G1 X59.313 Y66.688 E6.68793
G1 X59.313 Y55.813 E7.14074
G0 F10500 X59.938 Y56.438
G1 F900 X100.062 Y56.438 E8.81142
G1 X100.062 Y66.063 E9.21219
G1 X98.562 Y66.063 E9.27465
G1 X98.562 Y83.061 E9.98241
G1 X91.562 Y83.061 E10.27387
G1 X91.562 Y99.562 E10.96094
G1 X81.936 Y99.562 E11.36175
G1 X81.936 Y83.061 E12.04882
G1 X61.438 Y83.061 E12.90231
G1 X61.438 Y66.063 E13.61007
G1 X59.938 Y66.063 E13.67253
G1 X59.938 Y56.438 E14.07329
G1 F600 E12.32329
G1 Z0.525
G0 F10500 X64.187 Y60.687
;TYPE:WALL-INNER
G1 Z0.425
G1 F600 E14.07329
G1 F900 X95.813 Y60.687 E15.39014
G1 X95.813 Y61.814 E15.43706
G1 X94.313 Y61.814 E15.49952
G1 X94.313 Y78.812 E16.20728
G1 X87.313 Y78.812 E16.49875
G1 X87.313 Y95.313 E17.18581
G1 X86.185 Y95.313 E17.23278
G1 X86.185 Y78.812 E17.91985
G1 X65.687 Y78.812 E18.77334
G1 X65.687 Y61.814 E19.48111
G1 X64.187 Y61.814 E19.54356
G1 X64.187 Y60.687 E19.59049
G0 F10500 X65.516 Y61.985
G0 X65.475 Y62.439
G0 X65.062 Y62.439
;TYPE:WALL-OUTER
G1 F900 X63.562 Y62.439 E19.65295
G1 X63.562 Y60.062 E19.75192
G1 X96.438 Y60.062 E21.12081
G1 X96.438 Y62.439 E21.21978
G1 X94.938 Y62.439 E21.28224
G1 X94.938 Y79.437 E21.99000
G1 X87.938 Y79.437 E22.28147
G1 X87.938 Y95.938 E22.96853
G1 X85.560 Y95.938 E23.06755
G1 X85.560 Y79.437 E23.75462
G1 X65.062 Y79.437 E24.60811
G1 X65.062 Y62.439 E25.31587
G0 F10500 X65.905 Y62.812
;TYPE:SKIN
G1 F900 X81.685 Y78.592 E26.24508
G0 F10500 X80.801 Y78.592
G1 F900 X65.905 Y63.696 E27.12223
G0 F10500 X65.905 Y64.580
G1 F900 X79.917 Y78.592 E27.94732
G0 F10500 X79.034 Y78.592
G1 F900 X65.905 Y65.463 E28.72043
G0 F10500 X65.905 Y66.347
G1 F900 X78.150 Y78.592 E29.44147
G0 F10500 X77.266 Y78.592
G1 F900 X65.905 Y67.231 E30.11046
G0 F10500 X65.905 Y68.115
G1 F900 X76.382 Y78.592 E30.72740
G0 F10500 X75.498 Y78.592
G1 F900 X65.905 Y68.999 E31.29228
G0 F10500 X65.905 Y69.883
G1 F900 X74.614 Y78.592 E31.80511
G0 F10500 X73.730 Y78.592
G1 F900 X65.905 Y70.767 E32.26589
G0 F10500 X65.905 Y71.651
G1 F900 X72.846 Y78.592 E32.67461
G0 F10500 X71.962 Y78.592
G1 F900 X65.905 Y72.535 E33.03128
G0 F10500 X65.905 Y73.418
G1 F900 X71.079 Y78.592 E33.33595
G0 F10500 X70.195 Y78.592
G1 F900 X65.905 Y74.302 E33.58856
G0 F10500 X65.905 Y75.186
G1 F900 X69.311 Y78.592 E33.78912
G0 F10500 X68.427 Y78.592
G1 F900 X65.905 Y76.070 E33.93763
G0 F10500 X65.905 Y76.954
G1 F900 X67.543 Y78.592 E34.03409
G0 F10500 X66.659 Y78.592
G1 F900 X65.905 Y77.838 E34.07849
G0 F10500 X65.905 Y61.928
G1 F900 X82.569 Y78.592 E35.05974
G0 F10500 X83.453 Y78.592
G1 F900 X65.766 Y60.905 E36.10124
G0 F10500 X65.571 Y61.594
G1 F900 X64.643 Y61.108 E36.14179
G1 X64.687 Y61.594 E36.16211
G0 F10500 X66.650 Y60.905
G1 F900 X84.337 Y78.592 E37.20361
G0 F10500 X85.221 Y78.592
G1 F900 X67.534 Y60.905 E38.24510
G0 F10500 X68.418 Y60.905
G1 F900 X86.105 Y78.592 E39.28660
G0 F10500 X86.403 Y78.891
G1 F900 X86.748 Y79.678 E39.32725
G1 X86.748 Y80.561 E39.36784
G1 X86.748 Y81.445 E39.40847
G1 X86.748 Y82.329 E39.44911
G1 X86.748 Y83.213 E39.48975
G1 X86.748 Y84.097 E39.53038
G1 X86.748 Y84.981 E39.57102
G1 X86.748 Y85.865 E39.61165
G1 X86.748 Y86.749 E39.65229
G1 X86.748 Y87.633 E39.69293
G1 X86.748 Y88.516 E39.73352
G1 X86.748 Y89.400 E39.77415
G1 X86.748 Y90.284 E39.81479
G1 X86.748 Y91.168 E39.85542
G1 X86.748 Y92.052 E39.89606
G1 X86.748 Y92.936 E39.93670
G1 X86.748 Y93.820 E39.97733
G1 X86.894 Y94.850 E40.01801
G1 X86.403 Y94.801 E40.03856
G0 F10500 X87.094 Y78.698
G1 F900 X69.302 Y60.905 E41.08627
G0 F10500 X70.186 Y60.905
G1 F900 X87.872 Y78.592 E42.12774
G0 F10500 X88.756 Y78.592
G1 F900 X71.069 Y60.905 E43.16924
G0 F10500 X71.953 Y60.905
G1 F900 X89.640 Y78.592 E44.21074
G0 F10500 X90.524 Y78.592
G1 F900 X72.837 Y60.905 E45.25223
G0 F10500 X73.721 Y60.905
G1 F900 X91.408 Y78.592 E46.29373
G0 F10500 X92.292 Y78.592
G1 F900 X74.605 Y60.905 E47.33523
G0 F10500 X75.489 Y60.905
G1 F900 X93.176 Y78.592 E48.37673
G0 F10500 X94.060 Y78.592
G1 F900 X76.373 Y60.905 E49.41823
G0 F10500 X77.257 Y60.905
G1 F900 X94.093 Y77.742 E50.40964
G0 F10500 X94.093 Y76.858
G1 F900 X78.140 Y60.905 E51.34904
G0 F10500 X79.024 Y60.905
G1 F900 X94.093 Y75.974 E52.23637
G0 F10500 X94.093 Y75.090
G1 F900 X79.908 Y60.905 E53.07166
G0 F10500 X80.792 Y60.905
G1 F900 X94.093 Y74.206 E53.85488
G0 F10500 X94.093 Y73.322
G1 F900 X81.676 Y60.905 E54.58606
G0 F10500 X82.560 Y60.905
G1 F900 X94.093 Y72.438 E55.26518
G0 F10500 X94.093 Y71.554
G1 F900 X83.444 Y60.905 E55.89224
G0 F10500 X84.328 Y60.905
G1 F900 X94.093 Y70.671 E56.46729
G0 F10500 X94.093 Y69.787
G1 F900 X85.212 Y60.905 E56.99027
G0 F10500 X86.095 Y60.905
G1 F900 X94.093 Y68.903 E57.46123
G0 F10500 X94.093 Y68.019
G1 F900 X86.979 Y60.905 E57.88014
G0 F10500 X87.863 Y60.905
G1 F900 X94.093 Y67.135 E58.24700
G0 F10500 X94.093 Y66.251
G1 F900 X88.747 Y60.905 E58.56179
G0 F10500 X89.631 Y60.905
G1 F900 X94.093 Y65.367 E58.82454
G0 F10500 X94.093 Y64.483
G1 F900 X90.515 Y60.905 E59.03523
G0 F10500 X91.399 Y60.905
G1 F900 X94.093 Y63.600 E59.19389
G0 F10500 X94.093 Y62.716
G1 F900 X92.283 Y60.905 E59.30051
G0 F10500 X93.166 Y60.905
G1 F900 X94.093 Y61.832 E59.35509
G0 F10500 X94.739 Y61.594
G1 F900 X94.492 Y60.905 E59.39566
G1 X95.593 Y61.564 E59.44909
;LAYER:1
M106 S191
G0 F10500 X94.500 Y62.001 Z0.675
;TYPE:WALL-INNER
G1 F1140 X94.500 Y78.999 E59.78215
G1 X87.500 Y78.999 E59.91932
G1 X87.500 Y95.500 E60.24264
G1 X85.998 Y95.500 E60.27207
G1 X85.998 Y78.999 E60.59540
G1 X65.500 Y78.999 E60.99704
G1 X65.500 Y62.001 E61.33011
G1 X64.000 Y62.001 E61.35950
G1 X64.000 Y60.500 E61.38891
G1 X96.000 Y60.500 E62.01593
G1 X96.000 Y62.001 E62.04534
G1 X94.500 Y62.001 E62.07473
G0 F10500 X95.000 Y62.501
;TYPE:WALL-OUTER
G1 F1080 X95.000 Y79.499 E62.40779
G1 X88.000 Y79.499 E62.54496
G1 X88.000 Y96.000 E62.86828
G1 X85.498 Y96.000 E62.91731
G1 X85.498 Y79.499 E63.24063
G1 X65.000 Y79.499 E63.64228
G1 X65.000 Y62.501 E63.97534
G1 X63.500 Y62.501 E64.00473
G1 X63.500 Y60.000 E64.05374
G1 X96.500 Y60.000 E64.70035
G1 X96.500 Y62.501 E64.74936
G1 X95.000 Y62.501 E64.77875
G0 F10500 X94.797 Y61.826
;TYPE:SKIN
G1 F1380 X95.824 Y60.799 E64.80721
G0 F10500 X95.241 Y60.675
G1 F1380 X77.093 Y78.824 E65.31011
G0 F10500 X77.800 Y78.824
G1 F1380 X94.323 Y62.300 E65.76799
G0 F10500 X94.323 Y63.007
G1 F1380 X78.507 Y78.824 E66.20627
G0 F10500 X79.214 Y78.824
G1 F1380 X94.323 Y63.714 E66.62496
G0 F10500 X94.323 Y64.421
G1 F1380 X79.921 Y78.824 E67.02407
G0 F10500 X76.385 Y78.824
G1 F1380 X94.534 Y60.675 E67.52699
G0 F10500 X93.827 Y60.675
G1 F1380 X75.678 Y78.824 E68.02990
G0 F10500 X74.971 Y78.824
G1 F1380 X93.120 Y60.675 E68.53282
G0 F10500 X92.413 Y60.675
G1 F1380 X74.264 Y78.824 E69.03574
G0 F10500 X73.557 Y78.824
G1 F1380 X91.706 Y60.675 E69.53866
G0 F10500 X90.998 Y60.675
G1 F1380 X72.850 Y78.824 E70.04157
G0 F10500 X72.143 Y78.824
G1 F1380 X90.291 Y60.675 E70.54447
G0 F10500 X89.584 Y60.675
G1 F1380 X71.436 Y78.824 E71.04738
G0 F10500 X70.729 Y78.824
G1 F1380 X88.877 Y60.675 E71.55028
G0 F10500 X88.170 Y60.675
G1 F1380 X70.021 Y78.824 E72.05320
G0 F10500 X69.314 Y78.824
G1 F1380 X87.463 Y60.675 E72.55612
G0 F10500 X86.756 Y60.675
G1 F1380 X68.607 Y78.824 E73.05904
G0 F10500 X67.900 Y78.824
G1 F1380 X86.049 Y60.675 E73.56196
G0 F10500 X85.342 Y60.675
G1 F1380 X67.193 Y78.824 E74.06488
G0 F10500 X66.486 Y78.824
G1 F1380 X84.635 Y60.675 E74.56780
G0 F10500 X83.927 Y60.675
G1 F1380 X65.779 Y78.824 E75.07070
G0 F10500 X65.675 Y78.220
G1 F1380 X83.220 Y60.675 E75.55688
G0 F10500 X82.513 Y60.675
G1 F1380 X65.675 Y77.513 E76.02347
G0 F10500 X65.675 Y76.806
G1 F1380 X81.806 Y60.675 E76.47047
G0 F10500 X81.099 Y60.675
G1 F1380 X65.675 Y76.099 E76.89788
G0 F10500 X65.675 Y75.392
G1 F1380 X80.392 Y60.675 E77.30570
G0 F10500 X94.323 Y65.128
G1 F1380 X80.628 Y78.824 E77.68521
G0 F10500 X81.335 Y78.824
G1 F1380 X94.323 Y65.835 E78.04513
G0 F10500 X94.323 Y66.542
G1 F1380 X82.042 Y78.824 E78.38545
G0 F10500 X82.749 Y78.824
G1 F1380 X94.323 Y67.250 E78.70618
G0 F10500 X94.323 Y67.957
G1 F1380 X83.456 Y78.824 E79.00731
G0 F10500 X84.164 Y78.824
G1 F1380 X94.323 Y68.664 E79.28883
G0 F10500 X94.323 Y69.371
G1 F1380 X84.871 Y78.824 E79.55077
G0 F10500 X85.578 Y78.824
G1 F1380 X94.323 Y70.078 E79.79311
G0 F10500 X94.323 Y70.785
G1 F1380 X86.172 Y78.936 E80.01898
G0 F10500 X86.172 Y79.643
G1 F1380 X94.323 Y71.492 E80.24485
G0 F10500 X94.323 Y72.199
G1 F1380 X87.699 Y78.824 E80.42842
G0 F10500 X87.324 Y79.198
G1 F1380 X86.172 Y80.350 E80.46034
G0 F10500 X86.172 Y81.057
G1 F1380 X87.324 Y79.905 E80.49226
G0 F10500 X87.609 Y79.108
G0 X88.406 Y78.824
G1 F1380 X94.323 Y72.906 E80.65624
G0 F10500 X94.323 Y73.614
G1 F1380 X89.113 Y78.824 E80.80061
G0 F10500 X89.820 Y78.824
G1 F1380 X94.323 Y74.321 E80.92539
G0 F10500 X94.323 Y75.028
G1 F1380 X90.528 Y78.824 E81.03057
G0 F10500 X91.235 Y78.824
G1 F1380 X94.323 Y75.735 E81.11615
G0 F10500 X94.323 Y76.442
G1 F1380 X91.942 Y78.824 E81.18214
G0 F10500 X92.649 Y78.824
G1 F1380 X94.323 Y77.149 E81.22854
G0 F10500 X94.323 Y77.856
G1 F1380 X93.356 Y78.824 E81.25535
G0 F10500 X94.063 Y78.824
G1 F1380 X94.323 Y78.563 E81.26257
G0 F10500 X94.609 Y62.110
G0 X95.504 Y61.826
G1 F1380 X95.824 Y61.506 E81.27144
G0 F10500 X79.685 Y60.675
G1 F1380 X65.675 Y74.685 E81.65967
G0 F10500 X65.675 Y73.978
G1 F1380 X78.978 Y60.675 E82.02830
G0 F10500 X78.271 Y60.675
G1 F1380 X65.675 Y73.271 E82.37734
G0 F10500 X65.675 Y72.564
G1 F1380 X77.563 Y60.675 E82.70678
G0 F10500 X76.856 Y60.675
G1 F1380 X65.675 Y71.856 E83.01661
G0 F10500 X65.675 Y71.149
G1 F1380 X76.149 Y60.675 E83.30685
G0 F10500 X75.442 Y60.675
G1 F1380 X65.675 Y70.442 E83.57750
G0 F10500 X65.674 Y69.736
G1 F1380 X74.735 Y60.675 E83.82858
G0 F10500 X74.028 Y60.675
G1 F1380 X65.674 Y69.029 E84.06008
G0 F10500 X65.674 Y68.322
G1 F1380 X73.321 Y60.675 E84.27198
G0 F10500 X72.614 Y60.675
G1 F1380 X65.674 Y67.614 E84.46428
G0 F10500 X65.674 Y66.907
G1 F1380 X71.907 Y60.675 E84.63699
G0 F10500 X71.199 Y60.675
G1 F1380 X65.674 Y66.200 E84.79009
G0 F10500 X65.674 Y65.493
G1 F1380 X70.492 Y60.675 E84.92360
G0 F10500 X69.785 Y60.675
G1 F1380 X65.674 Y64.786 E85.03751
G0 F10500 X65.674 Y64.079
G1 F1380 X69.078 Y60.675 E85.13184
G0 F10500 X68.371 Y60.675
G1 F1380 X65.674 Y63.372 E85.20658
G0 F10500 X65.674 Y62.665
G1 F1380 X67.664 Y60.675 E85.26172
G0 F10500 X66.957 Y60.675
G1 F1380 X65.674 Y61.958 E85.29727
G0 F10500 X65.099 Y61.826
G1 F1380 X66.250 Y60.675 E85.32917
G0 F10500 X65.543 Y60.675
G1 F1380 X64.391 Y61.826 E85.36108
G0 F10500 X64.174 Y61.337
G1 F1380 X64.836 Y60.675 E85.37942
G0 F10500 X85.889 Y79.108
G0 X86.172 Y81.764
G1 F1380 X87.324 Y80.613 E85.41133
G0 F10500 X87.324 Y81.320
G1 F1380 X86.172 Y82.471 E85.44324
G0 F10500 X86.172 Y83.179
G1 F1380 X87.324 Y82.027 E85.47516
G0 F10500 X87.324 Y82.734
G1 F1380 X86.172 Y83.886 E85.50708
G0 F10500 X86.172 Y84.593
G1 F1380 X87.324 Y83.441 E85.53901
G0 F10500 X87.324 Y84.148
G1 F1380 X86.172 Y85.300 E85.57093
G0 F10500 X86.172 Y86.007
G1 F1380 X87.324 Y84.855 E85.60285
G0 F10500 X87.324 Y85.562
G1 F1380 X86.172 Y86.714 E85.63477
G0 F10500 X86.172 Y87.421
G1 F1380 X87.324 Y86.269 E85.66670
G0 F10500 X87.324 Y86.976
G1 F1380 X86.172 Y88.128 E85.69862
G0 F10500 X86.172 Y88.835
G1 F1380 X87.324 Y87.684 E85.73053
G0 F10500 X87.324 Y88.391
G1 F1380 X86.172 Y89.543 E85.76245
G0 F10500 X86.172 Y90.250
G1 F1380 X87.324 Y89.098 E85.79437
G0 F10500 X87.324 Y89.805
G1 F1380 X86.172 Y90.957 E85.82630
G0 F10500 X86.172 Y91.664
G1 F1380 X87.324 Y90.512 E85.85822
G0 F10500 X87.324 Y91.219
G1 F1380 X86.172 Y92.371 E85.89014
G0 F10500 X86.172 Y93.078
G1 F1380 X87.324 Y91.926 E85.92206
G0 F10500 X87.324 Y92.633
G1 F1380 X86.172 Y93.785 E85.95399
G0 F10500 X86.172 Y94.492
G1 F1380 X87.324 Y93.340 E85.98591
G0 F10500 X87.324 Y94.048
G1 F1380 X86.172 Y95.199 E86.01782
G0 F10500 X86.755 Y95.324
G1 F1380 X87.324 Y94.755 E86.03358
;LAYER:2
G0 F10500 X87.500 Y95.500 Z0.925
;TYPE:WALL-INNER
G1 F1440 X85.998 Y95.500 E86.06301
G1 X85.998 Y78.999 E86.38634
G1 X65.500 Y78.999 E86.78799
G1 X65.500 Y62.001 E87.12105
G1 X64.000 Y62.001 E87.15044
G1 X64.000 Y60.500 E87.17985
G1 X96.000 Y60.500 E87.80687
G1 X96.000 Y62.001 E87.83628
G1 X94.500 Y62.001 E87.86567
G1 X94.500 Y78.999 E88.19874
G1 X87.500 Y78.999 E88.33590
G1 X87.500 Y95.500 E88.65922
G0 F10500 X88.000 Y96.000
;TYPE:WALL-OUTER
G1 F1320 X85.498 Y96.000 E88.70825
G1 X85.498 Y79.499 E89.03158
G1 X65.000 Y79.499 E89.43322
G1 X65.000 Y62.501 E89.76628
G1 X63.500 Y62.501 E89.79568
G1 X63.500 Y60.000 E89.84468
G1 X96.500 Y60.000 E90.49129
G1 X96.500 Y62.501 E90.54030
G1 X95.000 Y62.501 E90.56969
G1 X95.000 Y79.499 E90.90276
G1 X88.000 Y79.499 E91.03992
G1 X88.000 Y96.000 E91.36324
G0 F10500 X87.192 Y95.324
;TYPE:SKIN
G1 F1920 X86.172 Y94.304 E91.39151
G0 F10500 X86.172 Y95.011
G1 F1920 X86.485 Y95.324 E91.40018
G0 F10500 X87.325 Y94.750
G1 F1920 X86.172 Y93.596 E91.43214
G0 F10500 X86.172 Y92.889
G1 F1920 X87.325 Y94.043 E91.46411
G0 F10500 X87.325 Y93.335
G1 F1920 X86.172 Y92.182 E91.49606
G0 F10500 X86.172 Y91.475
G1 F1920 X87.325 Y92.628 E91.52801
G0 F10500 X87.325 Y91.921
G1 F1920 X86.172 Y90.768 E91.55996
G0 F10500 X86.172 Y90.061
G1 F1920 X87.325 Y91.214 E91.59191
G0 F10500 X87.325 Y90.507
G1 F1920 X86.172 Y89.354 E91.62386
G0 F10500 X86.172 Y88.647
G1 F1920 X87.325 Y89.800 E91.65581
G0 F10500 X87.325 Y89.093
G1 F1920 X86.172 Y87.940 E91.68776
G0 F10500 X86.172 Y87.232
G1 F1920 X87.325 Y88.386 E91.71972
G0 F10500 X87.325 Y87.679
G1 F1920 X86.172 Y86.525 E91.75169
G0 F10500 X86.172 Y85.818
G1 F1920 X87.325 Y86.972 E91.78365
G0 F10500 X87.325 Y86.264
G1 F1920 X86.172 Y85.111 E91.81560
G0 F10500 X86.172 Y84.404
G1 F1920 X87.325 Y85.557 E91.84755
G0 F10500 X87.325 Y84.850
G1 F1920 X86.172 Y83.697 E91.87950
G0 F10500 X86.172 Y82.990
G1 F1920 X87.325 Y84.143 E91.91145
G0 F10500 X87.325 Y83.436
G1 F1920 X86.172 Y82.283 E91.94340
G0 F10500 X86.172 Y81.576
G1 F1920 X87.325 Y82.729 E91.97535
G0 F10500 X87.325 Y82.022
G1 F1920 X86.172 Y80.868 E92.00732
G0 F10500 X86.172 Y80.161
G1 F1920 X87.325 Y81.315 E92.03928
G0 F10500 X87.325 Y80.608
G1 F1920 X86.172 Y79.454 E92.07125
G0 F10500 X85.540 Y78.823
G1 F1920 X67.392 Y60.675 E92.57414
G0 F10500 X66.685 Y60.675
G1 F1920 X84.833 Y78.823 E93.07703
G0 F10500 X84.126 Y78.823
G1 F1920 X65.978 Y60.675 E93.57992
G0 F10500 X65.271 Y60.675
G1 F1920 X83.419 Y78.823 E94.08281
G0 F10500 X82.712 Y78.823
G1 F1920 X64.564 Y60.675 E94.58570
G0 F10500 X64.174 Y60.992
G1 F1920 X65.007 Y61.825 E94.60879
G0 F10500 X64.300 Y61.825
G1 F1920 X64.174 Y61.699 E94.61228
G0 F10500 X65.391 Y62.110
G0 X65.673 Y62.491
G1 F1920 X82.005 Y78.823 E95.06485
G0 F10500 X81.298 Y78.823
G1 F1920 X65.673 Y63.199 E95.49781
G0 F10500 X65.673 Y63.906
G1 F1920 X80.591 Y78.823 E95.91118
G0 F10500 X87.325 Y79.193
G1 F1920 X68.807 Y60.675 E96.42433
G0 F10500 X68.100 Y60.675
G1 F1920 X87.325 Y79.900 E96.95706
G0 F10500 X87.662 Y78.824
G1 F1920 X69.514 Y60.675 E97.45997
G0 F10500 X70.221 Y60.675
G1 F1920 X88.369 Y78.824 E97.96287
G0 F10500 X89.077 Y78.824
G1 F1920 X70.928 Y60.675 E98.46579
G0 F10500 X71.635 Y60.675
G1 F1920 X89.784 Y78.824 E98.96871
G0 F10500 X90.491 Y78.824
G1 F1920 X72.342 Y60.675 E99.47163
G0 F10500 X73.049 Y60.675
G1 F1920 X91.198 Y78.824 E99.97455
G0 F10500 X91.905 Y78.824
G1 F1920 X73.756 Y60.675 E100.47747
G0 F10500 X74.464 Y60.675
G1 F1920 X92.612 Y78.824 E100.98037
G0 F10500 X93.319 Y78.824
G1 F1920 X75.171 Y60.675 E101.48328
G0 F10500 X75.878 Y60.675
G1 F1920 X94.026 Y78.824 E101.98618
G0 F10500 X94.324 Y78.414
G1 F1920 X76.585 Y60.675 E102.47774
G0 F10500 X77.292 Y60.675
G1 F1920 X94.324 Y77.707 E102.94971
G0 F10500 X94.324 Y77.000
G1 F1920 X77.999 Y60.675 E103.40208
G0 F10500 X78.706 Y60.675
G1 F1920 X94.324 Y76.293 E103.83487
G0 F10500 X94.324 Y75.586
G1 F1920 X79.413 Y60.675 E104.24806
G0 F10500 X65.673 Y64.613
G1 F1920 X79.883 Y78.823 E104.64183
G0 F10500 X79.176 Y78.823
G1 F1920 X65.673 Y65.320 E105.01600
G0 F10500 X65.673 Y66.027
G1 F1920 X78.469 Y78.823 E105.37059
G0 F10500 X77.762 Y78.823
G1 F1920 X65.673 Y66.734 E105.70558
G0 F10500 X65.673 Y67.441
G1 F1920 X77.055 Y78.823 E106.02098
G0 F10500 X76.348 Y78.823
G1 F1920 X65.673 Y68.148 E106.31679
G0 F10500 X65.673 Y68.855
G1 F1920 X75.641 Y78.823 E106.59301
G0 F10500 X74.934 Y78.823
G1 F1920 X65.673 Y69.563 E106.84962
G0 F10500 X65.673 Y70.270
G1 F1920 X74.227 Y78.823 E107.08665
G0 F10500 X73.520 Y78.823
G1 F1920 X65.674 Y70.977 E107.30406
G0 F10500 X65.674 Y71.685
G1 F1920 X72.812 Y78.823 E107.50186
G0 F10500 X72.105 Y78.823
G1 F1920 X65.674 Y72.392 E107.68007
G0 F10500 X65.674 Y73.099
G1 F1920 X71.398 Y78.823 E107.83868
G0 F10500 X70.691 Y78.823
G1 F1920 X65.674 Y73.806 E107.97771
G0 F10500 X65.674 Y74.513
G1 F1920 X69.984 Y78.823 E108.09714
G0 F10500 X69.277 Y78.823
G1 F1920 X65.674 Y75.220 E108.19698
G0 F10500 X65.674 Y75.927
G1 F1920 X68.570 Y78.823 E108.27723
G0 F10500 X67.863 Y78.823
G1 F1920 X65.674 Y76.634 E108.33789
G0 F10500 X65.674 Y77.341
G1 F1920 X67.156 Y78.823 E108.37896
G0 F10500 X66.448 Y78.823
G1 F1920 X65.674 Y78.049 E108.40040
G0 F10500 X80.120 Y60.675
G1 F1920 X94.324 Y74.879 E108.79401
G0 F10500 X94.324 Y74.171
G1 F1920 X80.827 Y60.675 E109.16800
G0 F10500 X81.535 Y60.675
G1 F1920 X94.324 Y73.464 E109.52239
G0 F10500 X94.324 Y72.757
G1 F1920 X82.242 Y60.675 E109.85719
G0 F10500 X82.949 Y60.675
G1 F1920 X94.324 Y72.050 E110.17240
G0 F10500 X94.324 Y71.343
G1 F1920 X83.656 Y60.675 E110.46801
G0 F10500 X84.363 Y60.675
G1 F1920 X94.324 Y70.636 E110.74404
G0 F10500 X94.324 Y69.929
G1 F1920 X85.070 Y60.675 E111.00047
G0 F10500 X85.777 Y60.675
G1 F1920 X94.324 Y69.222 E111.23732
G0 F10500 X94.324 Y68.515
G1 F1920 X86.484 Y60.675 E111.45457
G0 F10500 X87.191 Y60.675
G1 F1920 X94.324 Y67.808 E111.65223
G0 F10500 X94.324 Y67.100
G1 F1920 X87.899 Y60.675 E111.83027
G0 F10500 X88.606 Y60.675
G1 F1920 X94.324 Y66.393 E111.98872
G0 F10500 X94.324 Y65.686
G1 F1920 X89.313 Y60.675 E112.12757
G0 F10500 X90.020 Y60.675
G1 F1920 X94.324 Y64.979 E112.24684
G0 F10500 X94.324 Y64.272
G1 F1920 X90.727 Y60.675 E112.34651
G0 F10500 X91.434 Y60.675
G1 F1920 X94.324 Y63.565 E112.42660
G0 F10500 X94.324 Y62.858
G1 F1920 X92.141 Y60.675 E112.48709
G0 F10500 X92.848 Y60.675
G1 F1920 X94.324 Y62.151 E112.52799
G0 F10500 X94.706 Y61.825
G1 F1920 X93.555 Y60.675 E112.55987
G0 F10500 X94.262 Y60.675
G1 F1920 X95.413 Y61.825 E112.59175
G0 F10500 X95.824 Y61.529
G1 F1920 X94.970 Y60.675 E112.61542
G0 F10500 X95.677 Y60.675
G1 F1920 X95.824 Y60.822 E112.61949
;LAYER:3
G0 F10500 X94.500 Y62.001 Z1.175
;TYPE:WALL-INNER
G1 F1740 X94.500 Y70.000 E112.77623
G1 X65.500 Y70.000 E113.34446
G1 X65.500 Y62.001 E113.50120
G1 X64.000 Y62.001 E113.53059
G1 X64.000 Y60.500 E113.56000
G1 X96.000 Y60.500 E114.18702
G1 X96.000 Y62.001 E114.21643
G1 X94.500 Y62.001 E114.24582
G0 F10500 X95.000 Y62.501
;TYPE:WALL-OUTER
G1 F1500 X95.000 Y70.500 E114.40256
G1 X65.000 Y70.500 E114.99039
G1 X65.000 Y62.501 E115.14712
G1 X63.500 Y62.501 E115.17651
G1 X63.500 Y60.000 E115.22552
G1 X96.500 Y60.000 E115.87213
G1 X96.500 Y62.501 E115.92114
G1 X95.000 Y62.501 E115.95053
G0 F10500 X94.797 Y61.826
;TYPE:SKIN
G1 F2400 X95.824 Y60.799 E115.97899
G0 F10500 X95.241 Y60.675
G1 F2400 X86.092 Y69.824 E116.23251
G0 F10500 X86.799 Y69.824
G1 F2400 X94.324 Y62.299 E116.44103
G0 F10500 X94.324 Y63.006
G1 F2400 X87.506 Y69.824 E116.62996
G0 F10500 X88.213 Y69.824
G1 F2400 X94.324 Y63.713 E116.79930
G0 F10500 X94.324 Y64.420
G1 F2400 X88.920 Y69.824 E116.94905
G0 F10500 X89.627 Y69.824
G1 F2400 X94.324 Y65.128 E117.07919
G0 F10500 X94.324 Y65.835
G1 F2400 X90.335 Y69.824 E117.18973
G0 F10500 X91.042 Y69.824
G1 F2400 X94.324 Y66.542 E117.28068
G0 F10500 X94.324 Y67.249
G1 F2400 X91.749 Y69.824 E117.35203
G0 F10500 X92.456 Y69.824
G1 F2400 X94.324 Y67.956 E117.40379
G0 F10500 X94.324 Y68.663
G1 F2400 X93.163 Y69.824 E117.43597
G0 F10500 X93.870 Y69.824
G1 F2400 X94.324 Y69.370 E117.44855
G0 F10500 X94.609 Y62.110
G0 X95.504 Y61.826
G1 F2400 X95.824 Y61.506 E117.45741
G0 F10500 X94.534 Y60.675
G1 F2400 X85.385 Y69.824 E117.71094
G0 F10500 X84.678 Y69.824
G1 F2400 X93.827 Y60.675 E117.96446
G0 F10500 X93.120 Y60.675
G1 F2400 X83.971 Y69.824 E118.21799
G0 F10500 X83.263 Y69.824
G1 F2400 X92.413 Y60.675 E118.47152
G0 F10500 X91.706 Y60.675
G1 F2400 X82.556 Y69.824 E118.72506
G0 F10500 X81.849 Y69.824
G1 F2400 X90.998 Y60.675 E118.97859
G0 F10500 X90.291 Y60.675
G1 F2400 X81.142 Y69.824 E119.23211
G0 F10500 X80.435 Y69.824
G1 F2400 X89.584 Y60.675 E119.48563
G0 F10500 X88.877 Y60.675
G1 F2400 X79.728 Y69.824 E119.73916
G0 F10500 X79.021 Y69.824
G1 F2400 X88.170 Y60.675 E119.99268
G0 F10500 X87.463 Y60.675
G1 F2400 X78.314 Y69.824 E120.24621
G0 F10500 X77.607 Y69.824
G1 F2400 X86.756 Y60.675 E120.49973
G0 F10500 X86.049 Y60.675
G1 F2400 X76.899 Y69.824 E120.75327
G0 F10500 X76.192 Y69.824
G1 F2400 X85.342 Y60.675 E121.00681
G0 F10500 X84.635 Y60.675
G1 F2400 X75.485 Y69.824 E121.26034
G0 F10500 X74.778 Y69.824
G1 F2400 X83.927 Y60.675 E121.51387
G0 F10500 X83.220 Y60.675
G1 F2400 X74.071 Y69.824 E121.76739
G0 F10500 X73.364 Y69.824
G1 F2400 X82.513 Y60.675 E122.02091
G0 F10500 X81.806 Y60.675
G1 F2400 X72.657 Y69.824 E122.27444
G0 F10500 X71.950 Y69.824
G1 F2400 X81.099 Y60.675 E122.52796
G0 F10500 X80.392 Y60.675
G1 F2400 X71.243 Y69.824 E122.78149
G0 F10500 X70.536 Y69.824
G1 F2400 X79.685 Y60.675 E123.03501
G0 F10500 X78.978 Y60.675
G1 F2400 X69.828 Y69.824 E123.28855
G0 F10500 X69.121 Y69.824
G1 F2400 X78.271 Y60.675 E123.54209
G0 F10500 X77.563 Y60.675
G1 F2400 X68.414 Y69.824 E123.79561
G0 F10500 X67.707 Y69.824
G1 F2400 X76.856 Y60.675 E124.04913
G0 F10500 X76.149 Y60.675
G1 F2400 X67.000 Y69.824 E124.30266
G0 F10500 X66.293 Y69.824
G1 F2400 X75.442 Y60.675 E124.55618
G0 F10500 X74.735 Y60.675
G1 F2400 X65.674 Y69.736 E124.80727
G0 F10500 X65.674 Y69.029
G1 F2400 X74.028 Y60.675 E125.03876
G0 F10500 X73.321 Y60.675
G1 F2400 X65.674 Y68.322 E125.25066
G0 F10500 X65.674 Y67.614
G1 F2400 X72.614 Y60.675 E125.44296
G0 F10500 X71.907 Y60.675
G1 F2400 X65.674 Y66.907 E125.61567
G0 F10500 X65.674 Y66.200
G1 F2400 X71.199 Y60.675 E125.76877
G0 F10500 X70.492 Y60.675
G1 F2400 X65.674 Y65.493 E125.90228
G0 F10500 X65.674 Y64.786
G1 F2400 X69.785 Y60.675 E126.01620
G0 F10500 X69.078 Y60.675
G1 F2400 X65.674 Y64.079 E126.11052
G0 F10500 X65.674 Y63.372
G1 F2400 X68.371 Y60.675 E126.18526
G0 F10500 X67.664 Y60.675
G1 F2400 X65.674 Y62.665 E126.24040
G0 F10500 X65.674 Y61.958
G1 F2400 X66.957 Y60.675 E126.27596
G0 F10500 X66.250 Y60.675
G1 F2400 X65.099 Y61.826 E126.30785
G0 F10500 X64.391 Y61.826
G1 F2400 X65.543 Y60.675 E126.33976
G0 F10500 X64.836 Y60.675
G1 F2400 X64.174 Y61.337 E126.35810
G1 F600 E124.60810
G1 Z1.275
G0 F10500 X65.500 Y77.500
;TYPE:WALL-INNER
G1 Z1.175
G1 F600 E126.35810
G1 F1740 X94.500 Y77.500 E126.92634
G1 X94.500 Y78.999 E126.95571
G1 X87.500 Y78.999 E127.09287
G1 X87.500 Y95.500 E127.41620
G1 X85.998 Y95.500 E127.44563
G1 X85.998 Y78.999 E127.76895
G1 X65.500 Y78.999 E128.17060
G1 X65.500 Y77.500 E128.19997
G0 F10500 X65.000 Y77.000
;TYPE:WALL-OUTER
G1 F1500 X95.000 Y77.000 E128.78780
G1 X95.000 Y79.499 E128.83677
G1 X88.000 Y79.499 E128.97393
G1 X88.000 Y96.000 E129.29725
G1 X85.498 Y96.000 E129.34628
G1 X85.498 Y79.499 E129.66960
G1 X65.000 Y79.499 E130.07125
G1 X65.000 Y77.000 E130.12021
G0 F10500 X65.675 Y78.220
;TYPE:SKIN
G1 F2400 X66.221 Y77.674 E130.13534
G0 F10500 X66.929 Y77.674
G1 F2400 X65.779 Y78.824 E130.16721
G0 F10500 X66.486 Y78.824
G1 F2400 X67.636 Y77.674 E130.19908
G0 F10500 X68.343 Y77.674
G1 F2400 X67.193 Y78.824 E130.23095
G0 F10500 X67.900 Y78.824
G1 F2400 X69.050 Y77.674 E130.26281
G0 F10500 X69.757 Y77.674
G1 F2400 X68.607 Y78.824 E130.29468
G0 F10500 X69.314 Y78.824
G1 F2400 X70.464 Y77.674 E130.32655
G0 F10500 X71.171 Y77.674
G1 F2400 X70.021 Y78.824 E130.35841
G0 F10500 X70.729 Y78.824
G1 F2400 X71.878 Y77.674 E130.39027
G0 F10500 X72.585 Y77.674
G1 F2400 X71.436 Y78.824 E130.42212
G0 F10500 X72.143 Y78.824
G1 F2400 X73.293 Y77.674 E130.45399
G0 F10500 X74.000 Y77.674
G1 F2400 X72.850 Y78.824 E130.48586
G0 F10500 X73.557 Y78.824
G1 F2400 X74.707 Y77.674 E130.51772
G0 F10500 X75.414 Y77.674
G1 F2400 X74.264 Y78.824 E130.54959
G0 F10500 X74.971 Y78.824
G1 F2400 X76.121 Y77.674 E130.58146
G0 F10500 X76.828 Y77.674
G1 F2400 X75.678 Y78.824 E130.61332
G0 F10500 X76.385 Y78.824
G1 F2400 X77.535 Y77.674 E130.64519
G0 F10500 X78.242 Y77.674
G1 F2400 X77.093 Y78.824 E130.67704
G0 F10500 X77.800 Y78.824
G1 F2400 X78.949 Y77.674 E130.70890
G0 F10500 X79.656 Y77.674
G1 F2400 X78.507 Y78.824 E130.74075
G0 F10500 X79.214 Y78.824
G1 F2400 X80.364 Y77.674 E130.77262
G0 F10500 X81.071 Y77.674
G1 F2400 X79.921 Y78.824 E130.80449
G0 F10500 X80.628 Y78.824
G1 F2400 X81.778 Y77.674 E130.83635
G0 F10500 X82.485 Y77.674
G1 F2400 X81.335 Y78.824 E130.86822
G0 F10500 X82.042 Y78.824
G1 F2400 X83.192 Y77.674 E130.90009
G0 F10500 X83.899 Y77.674
G1 F2400 X82.749 Y78.824 E130.93195
G0 F10500 X83.456 Y78.824
G1 F2400 X84.606 Y77.674 E130.96382
G0 F10500 X85.313 Y77.674
G1 F2400 X84.164 Y78.824 E130.99567
G0 F10500 X84.871 Y78.824
G1 F2400 X86.020 Y77.674 E131.02753
G0 F10500 X86.728 Y77.674
G1 F2400 X85.578 Y78.824 E131.05940
G0 F10500 X86.172 Y78.936
G1 F2400 X87.435 Y77.674 E131.09438
G0 F10500 X88.142 Y77.674
G1 F2400 X86.172 Y79.643 E131.14896
G0 F10500 X86.172 Y80.350
G1 F2400 X87.324 Y79.198 E131.18088
G0 F10500 X87.699 Y78.824
G1 F2400 X88.849 Y77.674 E131.21275
G0 F10500 X89.556 Y77.674
G1 F2400 X88.406 Y78.824 E131.24461
G0 F10500 X89.113 Y78.824
G1 F2400 X90.263 Y77.674 E131.27648
G0 F10500 X90.970 Y77.674
G1 F2400 X89.820 Y78.824 E131.30835
G0 F10500 X90.528 Y78.824
G1 F2400 X91.677 Y77.674 E131.34020
G0 F10500 X92.384 Y77.674
G1 F2400 X91.235 Y78.824 E131.37205
G0 F10500 X91.942 Y78.824
G1 F2400 X93.092 Y77.674 E131.40392
G0 F10500 X93.799 Y77.674
G1 F2400 X92.649 Y78.824 E131.43579
G0 F10500 X93.356 Y78.824
G1 F2400 X94.323 Y77.856 E131.46260
G0 F10500 X94.323 Y78.563
G1 F2400 X94.063 Y78.824 E131.46982
G0 F10500 X87.609 Y79.108
G0 X87.324 Y79.905
G1 F2400 X86.172 Y81.057 E131.50174
G0 F10500 X86.172 Y81.764
G1 F2400 X87.324 Y80.613 E131.53365
G0 F10500 X87.324 Y81.320
G1 F2400 X86.172 Y82.471 E131.56556
G0 F10500 X86.172 Y83.179
G1 F2400 X87.324 Y82.027 E131.59748
G0 F10500 X87.324 Y82.734
G1 F2400 X86.172 Y83.886 E131.62940
G0 F10500 X86.172 Y84.593
G1 F2400 X87.324 Y83.441 E131.66132
G0 F10500 X87.324 Y84.148
G1 F2400 X86.172 Y85.300 E131.69325
G0 F10500 X86.172 Y86.007
G1 F2400 X87.324 Y84.855 E131.72517
G0 F10500 X87.324 Y85.562
G1 F2400 X86.172 Y86.714 E131.75709
G0 F10500 X86.172 Y87.421
G1 F2400 X87.324 Y86.269 E131.78901
G0 F10500 X87.324 Y86.976
G1 F2400 X86.172 Y88.128 E131.82094
G0 F10500 X86.172 Y88.835
G1 F2400 X87.324 Y87.684 E131.85285
G0 F10500 X87.324 Y88.391
G1 F2400 X86.172 Y89.543 E131.88477
G0 F10500 X86.172 Y90.250
G1 F2400 X87.324 Y89.098 E131.91669
G0 F10500 X87.324 Y89.805
G1 F2400 X86.172 Y90.957 E131.94861
G0 F10500 X86.172 Y91.664
G1 F2400 X87.324 Y90.512 E131.98054
G0 F10500 X87.324 Y91.219
G1 F2400 X86.172 Y92.371 E132.01246
G0 F10500 X86.172 Y93.078
G1 F2400 X87.324 Y91.926 E132.04438
G0 F10500 X87.324 Y92.633
G1 F2400 X86.172 Y93.785 E132.07630
G0 F10500 X86.172 Y94.492
G1 F2400 X87.324 Y93.340 E132.10823
G0 F10500 X87.324 Y94.048
G1 F2400 X86.172 Y95.199 E132.14013
G0 F10500 X86.755 Y95.324
G1 F2400 X87.324 Y94.755 E132.15590
;LAYER:4
M106 S224
G1 F600 E130.40590
G1 Z1.275
G0 F10500 X94.500 Y70.000 Z1.425
;TYPE:WALL-INNER
G1 Z1.425
G1 F600 E132.15590
G1 F1500 X65.500 Y70.000 E132.72414
G1 X65.500 Y62.001 E132.88087
G1 X64.000 Y62.001 E132.91026
G1 X64.000 Y60.500 E132.93968
G1 X96.000 Y60.500 E133.56669
G1 X96.000 Y62.001 E133.59611
G1 X94.500 Y62.001 E133.62550
G1 X94.500 Y70.000 E133.78223
G0 F10500 X95.000 Y70.500
;TYPE:WALL-OUTER
G1 F1320 X65.000 Y70.500 E134.37006
G1 X65.000 Y62.501 E134.52680
G1 X63.500 Y62.501 E134.55619
G1 X63.500 Y60.000 E134.60519
G1 X96.500 Y60.000 E135.25181
G1 X96.500 Y62.501 E135.30081
G1 X95.000 Y62.501 E135.33020
G1 X95.000 Y70.500 E135.48694
G0 F10500 X94.324 Y69.575
;TYPE:FILL
G1 F1740 X85.424 Y60.675 E135.73356
G0 F10500 X84.281 Y60.675
G1 F1740 X75.132 Y69.824 E135.98709
G0 F10500 X73.359 Y69.823
G1 F1740 X65.673 Y62.138 E136.20006
G0 F10500 X65.361 Y61.825
G1 F1740 X64.210 Y60.675 E136.23194
G0 F10500 X65.391 Y62.110
G0 X65.674 Y65.140
G1 F1740 X70.139 Y60.675 E136.35566
G0 F10500 X71.282 Y60.675
G1 F1740 X80.430 Y69.823 E136.60916
G0 F10500 X82.203 Y69.824
G1 F1740 X91.352 Y60.675 E136.86268
G0 F10500 X92.495 Y60.675
G1 F1740 X94.324 Y62.504 E136.91337
G0 F10500 X94.324 Y64.774
G1 F1740 X89.274 Y69.824 E137.05331
G0 F10500 X87.501 Y69.823
G1 F1740 X78.353 Y60.675 E137.30680
G0 F10500 X77.210 Y60.675
G1 F1740 X68.061 Y69.824 E137.56033
G0 F10500 X66.288 Y69.823
G1 F1740 X65.673 Y69.209 E137.57735
G1 F600 E135.82735
G1 Z1.525
G0 F10500 X65.500 Y77.500
;TYPE:WALL-INNER
G1 Z1.425
G1 F600 E137.57735
G1 F1500 X94.500 Y77.500 E138.14559
G1 X94.500 Y78.999 E138.17496
G1 X87.500 Y78.999 E138.31212
G1 X87.500 Y85.419 E138.43792
G1 X85.998 Y85.418 E138.46735
G1 X85.998 Y78.999 E138.59312
G1 X65.500 Y78.999 E138.99477
G1 X65.500 Y77.500 E139.02414
G0 F10500 X65.000 Y77.000
;TYPE:WALL-OUTER
G1 F1320 X95.000 Y77.000 E139.61197
G1 X95.000 Y79.499 E139.66094
G1 X88.000 Y79.499 E139.79810
G1 X88.000 Y85.918 E139.92387
G1 X85.498 Y85.918 E139.97290
G1 X85.498 Y79.499 E140.09867
G1 X65.000 Y79.499 E140.50032
G1 X65.000 Y77.000 E140.54929
G0 F10500 X65.350 Y77.260
G0 X66.132 Y78.824
;TYPE:FILL
G1 F1740 X67.282 Y77.674 E140.58115
G0 F10500 X67.068 Y77.674
G1 F1740 X68.216 Y78.823 E140.61298
G0 F10500 X73.203 Y78.824
G1 F1740 X74.353 Y77.674 E140.64484
G0 F10500 X74.139 Y77.674
G1 F1740 X75.287 Y78.823 E140.67667
G0 F10500 X80.275 Y78.824
G1 F1740 X81.424 Y77.674 E140.70852
G0 F10500 X81.210 Y77.674
G1 F1740 X82.358 Y78.823 E140.74035
G0 F10500 X85.889 Y79.108
G0 X86.172 Y79.997
G1 F1740 X87.324 Y78.845 E140.77227
G0 F10500 X87.346 Y78.824
G1 F1740 X88.495 Y77.674 E140.80413
G0 F10500 X88.281 Y77.674
G1 F1740 X89.430 Y78.824 E140.83598
G0 F10500 X87.609 Y79.108
G0 X86.172 Y82.636
G1 F1740 X87.324 Y83.789 E140.86792
G0 F10500 X87.107 Y83.925
;TYPE:SKIN
G1 F2220 X87.324 Y84.142 E140.87393
G0 F10500 X87.324 Y84.849
G1 F2220 X86.400 Y83.925 E140.89953
G0 F10500 X86.172 Y84.404
G1 F2220 X87.010 Y85.243 E140.92277
G0 F10500 X86.303 Y85.243
G1 F2220 X86.172 Y85.111 E140.92641
G1 F600 E139.17641
G1 Z1.525
G0 F10500 X85.998 Y87.679
;TYPE:WALL-INNER
G1 Z1.425
G1 F600 E140.92641
G1 F1500 X87.500 Y87.680 E140.95584
G1 X87.500 Y95.500 E141.10907
G1 X85.998 Y95.500 E141.13850
G1 X85.998 Y87.679 E141.29175
G0 F10500 X85.498 Y87.180
;TYPE:WALL-OUTER
G1 F1320 X88.000 Y87.180 E141.34077
G1 X88.000 Y96.000 E141.51360
G1 X85.498 Y96.000 E141.56262
G1 X85.498 Y87.180 E141.73544
G0 F10500 X85.848 Y87.440
G0 X86.172 Y89.708
;TYPE:FILL
G1 F1740 X87.325 Y90.861 E141.76739
G0 F10500 X87.324 Y92.987
G1 F1740 X86.172 Y94.139 E141.79932
G0 F10500 X86.697 Y89.172
;TYPE:SKIN
G1 F2220 X86.172 Y88.647 E141.81386
G0 F10500 X86.172 Y87.940
G1 F2220 X87.324 Y89.092 E141.84579
G0 F10500 X87.324 Y88.385
G1 F2220 X86.793 Y87.853 E141.86051
;LAYER:5
G1 F600 E140.11051
G1 Z1.525
G0 F10500 X94.500 Y70.000 Z1.675
;TYPE:WALL-INNER
G1 Z1.675
G1 F600 E141.86051
G1 F1500 X65.500 Y70.000 E142.42875
G1 X65.500 Y62.001 E142.58548
G1 X64.000 Y62.001 E142.61488
G1 X64.000 Y60.500 E142.64429
G1 X96.000 Y60.500 E143.27131
G1 X96.000 Y62.001 E143.30072
G1 X94.500 Y62.001 E143.33011
G1 X94.500 Y70.000 E143.48684
G0 F10500 X95.000 Y70.500
;TYPE:WALL-OUTER
G1 F1260 X65.000 Y70.500 E144.07467
G1 X65.000 Y62.501 E144.23141
G1 X63.500 Y62.501 E144.26080
G1 X63.500 Y60.000 E144.30981
G1 X96.500 Y60.000 E144.95642
G1 X96.500 Y62.501 E145.00542
G1 X95.000 Y62.501 E145.03481
G1 X95.000 Y70.500 E145.19155
G0 F10500 X94.324 Y69.575
;TYPE:FILL
G1 F1740 X85.424 Y60.675 E145.43817
G0 F10500 X84.281 Y60.675
G1 F1740 X75.132 Y69.824 E145.69170
G0 F10500 X73.359 Y69.823
G1 F1740 X65.673 Y62.138 E145.90467
G0 F10500 X65.361 Y61.825
G1 F1740 X64.210 Y60.675 E145.93655
G0 F10500 X65.391 Y62.110
G0 X65.674 Y65.140
G1 F1740 X70.139 Y60.675 E146.06028
G0 F10500 X71.282 Y60.675
G1 F1740 X80.430 Y69.823 E146.31377
G0 F10500 X82.203 Y69.824
G1 F1740 X91.352 Y60.675 E146.56730
G0 F10500 X92.495 Y60.675
G1 F1740 X94.324 Y62.504 E146.61798
G0 F10500 X94.324 Y64.774
G1 F1740 X89.274 Y69.824 E146.75792
G0 F10500 X87.501 Y69.823
G1 F1740 X78.353 Y60.675 E147.01141
G0 F10500 X77.210 Y60.675
G1 F1740 X68.061 Y69.824 E147.26494
G0 F10500 X66.288 Y69.823
G1 F1740 X65.673 Y69.209 E147.28197
G1 F600 E145.53197
G1 Z1.775
G0 F10500 X65.500 Y77.500
;TYPE:WALL-INNER
G1 Z1.675
G1 F600 E147.28197
G1 F1500 X94.500 Y77.500 E147.85020
G1 X94.500 Y78.999 E147.87957
G1 X87.500 Y78.999 E148.01673
G1 X87.500 Y84.695 E148.12834
G1 X85.998 Y84.695 E148.15777
G1 X85.998 Y78.999 E148.26938
G1 X65.500 Y78.999 E148.67103
G1 X65.500 Y77.500 E148.70040
G0 F10500 X65.000 Y77.000
;TYPE:WALL-OUTER
G1 F1260 X95.000 Y77.000 E149.28823
G1 X95.000 Y79.499 E149.33720
G1 X88.000 Y79.499 E149.47436
G1 X88.000 Y85.195 E149.58597
G1 X85.498 Y85.195 E149.63499
G1 X85.498 Y79.499 E149.74660
G1 X65.000 Y79.499 E150.14824
G1 X65.000 Y77.000 E150.19721
G0 F10500 X65.350 Y77.260
G0 X66.132 Y78.824
;TYPE:FILL
G1 F1740 X67.282 Y77.674 E150.22908
G0 F10500 X67.068 Y77.674
G1 F1740 X68.216 Y78.823 E150.26090
G0 F10500 X73.203 Y78.824
G1 F1740 X74.353 Y77.674 E150.29277
G0 F10500 X74.139 Y77.674
G1 F1740 X75.287 Y78.823 E150.32460
G0 F10500 X80.275 Y78.824
G1 F1740 X81.424 Y77.674 E150.35645
G0 F10500 X81.210 Y77.674
G1 F1740 X82.358 Y78.823 E150.38827
G0 F10500 X85.889 Y79.108
G0 X86.172 Y79.997
G1 F1740 X87.324 Y78.845 E150.42020
G0 F10500 X87.346 Y78.824
G1 F1740 X88.495 Y77.674 E150.45205
G0 F10500 X88.281 Y77.674
G1 F1740 X89.430 Y78.824 E150.48390
G0 F10500 X87.609 Y79.108
G0 X86.172 Y82.636
G1 F1740 X87.324 Y83.789 E150.51584
G0 F10500 X87.324 Y84.149
;TYPE:SKIN
G1 F2160 X86.929 Y84.189 E150.52612
G1 X86.245 Y84.520 E150.54101
G1 F600 E148.79101
G1 Z1.775
G0 F10500 X85.998 Y88.403
;TYPE:WALL-INNER
G1 Z1.675
G1 F600 E150.54101
G1 F1500 X87.500 Y88.404 E150.57044
G1 X87.500 Y95.500 E150.70949
G1 X85.998 Y95.500 E150.73892
G1 X85.998 Y88.403 E150.87798
G0 F10500 X85.498 Y87.904
;TYPE:WALL-OUTER
G1 F1260 X88.000 Y87.904 E150.92700
G1 X88.000 Y96.000 E151.08564
G1 X85.498 Y96.000 E151.13466
G1 X85.498 Y87.904 E151.29330
G0 F10500 X85.848 Y88.163
G0 X86.172 Y89.708
;TYPE:FILL
G1 F1740 X87.325 Y90.861 E151.32525
G0 F10500 X87.324 Y92.987
G1 F1740 X86.172 Y94.139 E151.35717
G0 F10500 X86.476 Y89.239
;TYPE:SKIN
G1 F2160 X87.231 Y88.837 E151.37551
G1 X87.182 Y89.240 E151.38346
G0 F10500 X86.431 Y88.577
G1 F2160 X86.172 Y88.835 E151.39063
;LAYER:6
M106 S226
G1 F600 E149.64063
G1 Z1.775
G0 F10500 X94.500 Y70.000 Z1.925
;TYPE:WALL-INNER
G1 Z1.925
G1 F600 E151.39063
G1 F1500 X65.500 Y70.000 E151.95886
G1 X65.500 Y62.001 E152.11560
G1 X64.000 Y62.001 E152.14499
G1 X64.000 Y60.500 E152.17440
G1 X96.000 Y60.500 E152.80142
G1 X96.000 Y62.001 E152.83083
G1 X94.500 Y62.001 E152.86022
G1 X94.500 Y70.000 E153.01695
G0 F10500 X95.000 Y70.500
;TYPE:WALL-OUTER
G1 F1260 X65.000 Y70.500 E153.60478
G1 X65.000 Y62.501 E153.76152
G1 X63.500 Y62.501 E153.79091
G1 X63.500 Y60.000 E153.83992
G1 X96.500 Y60.000 E154.48653
G1 X96.500 Y62.501 E154.53553
G1 X95.000 Y62.501 E154.56493
G1 X95.000 Y70.500 E154.72166
G0 F10500 X94.324 Y69.575
;TYPE:FILL
G1 F1680 X85.424 Y60.675 E154.96829
G0 F10500 X84.281 Y60.675
G1 F1680 X75.132 Y69.824 E155.22181
G0 F10500 X73.359 Y69.823
G1 F1680 X65.673 Y62.138 E155.43478
G0 F10500 X65.361 Y61.825
G1 F1680 X64.210 Y60.675 E155.46666
G0 F10500 X65.391 Y62.110
G0 X65.674 Y65.140
G1 F1680 X70.139 Y60.675 E155.59039
G0 F10500 X71.282 Y60.675
G1 F1680 X80.430 Y69.823 E155.84388
G0 F10500 X82.203 Y69.824
G1 F1680 X91.352 Y60.675 E156.09741
G0 F10500 X92.495 Y60.675
G1 F1680 X94.324 Y62.504 E156.14809
G0 F10500 X94.324 Y64.774
G1 F1680 X89.274 Y69.824 E156.28803
G0 F10500 X87.501 Y69.823
G1 F1680 X78.353 Y60.675 E156.54153
G0 F10500 X77.210 Y60.675
G1 F1680 X68.061 Y69.824 E156.79505
G0 F10500 X66.288 Y69.823
G1 F1680 X65.673 Y69.209 E156.81208
G1 F600 E155.06208
G1 Z2.025
G0 F10500 X65.500 Y77.500
;TYPE:WALL-INNER
G1 Z1.925
G1 F600 E156.81208
G1 F1500 X94.500 Y77.500 E157.38031
G1 X94.500 Y78.999 E157.40968
G1 X87.500 Y78.999 E157.54684
G1 X87.500 Y84.445 E157.65356
G1 X85.998 Y84.445 E157.68299
G1 X85.998 Y78.999 E157.78970
G1 X65.500 Y78.999 E158.19134
G1 X65.500 Y77.500 E158.22071
G0 F10500 X65.000 Y77.000
;TYPE:WALL-OUTER
G1 F1260 X95.000 Y77.000 E158.80854
G1 X95.000 Y79.499 E158.85751
G1 X88.000 Y79.499 E158.99467
G1 X88.000 Y84.945 E159.10138
G1 X85.498 Y84.945 E159.15041
G1 X85.498 Y79.499 E159.25712
G1 X65.000 Y79.499 E159.65876
G1 X65.000 Y77.000 E159.70773
G0 F10500 X65.350 Y77.260
G0 X66.132 Y78.824
;TYPE:FILL
G1 F1680 X67.282 Y77.674 E159.73959
G0 F10500 X67.068 Y77.674
G1 F1680 X68.216 Y78.823 E159.77142
G0 F10500 X73.203 Y78.824
G1 F1680 X74.353 Y77.674 E159.80329
G0 F10500 X74.139 Y77.674
G1 F1680 X75.287 Y78.823 E159.83511
G0 F10500 X80.275 Y78.824
G1 F1680 X81.424 Y77.674 E159.86697
G0 F10500 X81.210 Y77.674
G1 F1680 X82.358 Y78.823 E159.89879
G0 F10500 X85.889 Y79.108
G0 X86.172 Y79.997
G1 F1680 X87.324 Y78.845 E159.93071
G0 F10500 X87.346 Y78.824
G1 F1680 X88.495 Y77.674 E159.96257
G0 F10500 X88.281 Y77.674
G1 F1680 X89.430 Y78.824 E159.99442
G0 F10500 X87.609 Y79.108
G0 X86.172 Y82.636
G1 F1680 X87.324 Y83.789 E160.02636
G1 F600 E158.27636
G1 Z2.025
G0 F10500 X86.556 Y88.653
;TYPE:WALL-INNER
G1 Z1.925
G1 F600 E160.02636
G1 F1500 X87.500 Y88.654 E160.04485
G1 X87.500 Y95.500 E160.17900
G1 X85.998 Y95.500 E160.20843
G1 X85.998 Y88.653 E160.34259
G1 X86.556 Y88.653 E160.35352
G0 F10500 X85.498 Y88.154
;TYPE:WALL-OUTER
G1 F1260 X88.000 Y88.154 E160.40255
G1 X88.000 Y96.000 E160.55629
G1 X85.498 Y96.000 E160.60531
G1 X85.498 Y88.154 E160.75905
G0 F10500 X85.848 Y88.414
G0 X86.172 Y89.708
;TYPE:FILL
G1 F1680 X87.325 Y90.861 E160.79100
G0 F10500 X87.324 Y92.987
G1 F1680 X86.172 Y94.139 E160.82292
;LAYER:7
G1 F600 E159.07292
G1 Z2.025
G0 F10500 X94.500 Y70.000 Z2.175
;TYPE:WALL-INNER
G1 Z2.175
G1 F600 E160.82292
G1 F1500 X65.500 Y70.000 E161.39116
G1 X65.500 Y62.001 E161.54789
G1 X64.000 Y62.001 E161.57728
G1 X64.000 Y60.500 E161.60669
G1 X96.000 Y60.500 E162.23371
G1 X96.000 Y62.001 E162.26312
G1 X94.500 Y62.001 E162.29252
G1 X94.500 Y70.000 E162.44925
G0 F10500 X95.000 Y70.500
;TYPE:WALL-OUTER
G1 F1260 X65.000 Y70.500 E163.03708
G1 X65.000 Y62.501 E163.19382
G1 X63.500 Y62.501 E163.22321
G1 X63.500 Y60.000 E163.27221
G1 X96.500 Y60.000 E163.91882
G1 X96.500 Y62.501 E163.96783
G1 X95.000 Y62.501 E163.99722
G1 X95.000 Y70.500 E164.15396
G0 F10500 X94.324 Y69.575
;TYPE:FILL
G1 F1680 X85.424 Y60.675 E164.40058
G0 F10500 X84.281 Y60.675
G1 F1680 X75.132 Y69.824 E164.65410
G0 F10500 X73.359 Y69.823
G1 F1680 X65.673 Y62.138 E164.86707
G0 F10500 X65.361 Y61.825
G1 F1680 X64.210 Y60.675 E164.89896
G0 F10500 X65.391 Y62.110
G0 X65.674 Y65.140
G1 F1680 X70.139 Y60.675 E165.02268
G0 F10500 X71.282 Y60.675
G1 F1680 X80.430 Y69.823 E165.27618
G0 F10500 X82.203 Y69.824
G1 F1680 X91.352 Y60.675 E165.52970
G0 F10500 X92.495 Y60.675
G1 F1680 X94.324 Y62.504 E165.58039
G0 F10500 X94.324 Y64.774
G1 F1680 X89.274 Y69.824 E165.72032
G0 F10500 X87.501 Y69.823
G1 F1680 X78.353 Y60.675 E165.97382
G0 F10500 X77.210 Y60.675
G1 F1680 X68.061 Y69.824 E166.22734
G0 F10500 X66.288 Y69.823
G1 F1680 X65.673 Y69.209 E166.24437
G1 F600 E164.49437
G1 Z2.275
G0 F10500 X65.500 Y77.500
;TYPE:WALL-INNER
G1 Z2.175
G1 F600 E166.24437
G1 F1500 X94.500 Y77.500 E166.81261
G1 X94.500 Y78.999 E166.84198
G1 X87.500 Y78.999 E166.97914
G1 X87.500 Y84.195 E167.08095
G1 X85.998 Y84.195 E167.11038
G1 X85.998 Y78.999 E167.21220
G1 X65.500 Y78.999 E167.61384
G1 X65.500 Y77.500 E167.64321
G0 F10500 X65.000 Y77.000
;TYPE:WALL-OUTER
G1 F1260 X95.000 Y77.000 E168.23104
G1 X95.000 Y79.499 E168.28001
G1 X88.000 Y79.499 E168.41717
G1 X88.000 Y84.695 E168.51898
G1 X85.498 Y84.695 E168.56801
G1 X85.498 Y79.499 E168.66982
G1 X65.000 Y79.499 E169.07146
G1 X65.000 Y77.000 E169.12043
G0 F10500 X65.350 Y77.260
G0 X66.132 Y78.824
;TYPE:FILL
G1 F1680 X67.282 Y77.674 E169.15230
G0 F10500 X67.068 Y77.674
G1 F1680 X68.216 Y78.823 E169.18412
G0 F10500 X73.203 Y78.824
G1 F1680 X74.353 Y77.674 E169.21599
G0 F10500 X74.139 Y77.674
G1 F1680 X75.287 Y78.823 E169.24781
G0 F10500 X80.275 Y78.824
G1 F1680 X81.424 Y77.674 E169.27967
G0 F10500 X81.210 Y77.674
G1 F1680 X82.358 Y78.823 E169.31149
G0 F10500 X85.889 Y79.108
G0 X86.172 Y79.997
G1 F1680 X87.324 Y78.845 E169.34342
G0 F10500 X87.346 Y78.824
G1 F1680 X88.495 Y77.674 E169.37527
G0 F10500 X88.281 Y77.674
G1 F1680 X89.430 Y78.824 E169.40712
G0 F10500 X87.609 Y79.108
G0 X86.172 Y82.636
G1 F1680 X87.324 Y83.789 E169.43906
G1 F600 E167.68906
G1 Z2.275
G0 F10500 X87.500 Y88.903
;TYPE:WALL-INNER
G1 Z2.175
G1 F600 E169.43906
G1 F1500 X87.500 Y95.500 E169.56832
G1 X85.998 Y95.500 E169.59775
G1 X85.998 Y88.904 E169.72700
G1 X87.500 Y88.903 E169.75643
G0 F10500 X88.000 Y88.404
;TYPE:WALL-OUTER
G1 F1260 X88.000 Y96.000 E169.90527
G1 X85.498 Y96.000 E169.95429
G1 X85.498 Y88.404 E170.10313
G1 X88.000 Y88.404 E170.15215
G0 F10500 X87.650 Y88.664
G0 X86.172 Y89.708
;TYPE:FILL
G1 F1680 X87.325 Y90.861 E170.18411
G0 F10500 X87.324 Y92.987
G1 F1680 X86.172 Y94.139 E170.21603
;LAYER:8
G1 F600 E168.46603
G1 Z2.275
G0 F10500 X94.500 Y70.000 Z2.425
;TYPE:WALL-INNER
G1 Z2.425
G1 F600 E170.21603
G1 F1500 X65.500 Y70.000 E170.78426
G1 X65.500 Y62.001 E170.94100
G1 X64.000 Y62.001 E170.97039
G1 X64.000 Y60.500 E170.99980
G1 X96.000 Y60.500 E171.62682
G1 X96.000 Y62.001 E171.65623
G1 X94.500 Y62.001 E171.68562
G1 X94.500 Y70.000 E171.84236
G0 F10500 X95.000 Y70.500
;TYPE:WALL-OUTER
G1 F1260 X65.000 Y70.500 E172.43019
G1 X65.000 Y62.501 E172.58692
G1 X63.500 Y62.501 E172.61631
G1 X63.500 Y60.000 E172.66532
G1 X96.500 Y60.000 E173.31193
G1 X96.500 Y62.501 E173.36094
G1 X95.000 Y62.501 E173.39033
G1 X95.000 Y70.500 E173.54706
G0 F10500 X94.324 Y69.575
;TYPE:FILL
G1 F1680 X85.424 Y60.675 E173.79369
G0 F10500 X84.281 Y60.675
G1 F1680 X75.132 Y69.824 E174.04721
G0 F10500 X73.359 Y69.823
G1 F1680 X65.673 Y62.138 E174.26018
G0 F10500 X65.361 Y61.825
G1 F1680 X64.210 Y60.675 E174.29206
G0 F10500 X65.391 Y62.110
G0 X65.674 Y65.140
G1 F1680 X70.139 Y60.675 E174.41579
G0 F10500 X71.282 Y60.675
G1 F1680 X80.430 Y69.823 E174.66929
G0 F10500 X82.203 Y69.824
G1 F1680 X91.352 Y60.675 E174.92281
G0 F10500 X92.495 Y60.675
G1 F1680 X94.324 Y62.504 E174.97349
G0 F10500 X94.324 Y64.774
G1 F1680 X89.274 Y69.824 E175.11343
G0 F10500 X87.501 Y69.823
G1 F1680 X78.353 Y60.675 E175.36693
G0 F10500 X77.210 Y60.675
G1 F1680 X68.061 Y69.824 E175.62045
G0 F10500 X66.288 Y69.823
G1 F1680 X65.673 Y69.209 E175.63748
G1 F600 E173.88748
G1 Z2.525
G0 F10500 X65.500 Y77.500
;TYPE:WALL-INNER
G1 Z2.425
G1 F600 E175.63748
G1 F1500 X94.500 Y77.500 E176.20572
G1 X94.500 Y78.999 E176.23509
G1 X87.500 Y78.999 E176.37225
G1 X87.500 Y84.001 E176.47026
G1 X85.998 Y84.000 E176.49969
G1 X85.998 Y78.999 E176.59768
G1 X65.500 Y78.999 E176.99932
G1 X65.500 Y77.500 E177.02870
G0 F10500 X65.000 Y77.000
;TYPE:WALL-OUTER
G1 F1260 X95.000 Y77.000 E177.61653
G1 X95.000 Y79.499 E177.66549
G1 X88.000 Y79.499 E177.80265
G1 X88.000 Y84.501 E177.90066
G1 X85.498 Y84.500 E177.94969
G1 X85.498 Y79.499 E178.04768
G1 X65.000 Y79.499 E178.44932
G1 X65.000 Y77.000 E178.49829
G0 F10500 X65.350 Y77.260
G0 X66.132 Y78.824
;TYPE:FILL
G1 F1680 X67.282 Y77.674 E178.53016
G0 F10500 X67.068 Y77.674
G1 F1680 X68.216 Y78.823 E178.56198
G0 F10500 X73.203 Y78.824
G1 F1680 X74.353 Y77.674 E178.59385
G0 F10500 X74.139 Y77.674
G1 F1680 X75.287 Y78.823 E178.62568
G0 F10500 X80.275 Y78.824
G1 F1680 X81.424 Y77.674 E178.65753
G0 F10500 X81.210 Y77.674
G1 F1680 X82.358 Y78.823 E178.68936
G0 F10500 X85.889 Y79.108
G0 X86.172 Y79.997
G1 F1680 X87.324 Y78.845 E178.72128
G0 F10500 X87.346 Y78.824
G1 F1680 X88.495 Y77.674 E178.75313
G0 F10500 X88.281 Y77.674
G1 F1680 X89.430 Y78.824 E178.78498
G0 F10500 X87.609 Y79.108
G0 X86.172 Y82.636
G1 F1680 X87.324 Y83.789 E178.81692
G1 F600 E177.06692
G1 Z2.525
G0 F10500 X87.500 Y89.099
;TYPE:WALL-INNER
G1 Z2.425
G1 F600 E178.81692
G1 F1500 X87.500 Y95.500 E178.94234
G1 X85.998 Y95.500 E178.97178
G1 X85.998 Y89.098 E179.09722
G1 X87.500 Y89.099 E179.12665
G0 F10500 X88.000 Y88.599
;TYPE:WALL-OUTER
G1 F1260 X88.000 Y96.000 E179.27167
G1 X85.498 Y96.000 E179.32069
G1 X85.498 Y88.598 E179.46573
G1 X88.000 Y88.599 E179.51475
G0 F10500 X87.740 Y88.948
G0 X86.172 Y89.708
;TYPE:FILL
G1 F1680 X87.325 Y90.861 E179.54670
G0 F10500 X87.324 Y92.987
G1 F1680 X86.172 Y94.139 E179.57863
;LAYER:9
G1 F600 E177.82863
G1 Z2.525
G0 F10500 X94.500 Y70.000 Z2.675
;TYPE:WALL-INNER
G1 Z2.675
G1 F600 E179.57863
G1 F1500 X65.500 Y70.000 E180.14686
G1 X65.500 Y62.001 E180.30360
G1 X64.000 Y62.001 E180.33299
G1 X64.000 Y60.500 E180.36240
G1 X96.000 Y60.500 E180.98942
G1 X96.000 Y62.001 E181.01883
G1 X94.500 Y62.001 E181.04822
G1 X94.500 Y70.000 E181.20496
G0 F10500 X95.000 Y70.500
;TYPE:WALL-OUTER
G1 F1260 X65.000 Y70.500 E181.79279
G1 X65.000 Y62.501 E181.94952
G1 X63.500 Y62.501 E181.97891
G1 X63.500 Y60.000 E182.02792
G1 X96.500 Y60.000 E182.67453
G1 X96.500 Y62.501 E182.72354
G1 X95.000 Y62.501 E182.75293
G1 X95.000 Y70.500 E182.90966
G0 F10500 X94.324 Y69.575
;TYPE:FILL
G1 F1680 X85.424 Y60.675 E183.15629
G0 F10500 X84.281 Y60.675
G1 F1680 X75.132 Y69.824 E183.40981
G0 F10500 X73.359 Y69.823
G1 F1680 X65.673 Y62.138 E183.62278
G0 F10500 X65.361 Y61.825
G1 F1680 X64.210 Y60.675 E183.65466
G0 F10500 X65.391 Y62.110
G0 X65.674 Y65.140
G1 F1680 X70.139 Y60.675 E183.77839
G0 F10500 X71.282 Y60.675
G1 F1680 X80.430 Y69.823 E184.03188
G0 F10500 X82.203 Y69.824
G1 F1680 X91.352 Y60.675 E184.28541
G0 F10500 X92.495 Y60.675
G1 F1680 X94.324 Y62.504 E184.33609
G0 F10500 X94.324 Y64.774
G1 F1680 X89.274 Y69.824 E184.47603
G0 F10500 X87.501 Y69.823
G1 F1680 X78.353 Y60.675 E184.72953
G0 F10500 X77.210 Y60.675
G1 F1680 X68.061 Y69.824 E184.98305
G0 F10500 X66.288 Y69.823
G1 F1680 X65.673 Y69.209 E185.00008
G1 F600 E183.25008
G1 Z2.775
G0 F10500 X65.500 Y77.500
;TYPE:WALL-INNER
G1 Z2.675
G1 F600 E185.00008
G1 F1500 X94.500 Y77.500 E185.56831
G1 X94.500 Y78.999 E185.59769
G1 X87.500 Y78.999 E185.73485
G1 X87.500 Y83.934 E185.83154
G1 X85.998 Y83.933 E185.86097
G1 X85.998 Y78.999 E185.95765
G1 X65.500 Y78.999 E186.35930
G1 X65.500 Y77.500 E186.38867
G0 F10500 X65.000 Y77.000
;TYPE:WALL-OUTER
G1 F1260 X95.000 Y77.000 E186.97650
G1 X95.000 Y79.499 E187.02547
G1 X88.000 Y79.499 E187.16263
G1 X88.000 Y84.433 E187.25930
G1 X85.498 Y84.433 E187.30833
G1 X85.498 Y79.499 E187.40501
G1 X65.000 Y79.499 E187.80665
G1 X65.000 Y77.000 E187.85562
G0 F10500 X65.350 Y77.260
G0 X66.132 Y78.824
;TYPE:FILL
G1 F1680 X67.282 Y77.674 E187.88749
G0 F10500 X67.068 Y77.674
G1 F1680 X68.216 Y78.823 E187.91931
G0 F10500 X73.203 Y78.824
G1 F1680 X74.353 Y77.674 E187.95118
G0 F10500 X74.139 Y77.674
G1 F1680 X75.287 Y78.823 E187.98300
G0 F10500 X80.275 Y78.824
G1 F1680 X81.424 Y77.674 E188.01486
G0 F10500 X81.210 Y77.674
G1 F1680 X82.358 Y78.823 E188.04668
G0 F10500 X85.889 Y79.108
G0 X86.172 Y79.997
G1 F1680 X87.324 Y78.845 E188.07861
G0 F10500 X87.346 Y78.824
G1 F1680 X88.495 Y77.674 E188.11046
G0 F10500 X88.281 Y77.674
G1 F1680 X89.430 Y78.824 E188.14231
G0 F10500 X87.609 Y79.108
G0 X86.172 Y82.636
G1 F1680 X87.293 Y83.758 E188.17339
G1 F600 E186.42339
G1 Z2.775
G0 F10500 X87.500 Y89.166
;TYPE:WALL-INNER
G1 Z2.675
G1 F600 E188.17339
G1 F1500 X87.500 Y95.500 E188.29750
G1 X85.998 Y95.500 E188.32693
G1 X85.998 Y89.165 E188.45106
G1 X87.500 Y89.166 E188.48049
G0 F10500 X88.000 Y88.666
;TYPE:WALL-OUTER
G1 F1260 X88.000 Y96.000 E188.62420
G1 X85.498 Y96.000 E188.67322
G1 X85.498 Y88.666 E188.81693
G1 X88.000 Y88.666 E188.86595
G0 F10500 X87.650 Y88.926
G0 X86.172 Y89.708
;TYPE:FILL
G1 F1680 X87.325 Y90.861 E188.89790
G0 F10500 X87.324 Y92.987
G1 F1680 X86.172 Y94.139 E188.92982
;LAYER:10
G1 F600 E187.17982
G1 Z2.775
G0 F10500 X94.500 Y70.000 Z2.925
;TYPE:WALL-INNER
G1 Z2.925
G1 F600 E188.92982
G1 F1440 X65.500 Y70.000 E189.49806
G1 X65.500 Y62.001 E189.65479
G1 X64.000 Y62.001 E189.68419
G1 X64.000 Y60.500 E189.71360
G1 X96.000 Y60.500 E190.34062
G1 X96.000 Y62.001 E190.37003
G1 X94.500 Y62.001 E190.39942
G1 X94.500 Y70.000 E190.55615
G0 F10500 X95.000 Y70.500
;TYPE:WALL-OUTER
G1 F1260 X65.000 Y70.500 E191.14398
G1 X65.000 Y62.501 E191.30072
G1 X63.500 Y62.501 E191.33011
G1 X63.500 Y60.000 E191.37912
G1 X96.500 Y60.000 E192.02573
G1 X96.500 Y62.501 E192.07473
G1 X95.000 Y62.501 E192.10413
G1 X95.000 Y70.500 E192.26086
G0 F10500 X94.324 Y69.575
;TYPE:FILL
G1 F1680 X85.424 Y60.675 E192.50748
G0 F10500 X84.281 Y60.675
G1 F1680 X75.132 Y69.824 E192.76101
G0 F10500 X73.359 Y69.823
G1 F1680 X65.673 Y62.138 E192.97398
G0 F10500 X65.361 Y61.825
G1 F1680 X64.210 Y60.675 E193.00586
G0 F10500 X65.391 Y62.110
G0 X65.674 Y65.140
G1 F1680 X70.139 Y60.675 E193.12959
G0 F10500 X71.282 Y60.675
G1 F1680 X80.430 Y69.823 E193.38308
G0 F10500 X82.203 Y69.824
G1 F1680 X91.352 Y60.675 E193.63661
G0 F10500 X92.495 Y60.675
G1 F1680 X94.324 Y62.504 E193.68729
G0 F10500 X94.324 Y64.774
G1 F1680 X89.274 Y69.824 E193.82723
G0 F10500 X87.501 Y69.823
G1 F1680 X78.353 Y60.675 E194.08072
G0 F10500 X77.210 Y60.675
G1 F1680 X68.061 Y69.824 E194.33425
G0 F10500 X66.288 Y69.823
G1 F1680 X65.673 Y69.209 E194.35128
G1 F600 E192.60128
G1 Z3.025
G0 F10500 X65.500 Y77.500
;TYPE:WALL-INNER
G1 Z2.925
G1 F600 E194.35128
G1 F1440 X94.500 Y77.500 E194.91951
G1 X94.500 Y78.999 E194.94888
G1 X87.500 Y78.999 E195.08604
G1 X87.500 Y83.866 E195.18141
G1 X86.566 Y83.867 E195.19971
G1 X85.998 Y83.867 E195.21084
G1 X85.998 Y78.999 E195.30623
G1 X65.500 Y78.999 E195.70787
G1 X65.500 Y77.500 E195.73724
G0 F10500 X65.000 Y77.000
;TYPE:WALL-OUTER
G1 F1260 X95.000 Y77.000 E196.32507
G1 X95.000 Y79.499 E196.37404
G1 X88.000 Y79.499 E196.51120
G1 X88.000 Y84.366 E196.60656
G1 X85.498 Y84.366 E196.65559
G1 X85.498 Y79.499 E196.75095
G1 X65.000 Y79.499 E197.15260
G1 X65.000 Y77.000 E197.20157
G0 F10500 X65.350 Y77.260
G0 X66.132 Y78.824
;TYPE:FILL
G1 F1680 X67.282 Y77.674 E197.23343
G0 F10500 X67.068 Y77.674
G1 F1680 X68.216 Y78.823 E197.26526
G0 F10500 X73.203 Y78.824
G1 F1680 X74.353 Y77.674 E197.29713
G0 F10500 X74.139 Y77.674
G1 F1680 X75.287 Y78.823 E197.32895
G0 F10500 X80.275 Y78.824
G1 F1680 X81.424 Y77.674 E197.36080
G0 F10500 X81.210 Y77.674
G1 F1680 X82.358 Y78.823 E197.39263
G0 F10500 X85.889 Y79.108
G0 X86.172 Y79.997
G1 F1680 X87.324 Y78.845 E197.42455
G0 F10500 X87.346 Y78.824
G1 F1680 X88.495 Y77.674 E197.45641
G0 F10500 X88.281 Y77.674
G1 F1680 X89.430 Y78.824 E197.48826
G0 F10500 X87.609 Y79.108
G0 X86.172 Y82.636
G1 F1680 X87.226 Y83.691 E197.51748
G1 F600 E195.76748
G1 Z3.025
G0 F10500 X86.932 Y89.231
;TYPE:WALL-INNER
G1 Z2.925
G1 F600 E197.51748
G1 F1440 X87.500 Y89.231 E197.52861
G1 X87.500 Y95.500 E197.65145
G1 X85.998 Y95.500 E197.68088
G1 X85.998 Y89.232 E197.80369
G1 X86.932 Y89.231 E197.82200
G0 F10500 X88.000 Y88.732
;TYPE:WALL-OUTER
G1 F1260 X88.000 Y96.000 E197.96441
G1 X85.498 Y96.000 E198.01343
G1 X85.498 Y88.732 E198.15584
G1 X88.000 Y88.732 E198.20487
G0 F10500 X87.650 Y88.992
G0 X86.172 Y89.708
;TYPE:FILL
G1 F1680 X87.325 Y90.861 E198.23682
G0 F10500 X87.324 Y92.987
G1 F1680 X86.172 Y94.139 E198.26874
;LAYER:11
G1 F600 E196.51874
G1 Z3.025
G0 F10500 X94.500 Y70.000 Z3.175
;TYPE:WALL-INNER
G1 Z3.175
G1 F600 E198.26874
G1 F1440 X65.500 Y70.000 E198.83698
G1 X65.500 Y62.001 E198.99371
G1 X64.000 Y62.001 E199.02310
G1 X64.000 Y60.500 E199.05251
G1 X96.000 Y60.500 E199.67953
G1 X96.000 Y62.001 E199.70894
G1 X94.500 Y62.001 E199.73834
G1 X94.500 Y70.000 E199.89507
G0 F10500 X95.000 Y70.500
;TYPE:WALL-OUTER
G1 F1260 X65.000 Y70.500 E200.48290
G1 X65.000 Y62.501 E200.63964
G1 X63.500 Y62.501 E200.66903
G1 X63.500 Y60.000 E200.71803
G1 X96.500 Y60.000 E201.36465
G1 X96.500 Y62.501 E201.41365
G1 X95.000 Y62.501 E201.44304
G1 X95.000 Y70.500 E201.59978
G0 F10500 X94.324 Y69.575
;TYPE:FILL
G1 F1680 X85.424 Y60.675 E201.84640
G0 F10500 X84.281 Y60.675
G1 F1680 X75.132 Y69.824 E202.09993
G0 F10500 X73.359 Y69.823
G1 F1680 X65.673 Y62.138 E202.31289
G0 F10500 X65.361 Y61.825
G1 F1680 X64.210 Y60.675 E202.34478
G0 F10500 X65.391 Y62.110
G0 X65.674 Y65.140
G1 F1680 X70.139 Y60.675 E202.46850
G0 F10500 X71.282 Y60.675
G1 F1680 X80.430 Y69.823 E202.72200
G0 F10500 X82.203 Y69.824
G1 F1680 X91.352 Y60.675 E202.97552
G0 F10500 X92.495 Y60.675
G1 F1680 X94.324 Y62.504 E203.02621
G0 F10500 X94.324 Y64.774
G1 F1680 X89.274 Y69.824 E203.16614
G0 F10500 X87.501 Y69.823
G1 F1680 X78.353 Y60.675 E203.41964
G0 F10500 X77.210 Y60.675
G1 F1680 X68.061 Y69.824 E203.67316
G0 F10500 X66.288 Y69.823
G1 F1680 X65.673 Y69.209 E203.69019
G1 F600 E201.94019
G1 Z3.275
G0 F10500 X65.500 Y77.500
;TYPE:WALL-INNER
G1 Z3.175
G1 F600 E203.69019
G1 F1440 X94.500 Y77.500 E204.25843
G1 X94.500 Y78.999 E204.28780
G1 X87.500 Y78.999 E204.42496
G1 X87.500 Y83.799 E204.51901
G1 X85.998 Y83.800 E204.54844
G1 X85.998 Y78.999 E204.64252
G1 X65.500 Y78.999 E205.04416
G1 X65.500 Y77.500 E205.07353
G0 F10500 X65.000 Y77.000
;TYPE:WALL-OUTER
G1 F1260 X95.000 Y77.000 E205.66136
G1 X95.000 Y79.499 E205.71033
G1 X88.000 Y79.499 E205.84749
G1 X88.000 Y84.299 E205.94154
G1 X85.498 Y84.299 E205.99057
G1 X85.498 Y79.499 E206.08462
G1 X65.000 Y79.499 E206.48626
G1 X65.000 Y77.000 E206.53523
G0 F10500 X65.350 Y77.260
G0 X66.132 Y78.824
;TYPE:FILL
G1 F1680 X67.282 Y77.674 E206.56710
G0 F10500 X67.068 Y77.674
G1 F1680 X68.216 Y78.823 E206.59892
G0 F10500 X73.203 Y78.824
G1 F1680 X74.353 Y77.674 E206.63079
G0 F10500 X74.139 Y77.674
G1 F1680 X75.287 Y78.823 E206.66262
G0 F10500 X80.275 Y78.824
G1 F1680 X81.424 Y77.674 E206.69447
G0 F10500 X81.210 Y77.674
G1 F1680 X82.358 Y78.823 E206.72630
G0 F10500 X85.889 Y79.108
G0 X86.172 Y79.997
G1 F1680 X87.324 Y78.845 E206.75822
G0 F10500 X87.346 Y78.824
G1 F1680 X88.495 Y77.674 E206.79007
G0 F10500 X88.281 Y77.674
G1 F1680 X89.430 Y78.824 E206.82192
G0 F10500 X87.609 Y79.108
G0 X86.172 Y82.636
G1 F1680 X87.159 Y83.623 E206.84927
G1 F600 E205.09927
G1 Z3.275
G0 F10500 X87.500 Y89.298
;TYPE:WALL-INNER
G1 Z3.175
G1 F600 E206.84927
G1 F1440 X87.500 Y95.500 E206.97080
G1 X85.998 Y95.500 E207.00023
G1 X85.998 Y89.299 E207.12173
G1 X87.500 Y89.298 E207.15116
G0 F10500 X88.000 Y88.799
;TYPE:WALL-OUTER
G1 F1260 X88.000 Y96.000 E207.29226
G1 X85.498 Y96.000 E207.34129
G1 X85.498 Y88.799 E207.48239
G1 X88.000 Y88.799 E207.53141
G0 F10500 X87.650 Y89.058
G0 X86.172 Y89.708
;TYPE:FILL
G1 F1680 X87.325 Y90.861 E207.56336
G0 F10500 X87.325 Y92.986
G1 F1680 X86.172 Y94.139 E207.59531
;LAYER:12
G1 F600 E205.84531
G1 Z3.275
G0 F10500 X94.500 Y70.000 Z3.425
;TYPE:WALL-INNER
G1 Z3.425
G1 F600 E207.59531
G1 F1440 X65.500 Y70.000 E208.16355
G1 X65.500 Y62.001 E208.32028
G1 X64.000 Y62.001 E208.34967
G1 X64.000 Y60.500 E208.37909
G1 X96.000 Y60.500 E209.00610
G1 X96.000 Y62.001 E209.03552
G1 X94.500 Y62.001 E209.06491
G1 X94.500 Y70.000 E209.22164
G0 F10500 X95.000 Y70.500
;TYPE:WALL-OUTER
G1 F1260 X65.000 Y70.500 E209.80947
G1 X65.000 Y62.501 E209.96621
G1 X63.500 Y62.501 E209.99560
G1 X63.500 Y60.000 E210.04460
G1 X96.500 Y60.000 E210.69122
G1 X96.500 Y62.501 E210.74022
G1 X95.000 Y62.501 E210.76961
G1 X95.000 Y70.500 E210.92635
G0 F10500 X94.324 Y69.575
;TYPE:FILL
G1 F1680 X85.424 Y60.675 E211.17297
G0 F10500 X84.281 Y60.675
G1 F1680 X75.132 Y69.824 E211.42650
G0 F10500 X73.359 Y69.823
G1 F1680 X65.673 Y62.138 E211.63947
G0 F10500 X65.361 Y61.825
G1 F1680 X64.210 Y60.675 E211.67135
G0 F10500 X65.391 Y62.110
G0 X65.674 Y65.140
G1 F1680 X70.139 Y60.675 E211.79508
G0 F10500 X71.282 Y60.675
G1 F1680 X80.430 Y69.823 E212.04857
G0 F10500 X82.203 Y69.824
G1 F1680 X91.352 Y60.675 E212.30210
G0 F10500 X92.495 Y60.675
G1 F1680 X94.324 Y62.504 E212.35278
G0 F10500 X94.324 Y64.774
G1 F1680 X89.274 Y69.824 E212.49272
G0 F10500 X87.501 Y69.823
G1 F1680 X78.353 Y60.675 E212.74621
G0 F10500 X77.210 Y60.675
G1 F1680 X68.061 Y69.824 E212.99974
G0 F10500 X66.288 Y69.823
G1 F1680 X65.673 Y69.209 E213.01676
G1 F600 E211.26676
G1 Z3.525
G0 F10500 X65.500 Y77.500
;TYPE:WALL-INNER
G1 Z3.425
G1 F600 E213.01676
G1 F1440 X94.500 Y77.500 E213.58500
G1 X94.500 Y78.999 E213.61437
G1 X87.500 Y78.999 E213.75153
G1 X87.500 Y83.759 E213.84480
G1 X85.998 Y83.760 E213.87423
G1 X85.998 Y78.999 E213.96752
G1 X65.500 Y78.999 E214.36917
G1 X65.500 Y77.500 E214.39854
G0 F10500 X65.000 Y77.000
;TYPE:WALL-OUTER
G1 F1260 X95.000 Y77.000 E214.98637
G1 X95.000 Y79.499 E215.03533
G1 X88.000 Y79.499 E215.17249
G1 X88.000 Y84.259 E215.26576
G1 X85.498 Y84.260 E215.31479
G1 X85.498 Y79.499 E215.40808
G1 X65.000 Y79.499 E215.80972
G1 X65.000 Y77.000 E215.85869
G0 F10500 X65.350 Y77.260
G0 X66.132 Y78.824
;TYPE:FILL
G1 F1680 X67.282 Y77.674 E215.89055
G0 F10500 X67.068 Y77.674
G1 F1680 X68.216 Y78.823 E215.92238
G0 F10500 X73.203 Y78.824
G1 F1680 X74.353 Y77.674 E215.95425
G0 F10500 X74.139 Y77.674
G1 F1680 X75.287 Y78.823 E215.98607
G0 F10500 X80.275 Y78.824
G1 F1680 X81.424 Y77.674 E216.01793
G0 F10500 X81.210 Y77.674
G1 F1680 X82.358 Y78.823 E216.04975
G0 F10500 X85.889 Y79.108
G0 X86.172 Y79.997
G1 F1680 X87.324 Y78.845 E216.08167
G0 F10500 X87.346 Y78.824
G1 F1680 X88.495 Y77.674 E216.11353
G0 F10500 X88.281 Y77.674
G1 F1680 X89.430 Y78.824 E216.14538
G0 F10500 X87.609 Y79.108
G0 X86.172 Y82.636
G1 F1680 X87.119 Y83.583 E216.17162
G1 F600 E214.42162
G1 Z3.525
G0 F10500 X87.500 Y89.338
;TYPE:WALL-INNER
G1 Z3.425
G1 F600 E216.17162
G1 F1440 X87.500 Y95.500 E216.29236
G1 X85.998 Y95.500 E216.32179
G1 X85.998 Y89.339 E216.44251
G1 X87.500 Y89.338 E216.47194
G0 F10500 X88.000 Y88.838
;TYPE:WALL-OUTER
G1 F1260 X88.000 Y96.000 E216.61228
G1 X85.498 Y96.000 E216.66130
G1 X85.498 Y88.839 E216.80162
G1 X88.000 Y88.838 E216.85064
G0 F10500 X87.650 Y89.098
G0 X86.172 Y89.708
;TYPE:FILL
G1 F1680 X87.325 Y90.861 E216.88259
G0 F10500 X87.324 Y92.987
G1 F1680 X86.172 Y94.139 E216.91452
;LAYER:13
G1 F600 E215.16452
G1 Z3.525
G0 F10500 X94.500 Y70.000 Z3.675
;TYPE:WALL-INNER
G1 Z3.675
G1 F600 E216.91452
G1 F1440 X65.500 Y70.000 E217.48275
G1 X65.500 Y62.001 E217.63949
G1 X64.000 Y62.001 E217.66888
G1 X64.000 Y60.500 E217.69829
G1 X96.000 Y60.500 E218.32531
G1 X96.000 Y62.001 E218.35472
G1 X94.500 Y62.001 E218.38411
G1 X94.500 Y70.000 E218.54085
G0 F10500 X95.000 Y70.500
;TYPE:WALL-OUTER
G1 F1260 X65.000 Y70.500 E219.12868
G1 X65.000 Y62.501 E219.28541
G1 X63.500 Y62.501 E219.31480
G1 X63.500 Y60.000 E219.36381
G1 X96.500 Y60.000 E220.01042
G1 X96.500 Y62.501 E220.05943
G1 X95.000 Y62.501 E220.08882
G1 X95.000 Y70.500 E220.24555
G0 F10500 X94.324 Y69.575
;TYPE:FILL
G1 F1680 X85.424 Y60.675 E220.49218
G0 F10500 X84.281 Y60.675
G1 F1680 X75.132 Y69.824 E220.74570
G0 F10500 X73.359 Y69.823
G1 F1680 X65.673 Y62.138 E220.95867
G0 F10500 X65.361 Y61.825
G1 F1680 X64.210 Y60.675 E220.99055
G0 F10500 X65.391 Y62.110
G0 X65.674 Y65.140
G1 F1680 X70.139 Y60.675 E221.11428
G0 F10500 X71.282 Y60.675
G1 F1680 X80.430 Y69.823 E221.36778
G0 F10500 X82.203 Y69.824
G1 F1680 X91.352 Y60.675 E221.62130
G0 F10500 X92.495 Y60.675
G1 F1680 X94.324 Y62.504 E221.67198
G0 F10500 X94.324 Y64.774
G1 F1680 X89.274 Y69.824 E221.81192
G0 F10500 X87.501 Y69.823
G1 F1680 X78.353 Y60.675 E222.06542
G0 F10500 X77.210 Y60.675
G1 F1680 X68.061 Y69.824 E222.31894
G0 F10500 X66.288 Y69.823
G1 F1680 X65.673 Y69.209 E222.33597
G1 F600 E220.58597
G1 Z3.775
G0 F10500 X65.500 Y77.500
;TYPE:WALL-INNER
G1 Z3.675
G1 F600 E222.33597
G1 F1440 X94.500 Y77.500 E222.90420
G1 X94.500 Y78.999 E222.93358
G1 X87.500 Y78.999 E223.07074
G1 X87.500 Y83.826 E223.16532
G1 X85.998 Y83.827 E223.19475
G1 X85.998 Y78.999 E223.28935
G1 X65.500 Y78.999 E223.69100
G1 X65.500 Y77.500 E223.72037
G0 F10500 X65.000 Y77.000
;TYPE:WALL-OUTER
G1 F1260 X95.000 Y77.000 E224.30820
G1 X95.000 Y79.499 E224.35716
G1 X88.000 Y79.499 E224.49432
G1 X88.000 Y84.326 E224.58891
G1 X85.498 Y84.327 E224.63793
G1 X85.498 Y79.499 E224.73253
G1 X65.000 Y79.499 E225.13418
G1 X65.000 Y77.000 E225.18314
G0 F10500 X65.350 Y77.260
G0 X66.132 Y78.824
;TYPE:FILL
G1 F1680 X67.282 Y77.674 E225.21501
G0 F10500 X67.068 Y77.674
G1 F1680 X68.216 Y78.823 E225.24684
G0 F10500 X73.203 Y78.824
G1 F1680 X74.353 Y77.674 E225.27870
G0 F10500 X74.139 Y77.674
G1 F1680 X75.287 Y78.823 E225.31053
G0 F10500 X80.275 Y78.824
G1 F1680 X81.424 Y77.674 E225.34238
G0 F10500 X81.210 Y77.674
G1 F1680 X82.358 Y78.823 E225.37421
G0 F10500 X85.889 Y79.108
G0 X86.172 Y79.997
G1 F1680 X87.324 Y78.845 E225.40613
G0 F10500 X87.346 Y78.824
G1 F1680 X88.495 Y77.674 E225.43798
G0 F10500 X88.281 Y77.674
G1 F1680 X89.430 Y78.824 E225.46984
G0 F10500 X87.609 Y79.108
G0 X86.172 Y82.636
G1 F1680 X87.186 Y83.651 E225.49795
G1 F600 E223.74795
G1 Z3.775
G0 F10500 X87.500 Y89.271
;TYPE:WALL-INNER
G1 Z3.675
G1 F600 E225.49795
G1 F1440 X87.500 Y95.500 E225.62000
G1 X85.998 Y95.500 E225.64943
G1 X85.998 Y89.272 E225.77147
G1 X87.500 Y89.271 E225.80090
G0 F10500 X88.000 Y88.771
;TYPE:WALL-OUTER
G1 F1260 X88.000 Y96.000 E225.94254
G1 X85.498 Y96.000 E225.99157
G1 X85.498 Y88.772 E226.13320
G1 X88.000 Y88.771 E226.18222
G0 F10500 X87.650 Y89.031
G0 X86.172 Y89.708
;TYPE:FILL
G1 F1680 X87.325 Y90.861 E226.21417
G0 F10500 X87.324 Y92.987
G1 F1680 X86.172 Y94.139 E226.24610
;LAYER:14
G1 F600 E224.49610
G1 Z3.775
G0 F10500 X94.500 Y70.000 Z3.925
;TYPE:WALL-INNER
G1 Z3.925
G1 F600 E226.24610
G1 F1500 X65.500 Y70.000 E226.81433
G1 X65.500 Y62.001 E226.97107
G1 X64.000 Y62.001 E227.00046
G1 X64.000 Y60.500 E227.02987
G1 X96.000 Y60.500 E227.65689
G1 X96.000 Y62.001 E227.68630
G1 X94.500 Y62.001 E227.71569
G1 X94.500 Y70.000 E227.87242
G0 F10500 X95.000 Y70.500
;TYPE:WALL-OUTER
G1 F1260 X65.000 Y70.500 E228.46025
G1 X65.000 Y62.501 E228.61699
G1 X63.500 Y62.501 E228.64638
G1 X63.500 Y60.000 E228.69539
G1 X96.500 Y60.000 E229.34200
G1 X96.500 Y62.501 E229.39100
G1 X95.000 Y62.501 E229.42040
G1 X95.000 Y70.500 E229.57713
G0 F10500 X94.324 Y69.575
;TYPE:FILL
G1 F1680 X85.424 Y60.675 E229.82376
G0 F10500 X84.281 Y60.675
G1 F1680 X75.132 Y69.824 E230.07728
G0 F10500 X73.359 Y69.823
G1 F1680 X65.673 Y62.138 E230.29025
G0 F10500 X65.361 Y61.825
G1 F1680 X64.210 Y60.675 E230.32213
G0 F10500 X65.391 Y62.110
G0 X65.674 Y65.140
G1 F1680 X70.139 Y60.675 E230.44586
G0 F10500 X71.282 Y60.675
G1 F1680 X80.430 Y69.823 E230.69935
G0 F10500 X82.203 Y69.824
G1 F1680 X91.352 Y60.675 E230.95288
G0 F10500 X92.495 Y60.675
G1 F1680 X94.324 Y62.504 E231.00356
G0 F10500 X94.324 Y64.774
G1 F1680 X89.274 Y69.824 E231.14350
G0 F10500 X87.501 Y69.823
G1 F1680 X78.353 Y60.675 E231.39699
G0 F10500 X77.210 Y60.675
G1 F1680 X68.061 Y69.824 E231.65052
G0 F10500 X66.288 Y69.823
G1 F1680 X65.673 Y69.209 E231.66755
G1 F600 E229.91755
G1 Z4.025
G0 F10500 X65.500 Y77.500
;TYPE:WALL-INNER
G1 Z3.925
G1 F600 E231.66755
G1 F1500 X94.500 Y77.500 E232.23578
G1 X94.500 Y78.999 E232.26515
G1 X87.500 Y78.999 E232.40231
G1 X87.500 Y83.893 E232.49821
G1 X85.998 Y83.894 E232.52764
G1 X85.998 Y78.999 E232.62355
G1 X65.500 Y78.999 E233.02520
G1 X65.500 Y77.500 E233.05457
G0 F10500 X65.000 Y77.000
;TYPE:WALL-OUTER
G1 F1260 X95.000 Y77.000 E233.64240
G1 X95.000 Y79.499 E233.69137
G1 X88.000 Y79.499 E233.82853
G1 X88.000 Y84.393 E233.92442
G1 X85.498 Y84.394 E233.97345
G1 X85.498 Y79.499 E234.06936
G1 X65.000 Y79.499 E234.47101
G1 X65.000 Y77.000 E234.51997
G0 F10500 X65.350 Y77.260
G0 X66.132 Y78.824
;TYPE:FILL
G1 F1680 X67.282 Y77.674 E234.55184
G0 F10500 X67.068 Y77.674
G1 F1680 X68.216 Y78.823 E234.58366
G0 F10500 X73.203 Y78.824
G1 F1680 X74.353 Y77.674 E234.61553
G0 F10500 X74.139 Y77.674
G1 F1680 X75.287 Y78.823 E234.64736
G0 F10500 X80.275 Y78.824
G1 F1680 X81.424 Y77.674 E234.67921
G0 F10500 X81.210 Y77.674
G1 F1680 X82.358 Y78.823 E234.71104
G0 F10500 X85.889 Y79.108
G0 X86.172 Y79.997
G1 F1680 X87.324 Y78.845 E234.74296
G0 F10500 X87.346 Y78.824
G1 F1680 X88.495 Y77.674 E234.77481
G0 F10500 X88.281 Y77.674
G1 F1680 X89.430 Y78.824 E234.80667
G0 F10500 X87.609 Y79.108
G0 X86.172 Y82.636
G1 F1680 X87.253 Y83.717 E234.83662
G1 F600 E233.08662
G1 Z4.025
G0 F10500 X87.500 Y89.205
;TYPE:WALL-INNER
G1 Z3.925
G1 F600 E234.83662
G1 F1500 X87.500 Y95.500 E234.95997
G1 X85.998 Y95.500 E234.98940
G1 X85.998 Y89.206 E235.11272
G1 X87.500 Y89.205 E235.14215
G0 F10500 X88.000 Y88.705
;TYPE:WALL-OUTER
G1 F1260 X88.000 Y96.000 E235.28510
G1 X85.498 Y96.000 E235.33412
G1 X85.498 Y88.706 E235.47704
G1 X88.000 Y88.705 E235.52607
G0 F10500 X87.650 Y88.965
G0 X86.172 Y89.708
;TYPE:FILL
G1 F1680 X87.325 Y90.861 E235.55802
G0 F10500 X87.324 Y92.987
G1 F1680 X86.172 Y94.139 E235.58994
;LAYER:15
G1 F600 E233.83994
G1 Z4.025
G0 F10500 X94.500 Y70.000 Z4.175
;TYPE:WALL-INNER
G1 Z4.175
G1 F600 E235.58994
G1 F1500 X65.500 Y70.000 E236.15818
G1 X65.500 Y62.001 E236.31491
G1 X64.000 Y62.001 E236.34430
G1 X64.000 Y60.500 E236.37371
G1 X96.000 Y60.500 E237.00073
G1 X96.000 Y62.001 E237.03014
G1 X94.500 Y62.001 E237.05953
G1 X94.500 Y70.000 E237.21627
G0 F10500 X95.000 Y70.500
;TYPE:WALL-OUTER
G1 F1260 X65.000 Y70.500 E237.80410
G1 X65.000 Y62.501 E237.96083
G1 X63.500 Y62.501 E237.99023
G1 X63.500 Y60.000 E238.03923
G1 X96.500 Y60.000 E238.68584
G1 X96.500 Y62.501 E238.73485
G1 X95.000 Y62.501 E238.76424
G1 X95.000 Y70.500 E238.92098
G0 F10500 X94.324 Y69.575
;TYPE:FILL
G1 F1680 X85.424 Y60.675 E239.16760
G0 F10500 X84.281 Y60.675
G1 F1680 X75.132 Y69.824 E239.42112
G0 F10500 X73.359 Y69.823
G1 F1680 X65.673 Y62.138 E239.63409
G0 F10500 X65.361 Y61.825
G1 F1680 X64.210 Y60.675 E239.66597
G0 F10500 X65.391 Y62.110
G0 X65.674 Y65.140
G1 F1680 X70.139 Y60.675 E239.78970
G0 F10500 X71.282 Y60.675
G1 F1680 X80.430 Y69.823 E240.04320
G0 F10500 X82.203 Y69.824
G1 F1680 X91.352 Y60.675 E240.29672
G0 F10500 X92.495 Y60.675
G1 F1680 X94.324 Y62.504 E240.34740
G0 F10500 X94.324 Y64.774
G1 F1680 X89.274 Y69.824 E240.48734
G0 F10500 X87.501 Y69.823
G1 F1680 X78.353 Y60.675 E240.74084
G0 F10500 X77.210 Y60.675
G1 F1680 X68.061 Y69.824 E240.99436
G0 F10500 X66.288 Y69.823
G1 F1680 X65.673 Y69.209 E241.01139
G1 F600 E239.26139
G1 Z4.275
G0 F10500 X65.500 Y77.500
;TYPE:WALL-INNER
G1 Z4.175
G1 F600 E241.01139
G1 F1500 X94.500 Y77.500 E241.57963
G1 X94.500 Y78.999 E241.60900
G1 X87.500 Y78.999 E241.74616
G1 X87.500 Y83.960 E241.84337
G1 X85.998 Y83.960 E241.87280
G1 X85.998 Y78.999 E241.97000
G1 X65.500 Y78.999 E242.37165
G1 X65.500 Y77.500 E242.40102
G0 F10500 X65.000 Y77.000
;TYPE:WALL-OUTER
G1 F1260 X95.000 Y77.000 E242.98885
G1 X95.000 Y79.499 E243.03782
G1 X88.000 Y79.499 E243.17498
G1 X88.000 Y84.460 E243.27219
G1 X85.498 Y84.461 E243.32121
G1 X85.498 Y79.499 E243.41844
G1 X65.000 Y79.499 E243.82008
G1 X65.000 Y77.000 E243.86905
G0 F10500 X65.350 Y77.260
G0 X66.132 Y78.824
;TYPE:FILL
G1 F1680 X67.282 Y77.674 E243.90092
G0 F10500 X67.068 Y77.674
G1 F1680 X68.216 Y78.823 E243.93274
G0 F10500 X73.203 Y78.824
G1 F1680 X74.353 Y77.674 E243.96461
G0 F10500 X74.139 Y77.674
G1 F1680 X75.287 Y78.823 E243.99643
G0 F10500 X80.275 Y78.824
G1 F1680 X81.424 Y77.674 E244.02829
G0 F10500 X81.210 Y77.674
G1 F1680 X82.358 Y78.823 E244.06011
G0 F10500 X85.889 Y79.108
G0 X86.172 Y79.997
G1 F1680 X87.324 Y78.845 E244.09204
G0 F10500 X87.346 Y78.824
G1 F1680 X88.495 Y77.674 E244.12389
G0 F10500 X88.281 Y77.674
G1 F1680 X89.430 Y78.824 E244.15574
G0 F10500 X87.609 Y79.108
G0 X86.172 Y82.636
G1 F1680 X87.320 Y83.785 E244.18757
G1 F600 E242.43757
G1 Z4.275
G0 F10500 X87.500 Y89.139
;TYPE:WALL-INNER
G1 Z4.175
G1 F600 E244.18757
G1 F1500 X87.500 Y95.500 E244.31221
G1 X85.998 Y95.500 E244.34164
G1 X85.998 Y89.139 E244.46628
G1 X87.500 Y89.139 E244.49571
G0 F10500 X88.000 Y88.638
;TYPE:WALL-OUTER
G1 F1260 X88.000 Y96.000 E244.63996
G1 X85.498 Y96.000 E244.68899
G1 X85.498 Y88.639 E244.83322
G1 X88.000 Y88.638 E244.88225
G0 F10500 X87.650 Y88.898
G0 X86.172 Y89.708
;TYPE:FILL
G1 F1680 X87.325 Y90.861 E244.91420
G0 F10500 X87.324 Y92.987
G1 F1680 X86.172 Y94.139 E244.94612
;LAYER:16
G1 F600 E243.19612
G1 Z4.275
G0 F10500 X94.500 Y70.000 Z4.425
;TYPE:WALL-INNER
G1 Z4.425
G1 F600 E244.94612
G1 F1500 X65.500 Y70.000 E245.51435
G1 X65.500 Y62.001 E245.67109
G1 X64.000 Y62.001 E245.70048
G1 X64.000 Y60.500 E245.72989
G1 X96.000 Y60.500 E246.35691
G1 X96.000 Y62.001 E246.38632
G1 X94.500 Y62.001 E246.41571
G1 X94.500 Y70.000 E246.57245
G0 F10500 X95.000 Y70.500
;TYPE:WALL-OUTER
G1 F1260 X65.000 Y70.500 E247.16028
G1 X65.000 Y62.501 E247.31701
G1 X63.500 Y62.501 E247.34640
G1 X63.500 Y60.000 E247.39541
G1 X96.500 Y60.000 E248.04202
G1 X96.500 Y62.501 E248.09103
G1 X95.000 Y62.501 E248.12042
G1 X95.000 Y70.500 E248.27715
G0 F10500 X94.324 Y69.575
;TYPE:FILL
G1 F1680 X85.424 Y60.675 E248.52378
G0 F10500 X84.281 Y60.675
G1 F1680 X75.132 Y69.824 E248.77730
G0 F10500 X73.359 Y69.823
G1 F1680 X65.673 Y62.138 E248.99027
G0 F10500 X65.361 Y61.825
G1 F1680 X64.210 Y60.675 E249.02215
G0 F10500 X65.391 Y62.110
G0 X65.674 Y65.140
G1 F1680 X70.139 Y60.675 E249.14588
G0 F10500 X71.282 Y60.675
G1 F1680 X80.430 Y69.823 E249.39938
G0 F10500 X82.203 Y69.824
G1 F1680 X91.352 Y60.675 E249.65290
G0 F10500 X92.495 Y60.675
G1 F1680 X94.324 Y62.504 E249.70358
G0 F10500 X94.324 Y64.774
G1 F1680 X89.274 Y69.824 E249.84352
G0 F10500 X87.501 Y69.823
G1 F1680 X78.353 Y60.675 E250.09702
G0 F10500 X77.210 Y60.675
G1 F1680 X68.061 Y69.824 E250.35054
G0 F10500 X66.288 Y69.823
G1 F1680 X65.673 Y69.209 E250.36757
G1 F600 E248.61757
G1 Z4.525
G0 F10500 X65.500 Y77.500
;TYPE:WALL-INNER
G1 Z4.425
G1 F600 E250.36757
G1 F1500 X94.500 Y77.500 E250.93581
G1 X94.500 Y78.999 E250.96518
G1 X87.500 Y78.999 E251.10234
G1 X87.500 Y84.044 E251.20119
G1 X85.998 Y84.045 E251.23062
G1 X85.998 Y78.999 E251.32949
G1 X65.500 Y78.999 E251.73114
G1 X65.500 Y77.500 E251.76051
G0 F10500 X65.000 Y77.000
;TYPE:WALL-OUTER
G1 F1260 X95.000 Y77.000 E252.34834
G1 X95.000 Y79.499 E252.39731
G1 X88.000 Y79.499 E252.53447
G1 X88.000 Y84.544 E252.63332
G1 X85.498 Y84.545 E252.68235
G1 X85.498 Y79.499 E252.78122
G1 X65.000 Y79.499 E253.18286
G1 X65.000 Y77.000 E253.23183
G0 F10500 X65.350 Y77.260
G0 X66.132 Y78.824
;TYPE:FILL
G1 F1680 X67.282 Y77.674 E253.26370
G0 F10500 X67.068 Y77.674
G1 F1680 X68.216 Y78.823 E253.29552
G0 F10500 X73.203 Y78.824
G1 F1680 X74.353 Y77.674 E253.32739
G0 F10500 X74.139 Y77.674
G1 F1680 X75.287 Y78.823 E253.35922
G0 F10500 X80.275 Y78.824
G1 F1680 X81.424 Y77.674 E253.39107
G0 F10500 X81.210 Y77.674
G1 F1680 X82.358 Y78.823 E253.42289
G0 F10500 X85.889 Y79.108
G0 X86.172 Y79.997
G1 F1680 X87.324 Y78.845 E253.45482
G0 F10500 X87.346 Y78.824
G1 F1680 X88.495 Y77.674 E253.48667
G0 F10500 X88.281 Y77.674
G1 F1680 X89.430 Y78.824 E253.51852
G0 F10500 X87.609 Y79.108
G0 X86.172 Y82.636
G1 F1680 X87.324 Y83.789 E253.55046
G1 F600 E251.80046
G1 Z4.525
G0 F10500 X87.500 Y89.054
;TYPE:WALL-INNER
G1 Z4.425
G1 F600 E253.55046
G1 F1500 X87.500 Y95.500 E253.67676
G1 X85.998 Y95.500 E253.70620
G1 X85.998 Y89.054 E253.83250
G1 X87.500 Y89.054 E253.86193
G0 F10500 X88.000 Y88.554
;TYPE:WALL-OUTER
G1 F1260 X88.000 Y96.000 E254.00783
G1 X85.498 Y96.000 E254.05686
G1 X85.498 Y88.554 E254.20275
G1 X88.000 Y88.554 E254.25178
G0 F10500 X87.650 Y88.814
G0 X86.172 Y89.708
;TYPE:FILL
G1 F1680 X87.325 Y90.861 E254.28373
G0 F10500 X87.324 Y92.987
G1 F1680 X86.172 Y94.139 E254.31565
;LAYER:17
G1 F600 E252.56565
G1 Z4.525
G0 F10500 X94.500 Y70.000 Z4.675
;TYPE:WALL-INNER
G1 Z4.675
G1 F600 E254.31565
G1 F1500 X65.500 Y70.000 E254.88389
G1 X65.500 Y62.001 E255.04062
G1 X64.000 Y62.001 E255.07001
G1 X64.000 Y60.500 E255.09943
G1 X96.000 Y60.500 E255.72644
G1 X96.000 Y62.001 E255.75586
G1 X94.500 Y62.001 E255.78525
G1 X94.500 Y70.000 E255.94198
G0 F10500 X95.000 Y70.500
;TYPE:WALL-OUTER
G1 F1260 X65.000 Y70.500 E256.52981
G1 X65.000 Y62.501 E256.68655
G1 X63.500 Y62.501 E256.71594
G1 X63.500 Y60.000 E256.76494
G1 X96.500 Y60.000 E257.41156
G1 X96.500 Y62.501 E257.46056
G1 X95.000 Y62.501 E257.48995
G1 X95.000 Y70.500 E257.64669
G0 F10500 X94.324 Y69.575
;TYPE:FILL
G1 F1680 X85.424 Y60.675 E257.89331
G0 F10500 X84.281 Y60.675
G1 F1680 X75.132 Y69.824 E258.14684
G0 F10500 X73.359 Y69.823
G1 F1680 X65.673 Y62.138 E258.35981
G0 F10500 X65.361 Y61.825
G1 F1680 X64.210 Y60.675 E258.39169
G0 F10500 X65.391 Y62.110
G0 X65.674 Y65.140
G1 F1680 X70.139 Y60.675 E258.51542
G0 F10500 X71.282 Y60.675
G1 F1680 X80.430 Y69.823 E258.76891
G0 F10500 X82.203 Y69.824
G1 F1680 X91.352 Y60.675 E259.02244
G0 F10500 X92.495 Y60.675
G1 F1680 X94.324 Y62.504 E259.07312
G0 F10500 X94.324 Y64.774
G1 F1680 X89.274 Y69.824 E259.21306
G0 F10500 X87.501 Y69.823
G1 F1680 X78.353 Y60.675 E259.46655
G0 F10500 X77.210 Y60.675
G1 F1680 X68.061 Y69.824 E259.72008
G0 F10500 X66.288 Y69.823
G1 F1680 X65.673 Y69.209 E259.73710
G1 F600 E257.98710
G1 Z4.775
G0 F10500 X65.500 Y77.500
;TYPE:WALL-INNER
G1 Z4.675
G1 F600 E259.73710
G1 F1500 X94.500 Y77.500 E260.30534
G1 X94.500 Y78.999 E260.33471
G1 X87.500 Y78.999 E260.47187
G1 X87.500 Y84.294 E260.57562
G1 X85.998 Y84.295 E260.60506
G1 X85.998 Y78.999 E260.70883
G1 X65.500 Y78.999 E261.11047
G1 X65.500 Y77.500 E261.13984
G0 F10500 X65.000 Y77.000
;TYPE:WALL-OUTER
G1 F1260 X95.000 Y77.000 E261.72767
G1 X95.000 Y79.499 E261.77664
G1 X88.000 Y79.499 E261.91380
G1 X88.000 Y84.794 E262.01755
G1 X85.498 Y84.795 E262.06658
G1 X85.498 Y79.499 E262.17035
G1 X65.000 Y79.499 E262.57199
G1 X65.000 Y77.000 E262.62096
G0 F10500 X65.350 Y77.260
G0 X66.132 Y78.824
;TYPE:FILL
G1 F1680 X67.282 Y77.674 E262.65283
G0 F10500 X67.068 Y77.674
G1 F1680 X68.216 Y78.823 E262.68465
G0 F10500 X73.203 Y78.824
G1 F1680 X74.353 Y77.674 E262.71652
G0 F10500 X74.139 Y77.674
G1 F1680 X75.287 Y78.823 E262.74834
G0 F10500 X80.275 Y78.824
G1 F1680 X81.424 Y77.674 E262.78020
G0 F10500 X81.210 Y77.674
G1 F1680 X82.358 Y78.823 E262.81202
G0 F10500 X85.889 Y79.108
G0 X86.172 Y79.997
G1 F1680 X87.324 Y78.845 E262.84395
G0 F10500 X87.346 Y78.824
G1 F1680 X88.495 Y77.674 E262.87580
G0 F10500 X88.281 Y77.674
G1 F1680 X89.430 Y78.824 E262.90765
G0 F10500 X87.609 Y79.108
G0 X86.172 Y82.636
G1 F1680 X87.324 Y83.789 E262.93959
G1 F600 E261.18959
G1 Z4.775
G0 F10500 X87.500 Y88.804
;TYPE:WALL-INNER
G1 Z4.675
G1 F600 E262.93959
G1 F1500 X87.500 Y95.500 E263.07079
G1 X85.998 Y95.500 E263.10022
G1 X85.998 Y88.804 E263.23143
G1 X87.500 Y88.804 E263.26086
G0 F10500 X88.000 Y88.304
;TYPE:WALL-OUTER
G1 F1260 X88.000 Y96.000 E263.41166
G1 X85.498 Y96.000 E263.46068
G1 X85.498 Y88.304 E263.61148
G1 X88.000 Y88.304 E263.66050
G0 F10500 X87.650 Y88.564
G0 X86.172 Y89.708
;TYPE:FILL
G1 F1680 X87.325 Y90.861 E263.69245
G0 F10500 X87.324 Y92.987
G1 F1680 X86.172 Y94.139 E263.72438
;LAYER:18
G1 F600 E261.97438
G1 Z4.775
G0 F10500 X94.500 Y70.000 Z4.925
;TYPE:WALL-INNER
G1 Z4.925
G1 F600 E263.72438
G1 F1500 X65.500 Y70.000 E264.29261
G1 X65.500 Y62.001 E264.44935
G1 X64.000 Y62.001 E264.47874
G1 X64.000 Y60.500 E264.50815
G1 X96.000 Y60.500 E265.13517
G1 X96.000 Y62.001 E265.16458
G1 X94.500 Y62.001 E265.19397
G1 X94.500 Y70.000 E265.35071
G0 F10500 X95.000 Y70.500
;TYPE:WALL-OUTER
G1 F1260 X65.000 Y70.500 E265.93854
G1 X65.000 Y62.501 E266.09527
G1 X63.500 Y62.501 E266.12466
G1 X63.500 Y60.000 E266.17367
G1 X96.500 Y60.000 E266.82028
G1 X96.500 Y62.501 E266.86929
G1 X95.000 Y62.501 E266.89868
G1 X95.000 Y70.500 E267.05541
G0 F10500 X94.324 Y69.575
;TYPE:FILL
G1 F1680 X85.424 Y60.675 E267.30204
G0 F10500 X84.281 Y60.675
G1 F1680 X75.132 Y69.824 E267.55556
G0 F10500 X73.359 Y69.823
G1 F1680 X65.673 Y62.138 E267.76853
G0 F10500 X65.361 Y61.825
G1 F1680 X64.210 Y60.675 E267.80041
G0 F10500 X65.391 Y62.110
G0 X65.674 Y65.140
G1 F1680 X70.139 Y60.675 E267.92414
G0 F10500 X71.282 Y60.675
G1 F1680 X80.430 Y69.823 E268.17764
G0 F10500 X82.203 Y69.824
G1 F1680 X91.352 Y60.675 E268.43116
G0 F10500 X92.495 Y60.675
G1 F1680 X94.324 Y62.504 E268.48184
G0 F10500 X94.324 Y64.774
G1 F1680 X89.274 Y69.824 E268.62178
G0 F10500 X87.501 Y69.823
G1 F1680 X78.353 Y60.675 E268.87528
G0 F10500 X77.210 Y60.675
G1 F1680 X68.061 Y69.824 E269.12880
G0 F10500 X66.288 Y69.823
G1 F1680 X65.673 Y69.209 E269.14583
G1 F600 E267.39583
G1 Z5.025
G0 F10500 X65.500 Y77.500
;TYPE:WALL-INNER
G1 Z4.925
G1 F600 E269.14583
G1 F1500 X94.500 Y77.500 E269.71406
G1 X94.500 Y78.999 E269.74344
G1 X87.500 Y78.999 E269.88060
G1 X87.500 Y84.544 E269.98925
G1 X85.998 Y84.545 E270.01868
G1 X85.998 Y78.999 E270.12735
G1 X65.500 Y78.999 E270.52899
G1 X65.500 Y77.500 E270.55836
G0 F10500 X65.000 Y77.000
;TYPE:WALL-OUTER
G1 F1260 X95.000 Y77.000 E271.14619
G1 X95.000 Y79.499 E271.19516
G1 X88.000 Y79.499 E271.33232
G1 X88.000 Y85.044 E271.44097
G1 X85.498 Y85.045 E271.49000
G1 X85.498 Y79.499 E271.59867
G1 X65.000 Y79.499 E272.00031
G1 X65.000 Y77.000 E272.04928
G0 F10500 X65.350 Y77.260
G0 X66.132 Y78.824
;TYPE:FILL
G1 F1680 X67.282 Y77.674 E272.08114
G0 F10500 X67.068 Y77.674
G1 F1680 X68.216 Y78.823 E272.11297
G0 F10500 X73.203 Y78.824
G1 F1680 X74.353 Y77.674 E272.14484
G0 F10500 X74.139 Y77.674
G1 F1680 X75.287 Y78.823 E272.17666
G0 F10500 X80.275 Y78.824
G1 F1680 X81.424 Y77.674 E272.20852
G0 F10500 X81.210 Y77.674
G1 F1680 X82.358 Y78.823 E272.24034
G0 F10500 X85.889 Y79.108
G0 X86.172 Y79.997
G1 F1680 X87.324 Y78.845 E272.27226
G0 F10500 X87.346 Y78.824
G1 F1680 X88.495 Y77.674 E272.30412
G0 F10500 X88.281 Y77.674
G1 F1680 X89.430 Y78.824 E272.33597
G0 F10500 X87.609 Y79.108
G0 X86.172 Y82.636
G1 F1680 X87.324 Y83.789 E272.36791
G1 F600 E270.61791
G1 Z5.025
G0 F10500 X87.500 Y88.554
;TYPE:WALL-INNER
G1 Z4.925
G1 F600 E272.36791
G1 F1500 X87.500 Y95.500 E272.50401
G1 X85.998 Y95.500 E272.53344
G1 X85.998 Y88.554 E272.66954
G1 X87.500 Y88.554 E272.69897
G0 F10500 X88.000 Y88.054
;TYPE:WALL-OUTER
G1 F1260 X88.000 Y96.000 E272.85467
G1 X85.498 Y96.000 E272.90369
G1 X85.498 Y88.054 E273.05939
G1 X88.000 Y88.054 E273.10842
G0 F10500 X87.650 Y88.314
G0 X86.172 Y89.708
;TYPE:FILL
G1 F1680 X87.325 Y90.861 E273.14037
G0 F10500 X87.324 Y92.987
G1 F1680 X86.172 Y94.139 E273.17229
;LAYER:19
M106 S221
G1 F600 E271.42229
G1 Z5.025
G0 F10500 X94.500 Y70.000 Z5.175
;TYPE:WALL-INNER
G1 Z5.175
G1 F600 E273.17229
G1 F1560 X65.500 Y70.000 E273.74052
G1 X65.500 Y62.001 E273.89726
G1 X64.000 Y62.001 E273.92665
G1 X64.000 Y60.500 E273.95606
G1 X96.000 Y60.500 E274.58308
G1 X96.000 Y62.001 E274.61249
G1 X94.500 Y62.001 E274.64188
G1 X94.500 Y70.000 E274.79862
G0 F10500 X95.000 Y70.500
;TYPE:WALL-OUTER
G1 F1320 X65.000 Y70.500 E275.38645
G1 X65.000 Y62.501 E275.54318
G1 X63.500 Y62.501 E275.57257
G1 X63.500 Y60.000 E275.62158
G1 X96.500 Y60.000 E276.26819
G1 X96.500 Y62.501 E276.31720
G1 X95.000 Y62.501 E276.34659
G1 X95.000 Y70.500 E276.50332
G0 F10500 X94.324 Y69.575
;TYPE:FILL
G1 F1800 X85.424 Y60.675 E276.74995
G0 F10500 X84.281 Y60.675
G1 F1800 X75.132 Y69.824 E277.00347
G0 F10500 X73.359 Y69.823
G1 F1800 X65.673 Y62.138 E277.21644
G0 F10500 X65.361 Y61.825
G1 F1800 X64.210 Y60.675 E277.24832
G0 F10500 X65.391 Y62.110
G0 X65.674 Y65.140
G1 F1800 X70.139 Y60.675 E277.37205
G0 F10500 X71.282 Y60.675
G1 F1800 X80.430 Y69.823 E277.62555
G0 F10500 X82.203 Y69.824
G1 F1800 X91.352 Y60.675 E277.87907
G0 F10500 X92.495 Y60.675
G1 F1800 X94.324 Y62.504 E277.92975
G0 F10500 X94.324 Y64.774
G1 F1800 X89.274 Y69.824 E278.06969
G0 F10500 X87.501 Y69.823
G1 F1800 X78.353 Y60.675 E278.32319
G0 F10500 X77.210 Y60.675
G1 F1800 X68.061 Y69.824 E278.57671
G0 F10500 X66.288 Y69.823
G1 F1800 X65.673 Y69.209 E278.59374
G1 F600 E276.84374
G1 Z5.275
G0 F10500 X65.500 Y77.500
;TYPE:WALL-INNER
G1 Z5.175
G1 F600 E278.59374
G1 F1560 X94.500 Y77.500 E279.16198
G1 X94.500 Y78.999 E279.19135
G1 X87.500 Y78.999 E279.32851
G1 X87.500 Y84.854 E279.44323
G1 X85.998 Y84.855 E279.47266
G1 X85.998 Y78.999 E279.58741
G1 X65.500 Y78.999 E279.98905
G1 X65.500 Y77.500 E280.01842
G0 F10500 X65.000 Y77.000
;TYPE:WALL-OUTER
G1 F1320 X95.000 Y77.000 E280.60625
G1 X95.000 Y79.499 E280.65522
G1 X88.000 Y79.499 E280.79238
G1 X88.000 Y85.354 E280.90711
G1 X85.498 Y85.355 E280.95613
G1 X85.498 Y79.499 E281.07088
G1 X65.000 Y79.499 E281.47252
G1 X65.000 Y77.000 E281.52149
G0 F10500 X65.350 Y77.260
G0 X66.132 Y78.824
;TYPE:FILL
G1 F1800 X67.282 Y77.674 E281.55335
G0 F10500 X67.068 Y77.674
G1 F1800 X68.216 Y78.823 E281.58518
G0 F10500 X73.203 Y78.824
G1 F1800 X74.353 Y77.674 E281.61705
G0 F10500 X74.139 Y77.674
G1 F1800 X75.287 Y78.823 E281.64887
G0 F10500 X80.275 Y78.824
G1 F1800 X81.424 Y77.674 E281.68073
G0 F10500 X81.210 Y77.674
G1 F1800 X82.358 Y78.823 E281.71255
G0 F10500 X85.889 Y79.108
G0 X86.595 Y79.574
G1 F1800 X87.324 Y78.845 E281.73275
G0 F10500 X87.346 Y78.824
G1 F1800 X88.495 Y77.674 E281.76460
G0 F10500 X88.281 Y77.674
G1 F1800 X89.430 Y78.824 E281.79646
G0 F10500 X87.324 Y79.199
;TYPE:SKIN
G1 F2220 X86.172 Y80.351 E281.82838
G0 F10500 X86.172 Y81.058
G1 F2220 X87.324 Y79.906 E281.86030
G0 F10500 X86.892 Y78.923
G1 F2220 X86.172 Y79.644 E281.88027
G0 F10500 X87.324 Y80.613
G1 F2220 X86.172 Y81.765 E281.91219
G0 F10500 X86.172 Y82.472
G1 F2220 X87.324 Y81.320 E281.94411
G0 F10500 X87.324 Y82.027
G1 F2220 X86.172 Y83.179 E281.97604
G0 F10500 X86.172 Y83.886
G1 F2220 X87.324 Y82.735 E282.00795
G0 F10500 X87.324 Y83.442
G1 F2220 X86.172 Y84.594 E282.03987
G0 F10500 X86.793 Y84.679
G1 F2220 X87.324 Y84.149 E282.05457
G1 F600 E280.30457
G1 Z5.275
G0 F10500 X87.500 Y88.243
;TYPE:WALL-INNER
G1 Z5.175
G1 F600 E282.05457
G1 F1560 X87.500 Y95.500 E282.19676
G1 X85.998 Y95.500 E282.22620
G1 X85.998 Y88.244 E282.36837
G1 X87.500 Y88.243 E282.39780
G0 F10500 X88.000 Y87.743
;TYPE:WALL-OUTER
G1 F1320 X88.000 Y96.000 E282.55959
G1 X85.498 Y96.000 E282.60862
G1 X85.498 Y87.744 E282.77039
G1 X88.000 Y87.743 E282.81941
G0 F10500 X87.650 Y88.003
G0 X86.889 Y93.422
;TYPE:FILL
G1 F1800 X86.172 Y94.139 E282.83928
G0 F10500 X86.172 Y93.785
;TYPE:SKIN
G1 F2220 X87.324 Y92.633 E282.87120
G0 F10500 X87.324 Y91.926
G1 F2220 X86.172 Y93.078 E282.90313
G0 F10500 X86.172 Y92.371
G1 F2220 X87.324 Y91.219 E282.93505
G0 F10500 X87.324 Y90.512
G1 F2220 X86.172 Y91.664 E282.96697
G0 F10500 X86.172 Y90.957
G1 F2220 X87.324 Y89.805 E282.99889
G0 F10500 X87.324 Y89.098
G1 F2220 X86.172 Y90.250 E283.03082
G0 F10500 X86.172 Y89.543
G1 F2220 X87.298 Y88.417 E283.06202
G0 F10500 X86.590 Y88.418
G1 F2220 X86.172 Y88.835 E283.07359
G0 F10500 X87.324 Y93.340
G1 F2220 X86.592 Y94.073 E283.09389
;LAYER:20
M106 S219
G1 F600 E281.34389
G1 Z5.275
G0 F10500 X94.500 Y70.000 Z5.425
;TYPE:WALL-INNER
G1 Z5.425
G1 F600 E283.09389
G1 F1560 X65.500 Y70.000 E283.66212
G1 X65.500 Y62.001 E283.81886
G1 X64.000 Y62.001 E283.84825
G1 X64.000 Y60.500 E283.87766
G1 X96.000 Y60.500 E284.50468
G1 X96.000 Y62.001 E284.53409
G1 X94.500 Y62.001 E284.56348
G1 X94.500 Y70.000 E284.72022
G0 F10500 X95.000 Y70.500
;TYPE:WALL-OUTER
G1 F1380 X65.000 Y70.500 E285.30805
G1 X65.000 Y62.501 E285.46478
G1 X63.500 Y62.501 E285.49417
G1 X63.500 Y60.000 E285.54318
G1 X96.500 Y60.000 E286.18979
G1 X96.500 Y62.501 E286.23880
G1 X95.000 Y62.501 E286.26819
G1 X95.000 Y70.500 E286.42492
G0 F10500 X94.324 Y69.575
;TYPE:FILL
G1 F1800 X85.424 Y60.675 E286.67155
G0 F10500 X84.281 Y60.675
G1 F1800 X75.132 Y69.824 E286.92507
G0 F10500 X73.359 Y69.823
G1 F1800 X65.673 Y62.138 E287.13804
G0 F10500 X65.361 Y61.825
G1 F1800 X64.210 Y60.675 E287.16992
G0 F10500 X65.391 Y62.110
G0 X65.674 Y65.140
G1 F1800 X70.139 Y60.675 E287.29365
G0 F10500 X71.282 Y60.675
G1 F1800 X80.430 Y69.823 E287.54715
G0 F10500 X82.203 Y69.824
G1 F1800 X91.352 Y60.675 E287.80067
G0 F10500 X92.495 Y60.675
G1 F1800 X94.324 Y62.504 E287.85135
G0 F10500 X94.324 Y64.774
G1 F1800 X89.274 Y69.824 E287.99129
G0 F10500 X87.501 Y69.823
G1 F1800 X78.353 Y60.675 E288.24479
G0 F10500 X77.210 Y60.675
G1 F1800 X68.061 Y69.824 E288.49831
G0 F10500 X66.288 Y69.823
G1 F1800 X65.673 Y69.209 E288.51534
G1 F600 E286.76534
G1 Z5.525
G0 F10500 X65.500 Y77.500
;TYPE:WALL-INNER
G1 Z5.425
G1 F600 E288.51534
G1 F1560 X94.500 Y77.500 E289.08357
G1 X94.500 Y78.999 E289.11295
G1 X87.500 Y78.999 E289.25011
G1 X87.500 Y85.787 E289.38311
G1 X85.998 Y85.787 E289.41254
G1 X85.998 Y78.999 E289.54555
G1 X65.500 Y78.999 E289.94719
G1 X65.500 Y77.500 E289.97657
G0 F10500 X65.000 Y77.000
;TYPE:WALL-OUTER
G1 F1380 X95.000 Y77.000 E290.56440
G1 X95.000 Y79.499 E290.61336
G1 X88.000 Y79.499 E290.75052
G1 X88.000 Y86.287 E290.88353
G1 X85.498 Y86.287 E290.93255
G1 X85.498 Y79.499 E291.06556
G1 X65.000 Y79.499 E291.46720
G1 X65.000 Y77.000 E291.51617
G0 F10500 X65.350 Y77.260
G0 X66.132 Y78.824
;TYPE:FILL
G1 F1800 X67.282 Y77.674 E291.54804
G0 F10500 X67.068 Y77.674
G1 F1800 X68.216 Y78.823 E291.57986
G0 F10500 X73.203 Y78.824
G1 F1800 X74.353 Y77.674 E291.61173
G0 F10500 X74.139 Y77.674
G1 F1800 X75.287 Y78.823 E291.64356
G0 F10500 X80.275 Y78.824
G1 F1800 X81.424 Y77.674 E291.67541
G0 F10500 X81.210 Y77.674
G1 F1800 X82.358 Y78.823 E291.70724
G0 F10500 X85.889 Y79.108
G0 X86.595 Y79.574
G1 F1800 X87.324 Y78.845 E291.72744
G0 F10500 X87.346 Y78.824
G1 F1800 X88.495 Y77.674 E291.75929
G0 F10500 X88.281 Y77.674
G1 F1800 X89.430 Y78.824 E291.79114
G0 F10500 X87.324 Y79.192
;TYPE:SKIN
G1 F2280 X87.056 Y78.924 E291.79857
G0 F10500 X86.349 Y78.924
G1 F2280 X87.324 Y79.899 E291.82559
G0 F10500 X87.324 Y80.606
G1 F2280 X86.172 Y79.454 E291.85751
G0 F10500 X86.172 Y80.161
G1 F2280 X87.324 Y81.313 E291.88943
G0 F10500 X87.324 Y82.020
G1 F2280 X86.172 Y80.868 E291.92135
G0 F10500 X86.172 Y81.576
G1 F2280 X87.324 Y82.727 E291.95326
G0 F10500 X87.324 Y83.435
G1 F2280 X86.172 Y82.283 E291.98519
G0 F10500 X86.172 Y82.990
G1 F2280 X87.324 Y84.142 E292.01711
G0 F10500 X87.324 Y84.849
G1 F2280 X86.172 Y83.697 E292.04903
G0 F10500 X86.172 Y84.404
G1 F2280 X87.324 Y85.556 E292.08095
G0 F10500 X86.672 Y85.611
G1 F2280 X86.172 Y85.111 E292.09481
G0 F10500 X86.172 Y87.161
G0 X85.998 Y87.311
;TYPE:WALL-INNER
G1 F1560 X87.500 Y87.311 E292.12424
G1 X87.500 Y95.500 E292.28470
G1 X85.998 Y95.500 E292.31413
G1 X85.998 Y87.311 E292.47459
G0 F10500 X85.498 Y86.811
;TYPE:WALL-OUTER
G1 F1380 X88.000 Y86.811 E292.52361
G1 X88.000 Y96.000 E292.70366
G1 X85.498 Y96.000 E292.75269
G1 X85.498 Y86.811 E292.93274
G0 F10500 X85.848 Y87.071
G0 X86.889 Y93.422
;TYPE:FILL
G1 F1800 X86.172 Y94.139 E292.95261
G0 F10500 X86.648 Y94.072
;TYPE:SKIN
G1 F2280 X86.172 Y93.597 E292.96579
G0 F10500 X86.172 Y92.890
G1 F2280 X87.325 Y94.043 E292.99774
G0 F10500 X87.325 Y93.335
G1 F2280 X86.172 Y92.183 E293.02967
G0 F10500 X86.172 Y91.476
G1 F2280 X87.325 Y92.628 E293.06161
G0 F10500 X87.325 Y91.921
G1 F2280 X86.172 Y90.769 E293.09355
G0 F10500 X86.172 Y90.062
G1 F2280 X87.325 Y91.214 E293.12548
G0 F10500 X87.325 Y90.507
G1 F2280 X86.172 Y89.354 E293.15743
G0 F10500 X86.172 Y88.647
G1 F2280 X87.325 Y89.800 E293.18938
G0 F10500 X87.325 Y89.093
G1 F2280 X86.172 Y87.940 E293.22133
G0 F10500 X86.424 Y87.485
G1 F2280 X87.325 Y88.386 E293.24630
G0 F10500 X87.325 Y87.679
G1 F2280 X87.131 Y87.485 E293.25168
;LAYER:21
G1 F600 E291.50168
G1 Z5.525
G0 F10500 X94.500 Y70.000 Z5.675
;TYPE:WALL-INNER
G1 Z5.675
G1 F600 E293.25168
G1 F1560 X65.500 Y70.000 E293.81991
G1 X65.500 Y62.001 E293.97665
G1 X64.000 Y62.001 E294.00604
G1 X64.000 Y60.500 E294.03545
G1 X96.000 Y60.500 E294.66247
G1 X96.000 Y62.001 E294.69188
G1 X94.500 Y62.001 E294.72127
G1 X94.500 Y70.000 E294.87801
G0 F10500 X95.000 Y70.500
;TYPE:WALL-OUTER
G1 F1380 X65.000 Y70.500 E295.46584
G1 X65.000 Y62.501 E295.62257
G1 X63.500 Y62.501 E295.65196
G1 X63.500 Y60.000 E295.70097
G1 X96.500 Y60.000 E296.34758
G1 X96.500 Y62.501 E296.39659
G1 X95.000 Y62.501 E296.42598
G1 X95.000 Y70.500 E296.58271
G0 F10500 X94.324 Y69.575
;TYPE:FILL
G1 F1800 X85.424 Y60.675 E296.82934
G0 F10500 X84.281 Y60.675
G1 F1800 X75.132 Y69.824 E297.08286
G0 F10500 X73.359 Y69.823
G1 F1800 X65.673 Y62.138 E297.29583
G0 F10500 X65.361 Y61.825
G1 F1800 X64.210 Y60.675 E297.32771
G0 F10500 X65.391 Y62.110
G0 X65.674 Y65.140
G1 F1800 X70.139 Y60.675 E297.45144
G0 F10500 X71.282 Y60.675
G1 F1800 X80.430 Y69.823 E297.70493
G0 F10500 X82.203 Y69.824
G1 F1800 X91.352 Y60.675 E297.95846
G0 F10500 X92.495 Y60.675
G1 F1800 X94.324 Y62.504 E298.00914
G0 F10500 X94.324 Y64.774
G1 F1800 X89.274 Y69.824 E298.14908
G0 F10500 X87.501 Y69.823
G1 F1800 X78.353 Y60.675 E298.40258
G0 F10500 X77.210 Y60.675
G1 F1800 X68.061 Y69.824 E298.65610
G0 F10500 X66.288 Y69.823
G1 F1800 X65.673 Y69.209 E298.67313
G1 F600 E296.92313
G1 Z5.775
G0 F10500 X65.500 Y77.500
;TYPE:WALL-INNER
G1 Z5.675
G1 F600 E298.67313
G1 F1560 X94.500 Y77.500 E299.24136
G1 X94.500 Y78.999 E299.27074
G1 X87.500 Y78.999 E299.40790
G1 X87.500 Y95.500 E299.73122
G1 X85.998 Y95.500 E299.76065
G1 X85.998 Y78.999 E300.08398
G1 X65.500 Y78.999 E300.48562
G1 X65.500 Y77.500 E300.51499
G0 F10500 X65.000 Y77.000
;TYPE:WALL-OUTER
G1 F1380 X95.000 Y77.000 E301.10282
G1 X95.000 Y79.499 E301.15179
G1 X88.000 Y79.499 E301.28895
G1 X88.000 Y96.000 E301.61228
G1 X85.498 Y96.000 E301.66130
G1 X85.498 Y79.499 E301.98463
G1 X65.000 Y79.499 E302.38627
G1 X65.000 Y77.000 E302.43524
G0 F10500 X65.350 Y77.260
G0 X66.132 Y78.824
;TYPE:FILL
G1 F1800 X67.282 Y77.674 E302.46711
G0 F10500 X67.068 Y77.674
G1 F1800 X68.216 Y78.823 E302.49893
G0 F10500 X73.203 Y78.824
G1 F1800 X74.353 Y77.674 E302.53080
G0 F10500 X74.139 Y77.674
G1 F1800 X75.287 Y78.823 E302.56262
G0 F10500 X80.275 Y78.824
G1 F1800 X81.424 Y77.674 E302.59448
G0 F10500 X81.210 Y77.674
G1 F1800 X82.358 Y78.823 E302.62630
G0 F10500 X85.889 Y79.108
G0 X86.595 Y79.574
G1 F1800 X87.324 Y78.845 E302.64650
G0 F10500 X87.346 Y78.824
G1 F1800 X88.495 Y77.674 E302.67836
G0 F10500 X88.281 Y77.674
G1 F1800 X89.430 Y78.824 E302.71021
G0 F10500 X87.609 Y79.108
G0 X86.889 Y93.422
G1 F1800 X86.172 Y94.139 E302.73008
G0 F10500 X86.250 Y94.073
;TYPE:SKIN
G1 F2280 X86.250 Y78.924 E303.02691
G0 F10500 X86.750 Y78.924
G1 F2280 X86.750 Y94.073 E303.32375
G0 F10500 X87.250 Y94.073
G1 F2280 X87.250 Y78.924 E303.62058
;LAYER:22
M106 S221
G1 F600 E301.87058
G1 Z5.775
G0 F10500 X94.500 Y70.000 Z5.925
;TYPE:WALL-INNER
G1 Z5.925
G1 F600 E303.62058
G1 F1560 X65.500 Y70.000 E304.18882
G1 X65.500 Y62.001 E304.34555
G1 X64.000 Y62.001 E304.37495
G1 X64.000 Y60.500 E304.40436
G1 X96.000 Y60.500 E305.03137
G1 X96.000 Y62.001 E305.06079
G1 X94.500 Y62.001 E305.09018
G1 X94.500 Y70.000 E305.24691
G0 F10500 X95.000 Y70.500
;TYPE:WALL-OUTER
G1 F1320 X65.000 Y70.500 E305.83474
G1 X65.000 Y62.501 E305.99148
G1 X63.500 Y62.501 E306.02087
G1 X63.500 Y60.000 E306.06987
G1 X96.500 Y60.000 E306.71649
G1 X96.500 Y62.501 E306.76549
G1 X95.000 Y62.501 E306.79488
G1 X95.000 Y70.500 E306.95162
G0 F10500 X94.324 Y69.575
;TYPE:FILL
G1 F1800 X85.424 Y60.675 E307.19824
G0 F10500 X84.281 Y60.675
G1 F1800 X75.132 Y69.824 E307.45177
G0 F10500 X73.359 Y69.823
G1 F1800 X65.673 Y62.138 E307.66474
G0 F10500 X65.361 Y61.825
G1 F1800 X64.210 Y60.675 E307.69662
G0 F10500 X65.391 Y62.110
G0 X65.674 Y65.140
G1 F1800 X70.139 Y60.675 E307.82035
G0 F10500 X71.282 Y60.675
G1 F1800 X80.430 Y69.823 E308.07384
G0 F10500 X82.203 Y69.824
G1 F1800 X91.352 Y60.675 E308.32737
G0 F10500 X92.495 Y60.675
G1 F1800 X94.324 Y62.504 E308.37805
G0 F10500 X94.324 Y64.774
G1 F1800 X89.274 Y69.824 E308.51799
G0 F10500 X87.501 Y69.823
G1 F1800 X78.353 Y60.675 E308.77148
G0 F10500 X77.210 Y60.675
G1 F1800 X68.061 Y69.824 E309.02501
G0 F10500 X66.288 Y69.823
G1 F1800 X65.673 Y69.209 E309.04204
G1 F600 E307.29204
G1 Z6.025
G0 F10500 X65.500 Y77.500
;TYPE:WALL-INNER
G1 Z5.925
G1 F600 E309.04204
G1 F1560 X94.500 Y77.500 E309.61027
G1 X94.500 Y78.999 E309.63964
G1 X87.500 Y78.999 E309.77680
G1 X87.500 Y95.500 E310.10013
G1 X85.998 Y95.500 E310.12956
G1 X85.998 Y78.999 E310.45289
G1 X65.500 Y78.999 E310.85453
G1 X65.500 Y77.500 E310.88390
G0 F10500 X65.000 Y77.000
;TYPE:WALL-OUTER
G1 F1320 X95.000 Y77.000 E311.47173
G1 X95.000 Y79.499 E311.52070
G1 X88.000 Y79.499 E311.65786
G1 X88.000 Y96.000 E311.98118
G1 X85.498 Y96.000 E312.03021
G1 X85.498 Y79.499 E312.35354
G1 X65.000 Y79.499 E312.75518
G1 X65.000 Y77.000 E312.80415
G0 F10500 X65.350 Y77.260
G0 X66.132 Y78.824
;TYPE:FILL
G1 F1800 X67.282 Y77.674 E312.83601
G0 F10500 X67.068 Y77.674
G1 F1800 X68.216 Y78.823 E312.86784
G0 F10500 X73.203 Y78.824
G1 F1800 X74.353 Y77.674 E312.89971
G0 F10500 X74.139 Y77.674
G1 F1800 X75.287 Y78.823 E312.93153
G0 F10500 X80.275 Y78.824
G1 F1800 X81.424 Y77.674 E312.96339
G0 F10500 X81.210 Y77.674
G1 F1800 X82.358 Y78.823 E312.99521
G0 F10500 X85.889 Y79.108
G0 X86.595 Y79.574
G1 F1800 X87.324 Y78.845 E313.01541
G0 F10500 X87.346 Y78.824
G1 F1800 X88.495 Y77.674 E313.04727
G0 F10500 X88.281 Y77.674
G1 F1800 X89.430 Y78.824 E313.07912
G0 F10500 X87.609 Y79.108
G0 X86.889 Y93.422
G1 F1800 X86.172 Y94.139 E313.09899
G0 F10500 X86.648 Y94.072
;TYPE:SKIN
G1 F2280 X86.172 Y93.596 E313.11218
G0 F10500 X86.172 Y92.889
G1 F2280 X87.324 Y94.042 E313.14411
G0 F10500 X87.324 Y93.335
G1 F2280 X86.172 Y92.182 E313.17605
G0 F10500 X86.172 Y91.475
G1 F2280 X87.324 Y92.628 E313.20799
G0 F10500 X87.324 Y91.921
G1 F2280 X86.172 Y90.768 E313.23992
G0 F10500 X86.172 Y90.061
G1 F2280 X87.324 Y91.213 E313.27185
G0 F10500 X87.324 Y90.506
G1 F2280 X86.172 Y89.354 E313.30377
G0 F10500 X86.172 Y88.647
G1 F2280 X87.324 Y89.799 E313.33569
G0 F10500 X87.324 Y89.092
G1 F2280 X86.172 Y87.940 E313.36761
G0 F10500 X86.172 Y87.232
G1 F2280 X87.324 Y88.385 E313.39955
G0 F10500 X87.324 Y87.678
G1 F2280 X86.172 Y86.525 E313.43149
G0 F10500 X86.172 Y85.818
G1 F2280 X87.324 Y86.971 E313.46342
G0 F10500 X87.324 Y86.264
G1 F2280 X86.172 Y85.111 E313.49536
G0 F10500 X86.172 Y84.404
G1 F2280 X87.324 Y85.557 E313.52730
G0 F10500 X87.324 Y84.849
G1 F2280 X86.172 Y83.697 E313.55922
G0 F10500 X86.172 Y82.990
G1 F2280 X87.324 Y84.142 E313.59114
G0 F10500 X87.324 Y83.435
G1 F2280 X86.172 Y82.283 E313.62306
G0 F10500 X86.172 Y81.576
G1 F2280 X87.324 Y82.728 E313.65499
G0 F10500 X87.324 Y82.021
G1 F2280 X86.172 Y80.868 E313.68692
G0 F10500 X86.172 Y80.161
G1 F2280 X87.324 Y81.314 E313.71886
G0 F10500 X87.324 Y80.607
G1 F2280 X86.172 Y79.454 E313.75079
G0 F10500 X86.349 Y78.924
G1 F2280 X87.324 Y79.900 E313.77783
G0 F10500 X87.324 Y79.193
G1 F2280 X87.056 Y78.924 E313.78527
;LAYER:23
M106 S237
G1 F600 E312.03527
G1 Z6.025
G0 F10500 X94.500 Y70.000 Z6.175
;TYPE:WALL-INNER
G1 Z6.175
G1 F600 E313.78527
G1 F1320 X65.500 Y70.000 E314.35350
G1 X65.500 Y62.001 E314.51024
G1 X64.000 Y62.001 E314.53963
G1 X64.000 Y60.500 E314.56904
G1 X96.000 Y60.500 E315.19606
G1 X96.000 Y62.001 E315.22547
G1 X94.500 Y62.001 E315.25486
G1 X94.500 Y70.000 E315.41160
G0 F10500 X95.000 Y70.500
;TYPE:WALL-OUTER
G1 F1140 X65.000 Y70.500 E315.99943
G1 X65.000 Y62.501 E316.15616
G1 X63.500 Y62.501 E316.18555
G1 X63.500 Y60.000 E316.23456
G1 X96.500 Y60.000 E316.88117
G1 X96.500 Y62.501 E316.93018
G1 X95.000 Y62.501 E316.95957
G1 X95.000 Y70.500 E317.11630
G0 F10500 X94.324 Y69.575
;TYPE:FILL
G1 F1500 X85.424 Y60.675 E317.36293
G0 F10500 X84.281 Y60.675
G1 F1500 X75.132 Y69.824 E317.61645
G0 F10500 X73.359 Y69.823
G1 F1500 X65.673 Y62.138 E317.82942
G0 F10500 X65.361 Y61.825
G1 F1500 X64.210 Y60.675 E317.86130
G0 F10500 X65.391 Y62.110
G0 X65.674 Y65.140
G1 F1500 X70.139 Y60.675 E317.98503
G0 F10500 X71.282 Y60.675
G1 F1500 X80.430 Y69.823 E318.23853
G0 F10500 X82.203 Y69.824
G1 F1500 X91.352 Y60.675 E318.49205
G0 F10500 X92.495 Y60.675
G1 F1500 X94.324 Y62.504 E318.54273
G0 F10500 X94.324 Y64.774
G1 F1500 X89.274 Y69.824 E318.68267
G0 F10500 X87.501 Y69.823
G1 F1500 X78.353 Y60.675 E318.93617
G0 F10500 X77.210 Y60.675
G1 F1500 X68.061 Y69.824 E319.18969
G0 F10500 X66.288 Y69.823
G1 F1500 X65.673 Y69.209 E319.20672
G1 F600 E317.45672
G1 Z6.275
G0 F10500 X65.500 Y77.500
;TYPE:WALL-INNER
G1 Z6.175
G1 F600 E319.20672
G1 F1320 X94.500 Y77.500 E319.77495
G1 X94.500 Y78.999 E319.80433
G1 X65.500 Y78.999 E320.37256
G1 X65.500 Y77.500 E320.40193
G0 F10500 X65.000 Y77.000
;TYPE:WALL-OUTER
G1 F1140 X95.000 Y77.000 E320.98976
G1 X95.000 Y79.499 E321.03873
G1 X65.000 Y79.499 E321.62656
G1 X65.000 Y77.000 E321.67553
G0 F10500 X65.350 Y77.260
G0 X66.132 Y78.824
;TYPE:FILL
G1 F1500 X67.282 Y77.674 E321.70739
G0 F10500 X67.068 Y77.674
G1 F1500 X68.216 Y78.823 E321.73922
G0 F10500 X73.203 Y78.824
G1 F1500 X74.353 Y77.674 E321.77109
G0 F10500 X74.139 Y77.674
G1 F1500 X75.287 Y78.823 E321.80291
G0 F10500 X80.275 Y78.824
G1 F1500 X81.424 Y77.674 E321.83476
G0 F10500 X81.210 Y77.674
G1 F1500 X82.358 Y78.823 E321.86659
G0 F10500 X87.346 Y78.824
G1 F1500 X88.495 Y77.674 E321.89844
G0 F10500 X88.281 Y77.674
G1 F1500 X89.429 Y78.823 E321.93027
G1 F600 E320.18027
G1 Z6.275
G0 F10500 X87.500 Y93.999
;TYPE:WALL-INNER
G1 Z6.175
G1 F600 E321.93027
G1 F1320 X87.500 Y95.500 E321.95968
G1 X85.998 Y95.500 E321.98911
G1 X85.998 Y93.998 E322.01854
G1 X87.500 Y93.999 E322.04797
G0 F10500 X88.000 Y93.499
;TYPE:WALL-OUTER
G1 F1140 X88.000 Y96.000 E322.09698
G1 X85.498 Y96.000 E322.14600
G1 X85.498 Y93.498 E322.19503
G1 X88.000 Y93.499 E322.24405
G0 F10500 X87.740 Y93.848
G0 X86.750 Y94.748
;LAYER:24
M106 S234
G1 F600 E320.49405
G1 Z6.275
G0 F10500 X94.500 Y70.000 Z6.425
;TYPE:WALL-INNER
G1 Z6.425
G1 F600 E322.24405
G1 F1320 X65.500 Y70.000 E322.81229
G1 X65.500 Y62.001 E322.96902
G1 X64.000 Y62.001 E322.99841
G1 X64.000 Y60.500 E323.02783
G1 X96.000 Y60.500 E323.65484
G1 X96.000 Y62.001 E323.68426
G1 X94.500 Y62.001 E323.71365
G1 X94.500 Y70.000 E323.87038
G0 F10500 X95.000 Y70.500
;TYPE:WALL-OUTER
G1 F1140 X65.000 Y70.500 E324.45821
G1 X65.000 Y62.501 E324.61495
G1 X63.500 Y62.501 E324.64434
G1 X63.500 Y60.000 E324.69334
G1 X96.500 Y60.000 E325.33996
G1 X96.500 Y62.501 E325.38896
G1 X95.000 Y62.501 E325.41835
G1 X95.000 Y70.500 E325.57509
G0 F10500 X94.324 Y69.575
;TYPE:FILL
G1 F1560 X85.424 Y60.675 E325.82171
G0 F10500 X84.281 Y60.675
G1 F1560 X75.132 Y69.824 E326.07524
G0 F10500 X73.359 Y69.823
