;This Gcode has been generated specifically for the LulzBot Mini
;Basic settings: Layer height: 0.25 Walls: 1 Fill: 20
;Filament Diameter: 2.85
;Nozzle Size: 0.5
G26                          ; clear potential 'probe fail' condition
G21                          ; metric values
G90                          ; absolute positioning
M82                          ; set extruder to absolute mode
M107                         ; start with the fan off
G92 E0                       ; set extruder position to 0
M140 S60; get bed heating up
G28                          ; home all
M109 R140                    ; set to cleaning temp and wait
G1 Z150 E-30 F75             ; suck up XXmm of filament
M109 R140                    ; heat up rest of way
G1 X45 Y174 F11520           ; move behind scraper
G1 Z0  F1200                 ; CRITICAL: set Z to height of top of scraper
G1 X45 Y174 Z-.5 F4000       ; wiping ; plunge into wipe pad
G1 X55 Y172 Z-.5 F4000       ; wiping
G1 X45 Y174 Z0 F4000         ; wiping
G1 X55 Y172 F4000            ; wiping
G1 X45 Y174 F4000            ; wiping
G1 X55 Y172 F4000            ; wiping
G1 X45 Y174 F4000            ; wiping
G1 X55 Y172 F4000            ; wiping
G1 X60 Y174 F4000            ; wiping
G1 X80 Y172 F4000            ; wiping
G1 X60 Y174 F4000            ; wiping
G1 X80 Y172 F4000            ; wiping
G1 X60 Y174 F4000            ; wiping
G1 X90 Y172 F4000            ; wiping
G1 X80 Y174 F4000            ; wiping
G1 X100 Y172 F4000           ; wiping
G1 X80 Y174 F4000            ; wiping
G1 X100 Y172 F4000           ; wiping
G1 X80 Y174 F4000            ; wiping
G1 X100 Y172 F4000           ; wiping
G1 X110 Y174 F4000           ; wiping
G1 X100 Y172 F4000           ; wiping
G1 X110 Y174 F4000           ; wiping
G1 X100 Y172 F4000           ; wiping
G1 X110 Y174 F4000           ; wiping
G1 X115 Y172 Z-0.5 F1000     ; wipe slower and bury noz in cleanish area
G1 Z10                       ; raise z
G28 X0 Y0                    ; home x and y
M109 R140                    ; set to probing temp
M204 S300                    ; Set probing acceleration
G29                          ; Probe
M204 S2000                   ; Restore standard acceleration
G1 X5 Y15 Z10 F5000          ; get out the way
G4 S1                        ; pause
M400                         ; clear buffer
M109 R205    ; set extruder temp and wait
G4 S15                       ; wait for bed to temp up
G1 Z2 E0 F75                 ; extrude filament back into nozzle
M140 S60; get bed temping up during first layer

;Layer count: 10
;LAYER:0
M107
G0 F10500 X65.447 Y63.443 Z0.425
G0 X64.943 Y64.056
;TYPE:SKIRT
G1 F900 X65.447 Y63.443 E0.03304
G1 X68.564 Y60.885 E0.20094
G1 X72.123 Y58.982 E0.36898
G1 X75.985 Y57.811 E0.53702
G1 X79.213 Y57.494 E0.67207
G1 X79.997 Y57.416 E0.70488
G1 X83.229 Y57.733 E0.84010
G1 X84.017 Y57.812 E0.87307
G1 X87.121 Y58.752 E1.00811
G1 X87.879 Y58.983 E1.04111
G1 X91.435 Y60.885 E1.20902
G1 X94.555 Y63.445 E1.37706
G1 X97.114 Y66.565 E1.54508
G1 X99.017 Y70.122 E1.71305
G1 X100.188 Y73.984 E1.88109
G1 X100.505 Y77.206 E2.01589
G1 X100.584 Y77.998 E2.04903
G1 X100.188 Y82.015 E2.21710
G1 X99.017 Y85.878 E2.38518
G1 X97.114 Y89.435 E2.55315
G1 X94.555 Y92.555 E2.72117
G1 X92.045 Y94.614 E2.85634
G1 X91.433 Y95.116 E2.88930
G1 X88.574 Y96.643 E3.02426
G1 X87.879 Y97.016 E3.05710
G1 X84.015 Y98.188 E3.22523
G1 X80.788 Y98.506 E3.36025
G1 X80.003 Y98.584 E3.39309
G1 X76.769 Y98.266 E3.52840
G1 X75.982 Y98.187 E3.56133
G1 X72.878 Y97.247 E3.69637
G1 X72.120 Y97.016 E3.72937
G1 X69.260 Y95.487 E3.86440
G1 X68.562 Y95.113 E3.89737
G1 X66.061 Y93.061 E4.03208
G1 X65.445 Y92.557 E4.06522
G1 X63.386 Y90.046 E4.20043
G1 X63.387 Y90.046 E4.20047
G1 X62.886 Y89.437 E4.23330
G1 X61.356 Y86.576 E4.36839
G1 X60.983 Y85.880 E4.40127
G1 X59.811 Y82.014 E4.56948
G1 X59.494 Y78.787 E4.70449
G1 X59.416 Y78.003 E4.73730
G1 X59.733 Y74.770 E4.87256
G1 X59.812 Y73.982 E4.90553
G1 X60.752 Y70.878 E5.04057
G1 X60.983 Y70.120 E5.07357
G1 X62.512 Y67.260 E5.20860
G1 X62.886 Y66.563 E5.24154
G1 X64.943 Y64.056 E5.37657
G0 F10500 X65.426 Y64.452
G1 F900 X65.890 Y63.887 E5.40701
G1 X68.913 Y61.407 E5.56982
G1 X72.363 Y59.562 E5.73272
G1 X76.107 Y58.427 E5.89562
G1 X79.268 Y58.117 E6.02787
G1 X79.268 Y58.116 E6.02791
G1 X79.997 Y58.044 E6.05841
G1 X83.168 Y58.355 E6.19108
G1 X83.895 Y58.428 E6.22150
G1 X86.939 Y59.350 E6.35393
G1 X87.639 Y59.563 E6.38440
G1 X91.086 Y61.407 E6.54717
G1 X94.111 Y63.889 E6.71010
G1 X96.592 Y66.914 E6.87300
G1 X98.437 Y70.363 E7.03586
G1 X99.572 Y74.106 E7.19872
G1 X99.884 Y77.268 E7.33102
G1 X99.956 Y77.998 E7.36156
G1 X99.572 Y81.893 E7.52453
G1 X98.437 Y85.637 E7.68743
G1 X96.592 Y89.086 E7.85029
G1 X94.110 Y92.111 E8.01322
G1 X91.649 Y94.131 E8.14579
G1 X91.084 Y94.593 E8.17618
G1 X88.280 Y96.092 E8.30857
G1 X87.639 Y96.436 E8.33886
G1 X83.893 Y97.572 E8.50185
G1 X80.732 Y97.884 E8.63410
G1 X80.002 Y97.956 E8.66465
G1 X76.831 Y97.644 E8.79732
G1 X76.104 Y97.571 E8.82774
G1 X73.060 Y96.649 E8.96017
G1 X72.361 Y96.436 E8.99060
G1 X69.555 Y94.936 E9.12308
G1 X68.911 Y94.591 E9.15350
G1 X66.454 Y92.575 E9.28584
G1 X65.889 Y92.112 E9.31625
G1 X63.870 Y89.649 E9.44886
G1 X63.408 Y89.088 E9.47912
G1 X61.907 Y86.281 E9.61166
G1 X61.563 Y85.639 E9.64199
G1 X60.427 Y81.892 E9.80502
G1 X60.117 Y78.732 E9.93722
G1 X60.116 Y78.732 E9.93727
G1 X60.044 Y78.003 E9.96777
G1 X60.355 Y74.831 E10.10048
G1 X60.428 Y74.104 E10.13090
G1 X61.350 Y71.060 E10.26333
G1 X61.563 Y70.360 E10.29380
G1 X63.063 Y67.555 E10.42624
G1 X63.408 Y66.913 E10.45659
G1 X65.426 Y64.452 E10.58911
G0 F10500 X65.909 Y64.849
G1 F900 X66.334 Y64.331 E10.61701
G1 X69.262 Y61.929 E10.77470
G1 X72.603 Y60.142 E10.93246
G1 X76.229 Y59.043 E11.09022
G1 X79.330 Y58.738 E11.21996
G1 X79.998 Y58.672 E11.24791
G1 X83.106 Y58.977 E11.37794
G1 X83.772 Y59.043 E11.40581
G1 X86.757 Y59.948 E11.53569
G1 X87.398 Y60.143 E11.56358
G1 X90.737 Y61.929 E11.72125
G1 X93.667 Y64.333 E11.87906
G1 X96.070 Y67.263 E12.03684
G1 X97.857 Y70.603 E12.19457
G1 X98.956 Y74.229 E12.35233
G1 X99.262 Y77.330 E12.48207
G1 X99.328 Y77.998 E12.51002
G1 X98.956 Y81.770 E12.66784
G1 X97.857 Y85.397 E12.82565
G1 X96.070 Y88.737 E12.98337
G1 X93.666 Y91.667 E13.14118
G1 X91.252 Y93.648 E13.27120
G1 X90.735 Y94.071 E13.29902
G1 X87.990 Y95.538 E13.42861
G1 X87.990 Y95.539 E13.42865
G1 X87.398 Y95.856 E13.45662
G1 X83.770 Y96.956 E13.61447
G1 X80.670 Y97.262 E13.74417
G1 X80.002 Y97.328 E13.77212
G1 X76.892 Y97.022 E13.90224
G1 X76.227 Y96.956 E13.93007
G1 X73.242 Y96.051 E14.05994
G1 X72.601 Y95.856 E14.08784
G1 X69.850 Y94.385 E14.21773
G1 X69.260 Y94.069 E14.24560
G1 X66.850 Y92.092 E14.37539
G1 X66.851 Y92.091 E14.37545
G1 X66.333 Y91.668 E14.40330
G1 X64.353 Y89.253 E14.53333
G1 X63.930 Y88.739 E14.56105
G1 X62.458 Y85.987 E14.69100
G1 X62.143 Y85.399 E14.71877
G1 X61.043 Y81.769 E14.87671
G1 X60.738 Y78.665 E15.00657
G1 X60.672 Y78.003 E15.03427
G1 X60.977 Y74.893 E15.16439
G1 X61.043 Y74.227 E15.19226
G1 X61.948 Y71.242 E15.32213
G1 X62.143 Y70.601 E15.35003
G1 X63.614 Y67.850 E15.47992
G1 X63.930 Y67.262 E15.50772
G1 X65.909 Y64.849 E15.63766
G1 F600 E13.88766
G1 Z0.525
G0 F10500 X69.192 Y67.546
;TYPE:WALL-INNER
G1 Z0.425
G1 F600 E15.63766
G1 F900 X69.353 Y67.350 E15.64822
G1 X71.633 Y65.479 E15.77103
G1 X74.235 Y64.088 E15.89388
G1 X77.061 Y63.231 E16.01684
G1 X79.751 Y62.966 E16.12939
G1 X79.996 Y62.942 E16.13964
G1 X82.688 Y63.206 E16.25227
G1 X82.933 Y63.230 E16.26252
G1 X85.522 Y64.014 E16.37515
G1 X85.760 Y64.086 E16.38550
G1 X88.366 Y65.479 E16.50854
G1 X90.648 Y67.351 E16.63144
G1 X92.520 Y69.633 E16.75434
G1 X93.911 Y72.235 E16.87719
G1 X94.769 Y75.066 E17.00036
G1 X95.034 Y77.751 E17.11270
G1 X95.059 Y77.999 E17.12308
G1 X94.769 Y80.933 E17.24584
G1 X93.911 Y83.765 E17.36905
G1 X92.520 Y86.367 E17.49191
G1 X90.648 Y88.649 E17.61480
G1 X88.367 Y90.519 E17.73762
G1 X85.982 Y91.794 E17.85022
G1 X85.762 Y91.912 E17.86062
G1 X82.933 Y92.769 E17.98370
G1 X80.249 Y93.034 E18.09600
G1 X79.999 Y93.059 E18.10646
G1 X77.312 Y92.794 E18.21888
G1 X77.066 Y92.769 E18.22918
G1 X74.477 Y91.985 E18.34181
G1 X74.239 Y91.913 E18.35217
G1 X71.856 Y90.639 E18.46468
G1 X71.631 Y90.518 E18.47532
G1 X69.355 Y88.651 E18.59789
G1 X67.638 Y86.558 E18.71061
G1 X67.478 Y86.363 E18.72111
G1 X66.205 Y83.983 E18.83350
G1 X66.087 Y83.763 E18.84389
G1 X65.231 Y80.938 E18.96680
G1 X64.966 Y78.249 E19.07931
G1 X64.942 Y78.004 E19.08956
G1 X65.206 Y75.311 E19.20223
G1 X65.230 Y75.066 E19.21248
G1 X66.014 Y72.477 E19.32511
G1 X66.086 Y72.239 E19.33547
G1 X67.360 Y69.857 E19.44794
G1 X67.479 Y69.635 E19.45843
G1 X69.192 Y67.546 E19.57092
G0 F10500 X77.268 Y75.987
G1 F900 X76.991 Y76.267 E19.58732
G1 X76.629 Y77.619 E19.64559
G1 X76.527 Y77.999 E19.66198
G1 X76.890 Y79.356 E19.72047
G1 X76.993 Y79.736 E19.73686
G1 X77.985 Y80.729 E19.79530
G1 X78.260 Y81.006 E19.81155
G1 X79.619 Y81.371 E19.87015
G1 X79.999 Y81.473 E19.88653
G1 X81.357 Y81.109 E19.94507
G1 X81.736 Y81.006 E19.96142
G1 X83.007 Y79.735 E20.03626
G1 X83.370 Y78.381 E20.09463
G1 X83.472 Y78.001 E20.11102
G1 X83.109 Y76.643 E20.16955
G1 X83.006 Y76.263 E20.18594
G1 X81.735 Y74.992 E20.26078
G1 X80.381 Y74.630 E20.31914
G1 X80.002 Y74.528 E20.33548
G1 X78.642 Y74.890 E20.39408
G1 X78.262 Y74.993 E20.41047
G1 X77.268 Y75.987 E20.46901
G0 F10500 X77.711 Y76.428
;TYPE:WALL-OUTER
G1 F900 X77.552 Y76.588 E20.47840
G1 X77.174 Y78.000 E20.53926
G1 X77.552 Y79.411 E20.60008
G1 X78.426 Y80.286 E20.65158
G1 X78.586 Y80.446 E20.66100
G1 X80.000 Y80.826 E20.72197
G1 X81.412 Y80.447 E20.78284
G1 X82.447 Y79.411 E20.84381
G1 X82.825 Y78.000 E20.90464
G1 X82.447 Y76.588 E20.96550
G1 X81.411 Y75.552 E21.02651
G1 X80.000 Y75.175 E21.08732
G1 X78.804 Y75.494 E21.13886
G1 X78.586 Y75.553 E21.14826
G1 X77.711 Y76.428 E21.19979
G0 F10500 X77.427 Y76.129
G0 X67.302 Y69.515
G0 X66.956 Y69.286
G1 F900 X68.908 Y66.908 E21.32789
G1 X71.285 Y64.956 E21.45596
G1 X73.994 Y63.508 E21.58386
G1 X76.940 Y62.615 E21.71203
G1 X80.000 Y62.314 E21.84006
G1 X83.061 Y62.615 E21.96813
G1 X86.004 Y63.508 E22.09619
G1 X88.714 Y64.956 E22.22412
G1 X91.091 Y66.908 E22.35219
G1 X93.043 Y69.286 E22.48029
G1 X94.491 Y71.994 E22.60816
G1 X95.385 Y74.944 E22.73650
G1 X95.687 Y78.000 E22.86437
G1 X95.385 Y81.055 E22.99219
G1 X94.491 Y84.006 E23.12058
G1 X93.043 Y86.714 E23.24844
G1 X91.091 Y89.092 E23.37655
G1 X88.714 Y91.043 E23.50459
G1 X86.005 Y92.491 E23.63249
G1 X83.055 Y93.385 E23.76084
G1 X80.000 Y93.687 E23.88866
G1 X76.943 Y93.385 E24.01657
G1 X73.995 Y92.491 E24.14484
G1 X71.285 Y91.043 E24.27277
G1 X68.908 Y89.092 E24.40082
G1 X66.956 Y86.714 E24.52892
G1 X65.508 Y84.006 E24.65678
G1 X64.615 Y81.059 E24.78500
G1 X64.314 Y78.000 E24.91298
G1 X64.615 Y74.938 E25.04109
G1 X65.508 Y71.995 E25.16915
G1 X66.956 Y69.286 E25.29705
G0 F10500 X67.620 Y69.831
;TYPE:SKIN
G1 F900 X76.487 Y78.698 E25.81918
G0 F10500 X76.378 Y77.705
G1 F900 X68.007 Y69.333 E26.31214
G0 F10500 X68.406 Y68.848
G1 F900 X76.565 Y77.008 E26.79261
G0 F10500 X76.752 Y76.310
G1 F900 X68.804 Y68.363 E27.26060
G0 F10500 X69.203 Y67.878
G1 F900 X77.136 Y75.811 E27.72773
G0 F10500 X77.578 Y75.369
G1 F900 X69.622 Y67.413 E28.19622
G0 F10500 X70.107 Y67.014
G1 F900 X78.020 Y74.927 E28.66218
G0 F10500 X78.641 Y74.664
G1 F900 X70.592 Y66.615 E29.13614
G0 F10500 X71.077 Y66.217
G1 F900 X79.338 Y74.478 E29.62259
G0 F10500 X80.060 Y74.316
G1 F900 X71.562 Y65.818 E30.12300
G0 F10500 X72.102 Y65.474
G1 F900 X81.268 Y74.640 E30.66274
G0 F10500 X83.355 Y76.727
G1 F900 X92.524 Y85.895 E31.20262
G0 F10500 X92.181 Y86.436
G1 F900 X83.681 Y77.936 E31.70314
G0 F10500 X83.521 Y78.660
G1 F900 X91.782 Y86.921 E32.18959
G0 F10500 X91.383 Y87.406
G1 F900 X83.334 Y79.357 E32.66356
G0 F10500 X83.072 Y79.979
G1 F900 X90.985 Y87.892 E33.12951
G0 F10500 X90.586 Y88.377
G1 F900 X82.630 Y80.421 E33.59800
G0 F10500 X82.188 Y80.863
G1 F900 X90.121 Y88.796 E34.06514
G0 F10500 X89.635 Y89.194
G1 F900 X81.687 Y81.245 E34.53318
G0 F10500 X80.990 Y81.433
G1 F900 X89.149 Y89.592 E35.01363
G0 F10500 X88.664 Y89.991
G1 F900 X80.294 Y81.620 E35.50652
G0 F10500 X79.302 Y81.512
G1 F900 X88.167 Y90.377 E36.02854
G0 F10500 X87.590 Y90.685
G1 F900 X67.313 Y70.407 E37.22258
G0 F10500 X67.004 Y70.982
G1 F900 X87.014 Y90.992 E38.40087
G0 F10500 X86.438 Y91.300
G1 F900 X66.697 Y71.559 E39.56331
G0 F10500 X66.389 Y72.135
G1 F900 X85.862 Y91.608 E40.70998
G0 F10500 X85.216 Y91.846
G1 F900 X66.151 Y72.781 E41.83262
G0 F10500 X65.945 Y73.459
G1 F900 X84.538 Y92.051 E42.92744
G0 F10500 X83.860 Y92.257
G1 F900 X65.739 Y74.137 E43.99447
G0 F10500 X65.533 Y74.815
G1 F900 X83.181 Y92.462 E45.03364
G0 F10500 X82.432 Y92.597
G1 F900 X65.400 Y75.565 E46.03657
G0 F10500 X65.321 Y76.371
G1 F900 X81.627 Y92.676 E46.99671
G0 F10500 X80.823 Y92.756
G1 F900 X65.243 Y77.176 E47.91414
G0 F10500 X65.164 Y77.981
G1 F900 X80.019 Y92.836 E48.78888
G0 F10500 X92.831 Y85.319
G1 F900 X72.679 Y65.166 E49.97556
G0 F10500 X73.255 Y64.859
G1 F900 X93.139 Y84.743 E51.14643
G0 F10500 X93.446 Y84.166
G1 F900 X73.831 Y64.551 E52.30145
G0 F10500 X74.424 Y64.260
G1 F900 X93.738 Y83.574 E53.43876
G0 F10500 X93.944 Y82.896
G1 F900 X75.102 Y64.054 E54.54827
G0 F10500 X75.780 Y63.848
G1 F900 X94.149 Y82.218 E55.62996
G0 F10500 X94.354 Y81.539
G1 F900 X76.458 Y63.643 E56.68376
G0 F10500 X77.142 Y63.443
G1 F900 X94.556 Y80.856 E57.70915
G0 F10500 X94.635 Y80.052
G1 F900 X77.947 Y63.363 E58.69186
G0 F10500 X78.751 Y63.284
G1 F900 X94.714 Y79.247 E59.63184
G0 F10500 X94.794 Y78.443
G1 F900 X79.556 Y63.205 E60.52913
G0 F10500 X65.254 Y78.955
G1 F900 X79.042 Y92.743 E61.34103
G0 F10500 X78.061 Y92.646
G1 F900 X65.351 Y79.936 E62.08946
G0 F10500 X65.455 Y80.924
G1 F900 X77.071 Y92.540 E62.77347
G0 F10500 X75.803 Y92.156
G1 F900 X65.840 Y82.193 E63.36014
G0 F10500 X66.225 Y83.461
G1 F900 X74.536 Y91.772 E63.84953
G0 F10500 X72.745 Y90.865
G1 F900 X67.132 Y85.253 E64.18002
G0 F10500 X80.441 Y63.206
G1 F900 X94.794 Y77.559 E65.02520
G0 F10500 X94.697 Y76.578
G1 F900 X81.421 Y63.302 E65.80695
G0 F10500 X82.401 Y63.398
G1 F900 X94.600 Y75.598 E66.52532
G0 F10500 X94.359 Y74.472
G1 F900 X83.525 Y63.638 E67.16328
G0 F10500 X84.794 Y64.024
G1 F900 X93.974 Y73.203 E67.70382
G0 F10500 X93.401 Y71.746
G1 F900 X86.254 Y64.599 E68.12467
G0 F10500 X88.150 Y65.611
G1 F900 X92.388 Y69.850 E68.37425
;LAYER:1
M106 S191
G0 F10500 X92.937 Y70.018 Z0.675
;TYPE:WALL-INNER
G1 F1140 X94.085 Y72.163 E68.42192
G1 X94.954 Y75.029 E68.48060
G1 X95.247 Y78.000 E68.53910
G1 X94.954 Y80.970 E68.59758
G1 X94.085 Y83.835 E68.65624
G1 X93.826 Y84.322 E68.66705
G1 X92.678 Y86.467 E68.71472
G1 X90.780 Y88.781 E68.77336
G1 X88.467 Y90.678 E68.83198
G1 X85.836 Y92.085 E68.89044
G1 X82.970 Y92.954 E68.94912
G1 X80.000 Y93.247 E69.00760
G1 X77.029 Y92.954 E69.06610
G1 X74.163 Y92.085 E69.12478
G1 X71.532 Y90.678 E69.18324
G1 X69.219 Y88.781 E69.24185
G1 X67.321 Y86.467 E69.30050
G1 X65.914 Y83.837 E69.35894
G1 X65.045 Y80.970 E69.41764
G1 X64.753 Y78.000 E69.47612
G1 X65.045 Y75.029 E69.53461
G1 X65.914 Y72.163 E69.59329
G1 X67.321 Y69.533 E69.65174
G1 X69.219 Y67.219 E69.71038
G1 X71.530 Y65.323 E69.76895
G1 X74.165 Y63.914 E69.82750
G1 X77.029 Y63.045 E69.88615
G1 X80.000 Y62.753 E69.94464
G1 X82.970 Y63.045 E70.00312
G1 X85.834 Y63.914 E70.06176
G1 X88.469 Y65.323 E70.12031
G1 X90.780 Y67.219 E70.17888
G1 X92.676 Y69.531 E70.23747
G1 X92.937 Y70.018 E70.24830
G0 F10500 X82.839 Y76.361
G1 F1140 X81.638 Y75.159 E70.28159
G1 X80.000 Y74.722 E70.31481
G1 X78.360 Y75.159 E70.34806
G1 X77.160 Y76.361 E70.38135
G1 X76.721 Y78.000 E70.41459
G1 X77.160 Y79.638 E70.44782
G1 X78.360 Y80.839 E70.48109
G1 X79.553 Y81.159 E70.50529
G1 X79.999 Y81.280 E70.51434
G1 X81.195 Y80.959 E70.53861
G1 X81.639 Y80.838 E70.54763
G1 X82.839 Y79.638 E70.58088
G1 X83.278 Y78.000 E70.61411
G1 X82.839 Y76.361 E70.64735
G0 F10500 X82.391 Y76.620
;TYPE:WALL-OUTER
G1 F1080 X81.379 Y75.608 E70.67540
G1 X80.000 Y75.239 E70.70337
G1 X78.619 Y75.608 E70.73138
G1 X77.608 Y76.620 E70.75941
G1 X77.238 Y78.000 E70.78740
G1 X77.608 Y79.379 E70.81538
G1 X78.619 Y80.391 E70.84341
G1 X80.000 Y80.762 E70.87143
G1 X81.379 Y80.391 E70.89941
G1 X82.391 Y79.379 E70.92745
G1 X82.761 Y78.000 E70.95543
G1 X82.391 Y76.620 E70.98342
G0 F10500 X82.639 Y76.374
G0 X92.803 Y69.448
G0 X93.093 Y69.250
G1 F1080 X94.551 Y71.976 E71.04400
G1 X95.445 Y74.925 E71.10438
G1 X95.749 Y78.000 E71.16492
G1 X95.445 Y81.073 E71.22543
G1 X94.551 Y84.024 E71.28585
G1 X93.093 Y86.750 E71.34642
G1 X91.135 Y89.136 E71.40690
G1 X88.747 Y91.095 E71.46742
G1 X86.027 Y92.550 E71.52787
G1 X83.074 Y93.445 E71.58833
G1 X80.000 Y93.749 E71.64885
G1 X76.925 Y93.445 E71.70940
G1 X73.972 Y92.550 E71.76986
G1 X71.252 Y91.095 E71.83030
G1 X68.864 Y89.136 E71.89083
G1 X66.904 Y86.747 E71.95138
G1 X65.449 Y84.028 E72.01180
G1 X64.554 Y81.073 E72.07230
G1 X64.251 Y78.000 E72.13280
G1 X64.554 Y74.926 E72.19333
G1 X65.449 Y71.972 E72.25381
G1 X66.904 Y69.253 E72.31424
G1 X68.864 Y66.864 E72.37478
G1 X71.249 Y64.906 E72.43525
G1 X73.976 Y63.448 E72.49584
G1 X76.926 Y62.554 E72.55624
G1 X80.000 Y62.251 E72.61676
G1 X83.073 Y62.554 E72.67727
G1 X86.023 Y63.448 E72.73767
G1 X88.750 Y64.906 E72.79826
G1 X91.135 Y66.864 E72.85872
G1 X93.093 Y69.250 E72.91920
G0 F10500 X92.572 Y69.708
;TYPE:SKIN
G1 F1380 X83.157 Y79.123 E73.18010
G0 F10500 X83.417 Y78.156
G1 F1380 X92.265 Y69.308 E73.42528
G0 F10500 X91.947 Y68.919
G1 F1380 X83.333 Y77.532 E73.66397
G0 F10500 X83.184 Y76.974
G1 F1380 X91.628 Y68.531 E73.89794
G0 F10500 X91.309 Y68.143
G1 F1380 X83.034 Y76.417 E74.12723
G0 F10500 X82.735 Y76.009
G1 F1380 X90.990 Y67.754 E74.35598
G0 F10500 X90.672 Y67.366
G1 F1380 X82.382 Y75.656 E74.58570
G0 F10500 X82.028 Y75.302
G1 F1380 X90.288 Y67.042 E74.81459
G0 F10500 X89.900 Y66.724
G1 F1380 X81.644 Y74.979 E75.04336
G0 F10500 X81.086 Y74.830
G1 F1380 X89.511 Y66.405 E75.27682
G0 F10500 X89.123 Y66.086
G1 F1380 X80.528 Y74.681 E75.51499
G0 F10500 X79.949 Y74.553
G1 F1380 X88.735 Y65.767 E75.75845
G0 F10500 X88.343 Y65.452
G1 F1380 X78.984 Y74.811 E76.01780
G0 F10500 X76.810 Y76.984
G1 F1380 X67.453 Y86.341 E76.27709
G0 F10500 X67.768 Y86.734
G1 F1380 X76.551 Y77.951 E76.52047
G0 F10500 X76.680 Y78.529
G1 F1380 X68.087 Y87.122 E76.75858
G0 F10500 X68.405 Y87.511
G1 F1380 X76.830 Y79.086 E76.99205
G0 F10500 X76.980 Y79.643
G1 F1380 X68.724 Y87.899 E77.22082
G0 F10500 X69.043 Y88.287
G1 F1380 X77.303 Y80.028 E77.44970
G0 F10500 X77.656 Y80.381
G1 F1380 X69.365 Y88.673 E77.67946
G0 F10500 X69.753 Y88.992
G1 F1380 X78.010 Y80.735 E77.90827
G0 F10500 X78.417 Y81.035
G1 F1380 X70.142 Y89.310 E78.13757
G0 F10500 X70.530 Y89.629
G1 F1380 X78.974 Y81.185 E78.37156
G0 F10500 X79.531 Y81.335
G1 F1380 X70.918 Y89.948 E78.61023
G0 F10500 X71.306 Y90.267
G1 F1380 X80.154 Y81.419 E78.85542
G0 F10500 X81.122 Y81.158
G1 F1380 X71.707 Y90.573 E79.11631
G0 F10500 X72.168 Y90.820
G1 F1380 X92.818 Y70.169 E79.68855
G0 F10500 X93.065 Y70.630
G1 F1380 X72.628 Y91.066 E80.25485
G0 F10500 X73.089 Y91.312
G1 F1380 X93.311 Y71.090 E80.81522
G0 F10500 X93.558 Y71.550
G1 F1380 X73.549 Y91.559 E81.36968
G0 F10500 X74.010 Y91.805
G1 F1380 X93.804 Y72.011 E81.91818
G0 F10500 X94.008 Y72.515
G1 F1380 X74.514 Y92.009 E82.45837
G0 F10500 X75.057 Y92.173
G1 F1380 X94.173 Y73.057 E82.98809
G0 F10500 X94.337 Y73.600
G1 F1380 X75.599 Y92.338 E83.50733
G0 F10500 X76.142 Y92.502
G1 F1380 X94.501 Y74.142 E84.01608
G0 F10500 X94.666 Y74.685
G1 F1380 X76.685 Y92.667 E84.51436
G0 F10500 X77.259 Y92.799
G1 F1380 X94.799 Y75.259 E85.00040
G0 F10500 X94.863 Y75.902
G1 F1380 X77.902 Y92.863 E85.47040
G0 F10500 X78.546 Y92.927
G1 F1380 X94.926 Y76.546 E85.92431
G0 F10500 X94.990 Y77.189
G1 F1380 X79.189 Y92.990 E86.36217
G0 F10500 X79.833 Y93.053
G1 F1380 X95.053 Y77.834 E86.78391
G0 F10500 X95.012 Y78.582
G1 F1380 X80.581 Y93.012 E87.18378
G0 F10500 X81.366 Y92.935
G1 F1380 X94.935 Y79.366 E87.55979
G0 F10500 X87.882 Y65.206
G1 F1380 X67.206 Y85.881 E88.13272
G0 F10500 X66.960 Y85.421
G1 F1380 X87.421 Y64.959 E88.69972
G0 F10500 X86.960 Y64.713
G1 F1380 X66.713 Y84.961 E89.26079
G0 F10500 X66.467 Y84.499
G1 F1380 X86.499 Y64.467 E89.81589
G0 F10500 X86.039 Y64.220
G1 F1380 X66.220 Y84.039 E90.36508
G0 F10500 X66.007 Y83.545
G1 F1380 X85.545 Y64.008 E90.90648
G0 F10500 X85.002 Y63.843
G1 F1380 X65.843 Y83.002 E91.43738
G0 F10500 X65.679 Y82.459
G1 F1380 X84.459 Y63.679 E91.95779
G0 F10500 X83.917 Y63.514
G1 F1380 X65.514 Y81.916 E92.46773
G0 F10500 X65.350 Y81.373
G1 F1380 X83.374 Y63.350 E92.96717
G0 F10500 X82.812 Y63.205
G1 F1380 X65.205 Y80.811 E93.45506
G0 F10500 X65.142 Y80.167
G1 F1380 X82.168 Y63.141 E93.92686
G0 F10500 X81.524 Y63.078
G1 F1380 X65.079 Y79.524 E94.38257
G0 F10500 X65.016 Y78.879
G1 F1380 X80.880 Y63.015 E94.82217
G0 F10500 X80.237 Y62.951
G1 F1380 X64.952 Y78.236 E95.24573
G0 F10500 X64.978 Y77.503
G1 F1380 X79.504 Y62.977 E95.64825
G0 F10500 X78.720 Y63.054
G1 F1380 X65.055 Y76.719 E96.02692
G0 F10500 X65.132 Y75.935
G1 F1380 X77.936 Y63.131 E96.38173
G0 F10500 X77.152 Y63.208
G1 F1380 X65.209 Y75.151 E96.71267
G0 F10500 X65.490 Y74.163
G1 F1380 X76.164 Y63.488 E97.00847
G0 F10500 X75.149 Y63.796
G1 F1380 X65.797 Y73.148 E97.26762
G0 F10500 X66.151 Y72.088
G1 F1380 X74.087 Y64.152 E97.48753
G0 F10500 X72.566 Y64.966
G1 F1380 X66.965 Y70.567 E97.64274
G0 F10500 X68.713 Y68.111
G1 F1380 X70.111 Y66.714 E97.68146
G0 F10500 X94.857 Y80.151
G1 F1380 X82.150 Y92.858 E98.03358
G0 F10500 X82.934 Y92.781
G1 F1380 X94.780 Y80.935 E98.36184
G0 F10500 X94.473 Y81.950
G1 F1380 X83.948 Y92.474 E98.65348
G0 F10500 X84.963 Y92.166
G1 F1380 X94.165 Y82.964 E98.90847
G0 F10500 X93.751 Y84.085
G1 F1380 X86.082 Y91.754 E99.12098
G0 F10500 X87.602 Y90.942
G1 F1380 X92.939 Y85.604 E99.26889
G0 F10500 X90.926 Y88.325
G1 F1380 X90.322 Y88.928 E99.28561
;LAYER:2
G0 F10500 X90.780 Y88.781 Z0.925
;TYPE:WALL-INNER
G1 F1440 X88.467 Y90.678 E99.34423
G1 X85.835 Y92.085 E99.40271
G1 X82.972 Y92.953 E99.46133
G1 X80.000 Y93.247 E99.51984
G1 X77.029 Y92.954 E99.57834
G1 X74.163 Y92.085 E99.63702
G1 X71.532 Y90.678 E99.69549
G1 X69.219 Y88.781 E99.75410
G1 X67.321 Y86.467 E99.81274
G1 X65.914 Y83.836 E99.87120
G1 X65.045 Y80.972 E99.92985
G1 X64.753 Y77.999 E99.98838
G1 X65.045 Y75.029 E100.04686
G1 X65.914 Y72.163 E100.10554
G1 X67.321 Y69.533 E100.16398
G1 X69.219 Y67.219 E100.22263
G1 X71.532 Y65.321 E100.28125
G1 X74.164 Y63.914 E100.33973
G1 X77.027 Y63.045 E100.39836
G1 X80.000 Y62.753 E100.45689
G1 X82.970 Y63.045 E100.51537
G1 X85.836 Y63.914 E100.57405
G1 X88.467 Y65.321 E100.63251
G1 X90.780 Y67.219 E100.69114
G1 X92.678 Y69.533 E100.74978
G1 X94.085 Y72.164 E100.80824
G1 X94.953 Y75.027 E100.86686
G1 X95.247 Y77.999 E100.92538
G1 X94.954 Y80.971 E100.98390
G1 X94.085 Y83.836 E101.04256
G1 X92.678 Y86.467 E101.10102
G1 X90.780 Y88.781 E101.15967
G0 F10500 X82.840 Y79.638
G1 F1440 X83.129 Y78.558 E101.18157
G1 X83.279 Y78.001 E101.19288
G1 X82.989 Y76.919 E101.21482
G1 X82.839 Y76.360 E101.22617
G1 X81.638 Y75.159 E101.25945
G1 X80.557 Y74.871 E101.28137
G1 X80.001 Y74.722 E101.29264
G1 X78.919 Y75.009 E101.31458
G1 X78.359 Y75.160 E101.32594
G1 X77.159 Y76.361 E101.35921
G1 X76.870 Y77.442 E101.38114
G1 X76.720 Y77.999 E101.39244
G1 X77.010 Y79.080 E101.41437
G1 X77.160 Y79.638 E101.42569
G1 X78.359 Y80.839 E101.45894
G1 X80.000 Y81.280 E101.49224
G1 X81.638 Y80.839 E101.52548
G1 X82.840 Y79.638 E101.55877
G0 F10500 X82.391 Y79.379
;TYPE:WALL-OUTER
G1 F1320 X82.761 Y78.000 E101.58675
G1 X82.391 Y76.620 E101.61474
G1 X81.379 Y75.608 E101.64279
G1 X80.000 Y75.239 E101.67076
G1 X78.619 Y75.608 E101.69877
G1 X77.608 Y76.620 E101.72680
G1 X77.238 Y78.000 E101.75479
G1 X77.608 Y79.379 E101.78277
G1 X78.618 Y80.391 E101.81078
G1 X80.000 Y80.762 E101.83882
G1 X81.379 Y80.391 E101.86680
G1 X82.391 Y79.379 E101.89484
G0 F10500 X82.728 Y79.470
G0 X92.802 Y86.552
G0 X93.095 Y86.747
G1 F1320 X91.135 Y89.136 E101.95539
G1 X88.747 Y91.095 E102.01592
G1 X86.026 Y92.550 E102.07638
G1 X83.075 Y93.445 E102.13680
G1 X80.000 Y93.749 E102.19735
G1 X76.925 Y93.445 E102.25789
G1 X73.972 Y92.550 E102.31835
G1 X71.252 Y91.095 E102.37880
G1 X68.864 Y89.136 E102.43932
G1 X66.904 Y86.747 E102.49987
G1 X65.449 Y84.027 E102.56031
G1 X64.554 Y81.075 E102.62075
G1 X64.251 Y78.000 E102.68130
G1 X64.554 Y74.926 E102.74182
G1 X65.449 Y71.972 E102.80230
G1 X66.904 Y69.253 E102.86273
G1 X68.864 Y66.864 E102.92328
G1 X71.252 Y64.904 E102.98381
G1 X73.973 Y63.449 E103.04427
G1 X76.924 Y62.554 E103.10469
G1 X80.000 Y62.251 E103.16526
G1 X83.073 Y62.554 E103.22576
G1 X86.027 Y63.449 E103.28624
G1 X88.747 Y64.904 E103.34669
G1 X91.135 Y66.864 E103.40722
G1 X93.095 Y69.253 E103.46777
G1 X94.550 Y71.973 E103.52821
G1 X95.445 Y74.924 E103.58863
G1 X95.749 Y78.000 E103.64920
G1 X95.445 Y81.075 E103.70975
G1 X94.550 Y84.027 E103.77019
G1 X93.095 Y86.747 E103.83063
G0 F10500 X92.463 Y86.452
;TYPE:SKIN
G1 F1920 X83.257 Y77.247 E104.08572
G0 F10500 X83.426 Y78.123
G1 F1920 X92.144 Y86.841 E104.32730
G0 F10500 X91.826 Y87.230
G1 F1920 X83.276 Y78.680 E104.56423
G0 F10500 X83.127 Y79.238
G1 F1920 X91.507 Y87.618 E104.79644
G0 F10500 X91.188 Y88.006
G1 F1920 X82.952 Y79.770 E105.02467
G0 F10500 X83.220 Y78.000
G0 X82.999 Y76.281
G1 F1920 X92.725 Y86.008 E105.29419
G0 F10500 X92.971 Y85.547
G1 F1920 X72.452 Y65.027 E105.86280
G0 F10500 X72.912 Y64.780
G1 F1920 X93.218 Y85.086 E106.42549
G0 F10500 X93.464 Y84.625
G1 F1920 X73.373 Y64.534 E106.98222
G0 F10500 X73.833 Y64.288
G1 F1920 X93.711 Y84.165 E107.53304
G0 F10500 X93.946 Y83.693
G1 F1920 X74.306 Y64.053 E108.07728
G0 F10500 X74.849 Y63.889
G1 F1920 X94.110 Y83.150 E108.61101
G0 F10500 X94.275 Y82.607
G1 F1920 X75.391 Y63.724 E109.13428
G0 F10500 X75.934 Y63.559
G1 F1920 X94.439 Y82.064 E109.64707
G0 F10500 X94.603 Y81.522
G1 F1920 X76.476 Y63.394 E110.14939
G0 F10500 X77.019 Y63.230
G1 F1920 X94.767 Y80.979 E110.64121
G0 F10500 X94.839 Y80.343
G1 F1920 X77.655 Y63.160 E111.11738
G0 F10500 X78.299 Y63.096
G1 F1920 X94.902 Y79.699 E111.57745
G0 F10500 X94.965 Y79.055
G1 F1920 X78.943 Y63.033 E112.02143
G0 F10500 X79.586 Y62.969
G1 F1920 X95.029 Y78.412 E112.44937
G0 F10500 X95.042 Y77.718
G1 F1920 X80.281 Y62.957 E112.85840
G0 F10500 X81.065 Y63.034
G1 F1920 X94.965 Y76.933 E113.24357
G0 F10500 X94.887 Y76.149
G1 F1920 X81.849 Y63.111 E113.60486
G0 F10500 X82.633 Y63.188
G1 F1920 X94.809 Y75.364 E113.94226
G0 F10500 X94.591 Y74.439
G1 F1920 X83.559 Y63.406 E114.24798
G0 F10500 X84.574 Y63.714
G1 F1920 X94.284 Y73.424 E114.51705
G0 F10500 X93.977 Y72.410
G1 F1920 X85.588 Y64.022 E114.74950
G0 F10500 X87.018 Y64.744
G1 F1920 X93.253 Y70.979 E114.92227
G0 F10500 X92.163 Y69.182
G1 F1920 X88.811 Y65.830 E115.01516
G0 F10500 X81.715 Y74.997
G1 F1920 X71.991 Y65.273 E115.28461
G0 F10500 X71.546 Y65.536
G1 F1920 X80.750 Y74.739 E115.53965
G0 F10500 X79.875 Y74.572
G1 F1920 X71.158 Y65.854 E115.78122
G0 F10500 X70.770 Y66.173
G1 F1920 X79.317 Y74.721 E116.01807
G0 F10500 X78.759 Y74.870
G1 F1920 X70.381 Y66.492 E116.25023
G0 F10500 X69.993 Y66.811
G1 F1920 X78.226 Y75.044 E116.47837
G0 F10500 X77.872 Y75.398
G1 F1920 X69.604 Y67.129 E116.70750
G0 F10500 X69.239 Y67.471
G1 F1920 X77.520 Y75.752 E116.93697
G0 F10500 X77.166 Y76.105
G1 F1920 X68.920 Y67.859 E117.16547
G0 F10500 X68.601 Y68.247
G1 F1920 X76.921 Y76.568 E117.39604
G0 F10500 X76.772 Y77.126
G1 F1920 X68.282 Y68.636 E117.63130
G0 F10500 X67.963 Y69.024
G1 F1920 X76.622 Y77.683 E117.87124
G0 F10500 X76.651 Y78.418
G1 F1920 X67.644 Y69.412 E118.12082
G0 F10500 X67.357 Y69.832
G1 F1920 X76.912 Y79.386 E118.38558
G0 F10500 X65.084 Y79.579
G1 F1920 X78.418 Y92.913 E118.75507
G0 F10500 X79.202 Y92.990
G1 F1920 X65.007 Y78.795 E119.14842
G0 F10500 X64.930 Y78.011
G1 F1920 X79.987 Y93.068 E119.56566
G0 F10500 X77.633 Y92.836
G1 F1920 X65.161 Y80.364 E119.91127
G0 F10500 X65.299 Y81.209
G1 F1920 X76.786 Y92.696 E120.22958
G0 F10500 X75.772 Y92.389
G1 F1920 X65.607 Y82.224 E120.51126
G0 F10500 X65.915 Y83.239
G1 F1920 X74.758 Y92.082 E120.75630
G0 F10500 X73.501 Y91.532
G1 F1920 X66.465 Y84.496 E120.95127
G0 F10500 X67.279 Y86.017
G1 F1920 X71.980 Y90.718 E121.08154
G0 F10500 X78.614 Y81.089
G1 F1920 X88.165 Y90.640 E121.34620
G0 F10500 X88.585 Y90.353
G1 F1920 X79.582 Y81.349 E121.59570
G0 F10500 X80.316 Y81.376
G1 F1920 X88.973 Y90.034 E121.83560
G0 F10500 X89.362 Y89.716
G1 F1920 X80.873 Y81.226 E122.07085
G0 F10500 X81.430 Y81.076
G1 F1920 X89.750 Y89.397 E122.30142
G0 F10500 X90.139 Y89.078
G1 F1920 X81.892 Y80.831 E122.52994
G0 F10500 X82.245 Y80.477
G1 F1920 X90.527 Y88.759 E122.75944
G0 F10500 X90.869 Y88.394
G1 F1920 X82.599 Y80.124 E122.98861
G0 F10500 X87.704 Y90.886
G1 F1920 X67.110 Y70.292 E123.55928
G0 F10500 X66.864 Y70.753
G1 F1920 X87.244 Y91.133 E124.12402
G0 F10500 X86.783 Y91.379
G1 F1920 X66.617 Y71.214 E124.68282
G0 F10500 X66.371 Y71.675
G1 F1920 X86.322 Y91.626 E125.23567
G0 F10500 X85.861 Y91.872
G1 F1920 X66.125 Y72.135 E125.78258
G0 F10500 X65.944 Y72.661
G1 F1920 X85.335 Y92.053 E126.31993
G0 F10500 X84.792 Y92.217
G1 F1920 X65.780 Y73.204 E126.84678
G0 F10500 X65.615 Y73.746
G1 F1920 X84.250 Y92.382 E127.36318
G0 F10500 X83.707 Y92.546
G1 F1920 X65.451 Y74.290 E127.86906
G0 F10500 X65.286 Y74.832
G1 F1920 X83.164 Y92.710 E128.36447
G0 F10500 X82.562 Y92.815
G1 F1920 X65.181 Y75.434 E128.84611
G0 F10500 X65.117 Y76.077
G1 F1920 X81.919 Y92.879 E129.31170
G0 F10500 X81.276 Y92.943
G1 F1920 X65.054 Y76.721 E129.76122
G0 F10500 X64.990 Y77.365
G1 F1920 X80.632 Y93.007 E130.19467
;LAYER:3
G0 F10500 X80.000 Y93.247 Z1.175
;TYPE:WALL-INNER
G1 F1740 X77.027 Y92.953 E130.25321
G1 X74.164 Y92.085 E130.31183
G1 X71.532 Y90.678 E130.37031
G1 X69.219 Y88.781 E130.42893
G1 X67.321 Y86.467 E130.48757
G1 X65.914 Y83.836 E130.54603
G1 X65.045 Y80.972 E130.60467
G1 X64.753 Y78.000 E130.66319
G1 X65.045 Y75.027 E130.72172
G1 X65.914 Y72.164 E130.78035
G1 X67.321 Y69.533 E130.83881
G1 X69.219 Y67.219 E130.89745
G1 X71.530 Y65.323 E130.95602
G1 X74.165 Y63.914 E131.01457
G1 X77.029 Y63.045 E131.07322
G1 X80.000 Y62.753 E131.13171
G1 X82.972 Y63.045 E131.19023
G1 X85.833 Y63.913 E131.24881
G1 X88.469 Y65.323 E131.30739
G1 X90.782 Y67.221 E131.36601
G1 X92.676 Y69.530 E131.42453
G1 X94.085 Y72.163 E131.48304
G1 X94.954 Y75.029 E131.54173
G1 X95.247 Y78.000 E131.60022
G1 X94.954 Y80.971 E131.65872
G1 X94.085 Y83.836 E131.71738
G1 X92.676 Y86.470 E131.77592
G1 X90.782 Y88.779 E131.83443
G1 X88.467 Y90.678 E131.89310
G1 X85.836 Y92.085 E131.95156
G1 X82.970 Y92.954 E132.01025
G1 X80.000 Y93.247 E132.06872
G0 F10500 X80.000 Y81.280
G1 F1740 X80.967 Y81.020 E132.08834
G1 X81.639 Y80.839 E132.10198
G1 X82.839 Y79.638 E132.13525
G1 X83.278 Y78.000 E132.16848
G1 X82.839 Y76.361 E132.20172
G1 X81.638 Y75.159 E132.23502
G1 X80.000 Y74.722 E132.26824
G1 X78.360 Y75.159 E132.30149
G1 X77.651 Y75.868 E132.32114
G1 X77.159 Y76.361 E132.33479
G1 X76.721 Y78.000 E132.36803
G1 X77.160 Y79.638 E132.40126
G1 X77.868 Y80.346 E132.42088
G1 X78.359 Y80.839 E132.43451
G1 X79.326 Y81.098 E132.45412
G1 X80.000 Y81.280 E132.46780
G0 F10500 X80.000 Y80.762
;TYPE:WALL-OUTER
G1 F1500 X81.379 Y80.391 E132.49579
G1 X82.391 Y79.379 E132.52383
G1 X82.761 Y78.000 E132.55180
G1 X82.391 Y76.620 E132.57980
G1 X81.379 Y75.608 E132.60784
G1 X80.000 Y75.239 E132.63581
G1 X78.619 Y75.608 E132.66382
G1 X77.608 Y76.620 E132.69185
G1 X77.238 Y78.000 E132.71985
G1 X77.608 Y79.379 E132.74782
G1 X78.619 Y80.391 E132.77585
G1 X80.000 Y80.762 E132.80387
G0 F10500 X79.910 Y81.099
G0 X80.000 Y93.398
G0 X80.000 Y93.749
G1 F1500 X76.924 Y93.445 E132.86444
G1 X73.973 Y92.550 E132.92486
G1 X71.252 Y91.095 E132.98532
G1 X68.864 Y89.136 E133.04584
G1 X66.904 Y86.747 E133.10639
G1 X65.449 Y84.027 E133.16684
G1 X64.554 Y81.075 E133.22728
G1 X64.251 Y78.000 E133.28782
G1 X64.554 Y74.924 E133.34839
G1 X65.449 Y71.973 E133.40881
G1 X66.904 Y69.253 E133.46925
G1 X68.864 Y66.864 E133.52980
G1 X71.249 Y64.906 E133.59027
G1 X73.976 Y63.448 E133.65086
G1 X76.926 Y62.554 E133.71126
G1 X80.000 Y62.251 E133.77178
G1 X83.075 Y62.554 E133.83233
G1 X86.022 Y63.447 E133.89266
G1 X88.750 Y64.906 E133.95328
G1 X91.138 Y66.866 E134.01381
G1 X93.094 Y69.250 E134.07424
G1 X94.550 Y71.972 E134.13473
G1 X95.445 Y74.925 E134.19519
G1 X95.749 Y78.000 E134.25573
G1 X95.445 Y81.075 E134.31628
G1 X94.550 Y84.027 E134.37672
G1 X93.094 Y86.750 E134.43723
G1 X91.138 Y89.134 E134.49765
G1 X88.747 Y91.095 E134.55824
G1 X86.027 Y92.550 E134.61868
G1 X83.074 Y93.445 E134.67914
G1 X80.000 Y93.749 E134.73967
G0 F10500 X80.581 Y93.012
;TYPE:SKIN
G1 F2400 X95.012 Y78.582 E135.13955
G0 F10500 X95.053 Y77.834
G1 F2400 X79.833 Y93.053 E135.56129
G0 F10500 X79.190 Y92.990
G1 F2400 X94.990 Y77.189 E135.99913
G0 F10500 X94.926 Y76.546
G1 F2400 X78.546 Y92.926 E136.45303
G0 F10500 X77.903 Y92.862
G1 F2400 X94.863 Y75.902 E136.92300
G0 F10500 X94.799 Y75.259
G1 F2400 X77.259 Y92.799 E137.40904
G0 F10500 X76.685 Y92.666
G1 F2400 X94.666 Y74.685 E137.90731
G0 F10500 X94.501 Y74.142
G1 F2400 X76.142 Y92.502 E138.41606
G0 F10500 X75.600 Y92.337
G1 F2400 X94.337 Y73.600 E138.93527
G0 F10500 X94.173 Y73.057
G1 F2400 X75.057 Y92.173 E139.46499
G0 F10500 X74.514 Y92.008
G1 F2400 X94.008 Y72.515 E140.00516
G0 F10500 X93.804 Y72.011
G1 F2400 X74.011 Y91.805 E140.55365
G0 F10500 X73.550 Y91.559
G1 F2400 X93.558 Y71.550 E141.10810
G0 F10500 X93.311 Y71.090
G1 F2400 X73.089 Y91.312 E141.66846
G0 F10500 X72.629 Y91.066
G1 F2400 X93.065 Y70.629 E142.23477
G0 F10500 X92.819 Y70.169
G1 F2400 X72.168 Y90.820 E142.80702
G0 F10500 X71.707 Y90.573
G1 F2400 X81.121 Y81.159 E143.06789
G0 F10500 X80.154 Y81.419
G1 F2400 X71.306 Y90.267 E143.31307
G0 F10500 X70.918 Y89.948
G1 F2400 X79.531 Y81.334 E143.55176
G0 F10500 X78.974 Y81.185
G1 F2400 X70.530 Y89.629 E143.78574
G0 F10500 X70.142 Y89.310
G1 F2400 X78.417 Y81.035 E144.01505
G0 F10500 X78.009 Y80.736
G1 F2400 X69.753 Y88.992 E144.24383
G0 F10500 X69.365 Y88.673
G1 F2400 X77.655 Y80.382 E144.47356
G0 F10500 X77.303 Y80.028
G1 F2400 X69.043 Y88.287 E144.70244
G0 F10500 X68.724 Y87.899
G1 F2400 X76.980 Y79.643 E144.93122
G0 F10500 X76.830 Y79.086
G1 F2400 X68.405 Y87.511 E145.16468
G0 F10500 X68.087 Y87.122
G1 F2400 X76.680 Y78.529 E145.40279
G0 F10500 X76.551 Y77.951
G1 F2400 X67.768 Y86.734 E145.64618
G0 F10500 X67.453 Y86.341
G1 F2400 X76.809 Y76.986 E145.90542
G0 F10500 X78.984 Y74.811
G1 F2400 X88.343 Y65.452 E146.16477
G0 F10500 X88.735 Y65.767
G1 F2400 X79.949 Y74.553 E146.40823
G0 F10500 X78.720 Y63.054
G1 F2400 X65.055 Y76.719 E146.78690
G0 F10500 X64.978 Y77.503
G1 F2400 X79.504 Y62.977 E147.18942
G0 F10500 X80.237 Y62.951
G1 F2400 X64.952 Y78.236 E147.61298
G0 F10500 X65.016 Y78.879
G1 F2400 X80.880 Y63.015 E148.05258
G0 F10500 X81.524 Y63.078
G1 F2400 X65.079 Y79.524 E148.50829
G0 F10500 X65.132 Y75.935
G1 F2400 X77.936 Y63.131 E148.86310
G0 F10500 X77.152 Y63.208
G1 F2400 X65.209 Y75.151 E149.19404
G0 F10500 X65.490 Y74.163
G1 F2400 X76.164 Y63.488 E149.48984
G0 F10500 X75.149 Y63.796
G1 F2400 X65.797 Y73.148 E149.74899
G0 F10500 X66.153 Y72.086
G1 F2400 X74.087 Y64.152 E149.96884
G0 F10500 X72.566 Y64.966
G1 F2400 X66.965 Y70.566 E150.12404
G0 F10500 X68.713 Y68.111
G1 F2400 X70.111 Y66.714 E150.16276
G0 F10500 X82.168 Y63.141
G1 F2400 X65.142 Y80.167 E150.63456
G0 F10500 X65.205 Y80.811
G1 F2400 X82.812 Y63.205 E151.12245
G0 F10500 X83.374 Y63.349
G1 F2400 X65.350 Y81.373 E151.62190
G0 F10500 X65.514 Y81.916
G1 F2400 X83.917 Y63.514 E152.13185
G0 F10500 X84.459 Y63.679
G1 F2400 X65.679 Y82.459 E152.65225
G0 F10500 X65.844 Y83.001
G1 F2400 X85.002 Y63.843 E153.18313
G0 F10500 X85.545 Y64.008
G1 F2400 X66.008 Y83.544 E153.72450
G0 F10500 X66.221 Y84.038
G1 F2400 X86.039 Y64.220 E154.27367
G0 F10500 X86.500 Y64.466
G1 F2400 X66.467 Y84.499 E154.82879
G0 F10500 X66.714 Y84.960
G1 F2400 X86.960 Y64.713 E155.38984
G0 F10500 X87.421 Y64.959
G1 F2400 X66.960 Y85.420 E155.95682
G0 F10500 X67.206 Y85.881
G1 F2400 X87.882 Y65.206 E156.52975
G0 F10500 X89.123 Y66.086
G1 F2400 X80.528 Y74.681 E156.76792
G0 F10500 X81.086 Y74.830
G1 F2400 X89.511 Y66.405 E157.00138
G0 F10500 X89.900 Y66.724
G1 F2400 X81.644 Y74.979 E157.23015
G0 F10500 X82.028 Y75.302
G1 F2400 X90.288 Y67.042 E157.45904
G0 F10500 X90.672 Y67.366
G1 F2400 X82.382 Y75.656 E157.68876
G0 F10500 X82.735 Y76.009
G1 F2400 X90.991 Y67.754 E157.91752
G0 F10500 X91.310 Y68.142
G1 F2400 X83.034 Y76.417 E158.14684
G0 F10500 X83.184 Y76.974
G1 F2400 X91.628 Y68.531 E158.38082
G0 F10500 X91.947 Y68.919
G1 F2400 X83.333 Y77.532 E158.61950
G0 F10500 X83.417 Y78.156
G1 F2400 X92.266 Y69.307 E158.86471
G0 F10500 X92.572 Y69.708
G1 F2400 X83.157 Y79.123 E159.12561
G0 F10500 X94.934 Y79.367
G1 F2400 X81.366 Y92.935 E159.50158
G0 F10500 X82.150 Y92.858
G1 F2400 X94.857 Y80.151 E159.85370
G0 F10500 X94.779 Y80.936
G1 F2400 X82.934 Y92.781 E160.18193
G0 F10500 X83.948 Y92.474
G1 F2400 X94.473 Y81.950 E160.47357
G0 F10500 X94.166 Y82.964
G1 F2400 X84.963 Y92.166 E160.72858
G0 F10500 X86.082 Y91.754
G1 F2400 X93.753 Y84.083 E160.94115
G0 F10500 X92.939 Y85.604
G1 F2400 X87.602 Y90.942 E161.08905
G0 F10500 X90.325 Y88.926
G1 F2400 X90.927 Y88.324 E161.10574
;LAYER:4
M106 S226
G0 F10500 X90.780 Y88.781 Z1.425
;TYPE:WALL-INNER
G1 F1440 X88.469 Y90.676 E161.16430
G1 X85.834 Y92.085 E161.22284
G1 X82.970 Y92.954 E161.28149
G1 X79.999 Y93.247 E161.33999
G1 X77.028 Y92.954 E161.39848
G1 X74.166 Y92.086 E161.45708
G1 X71.530 Y90.676 E161.51566
G1 X69.219 Y88.781 E161.57422
G1 X67.321 Y86.467 E161.63286
G1 X65.914 Y83.837 E161.69131
G1 X65.045 Y80.970 E161.75001
G1 X64.753 Y77.999 E161.80850
G1 X65.045 Y75.027 E161.86702
G1 X65.914 Y72.164 E161.92564
G1 X67.321 Y69.533 E161.98410
G1 X69.219 Y67.219 E162.04275
G1 X71.532 Y65.321 E162.10137
G1 X74.163 Y63.914 E162.15984
G1 X77.029 Y63.045 E162.21852
G1 X80.000 Y62.753 E162.27701
G1 X82.972 Y63.045 E162.33553
G1 X85.835 Y63.914 E162.39415
G1 X88.467 Y65.321 E162.45263
G1 X90.780 Y67.219 E162.51126
G1 X92.678 Y69.533 E162.56990
G1 X94.085 Y72.163 E162.62835
G1 X94.954 Y75.029 E162.68703
G1 X95.247 Y77.999 E162.74551
G1 X94.954 Y80.970 E162.80400
G1 X94.085 Y83.837 E162.86270
G1 X92.678 Y86.467 E162.92115
G1 X90.780 Y88.781 E162.97979
G0 F10500 X82.840 Y79.638
G1 F1440 X83.068 Y78.785 E162.99709
G1 X83.278 Y78.001 E163.01299
G1 X83.050 Y77.147 E163.03031
G1 X82.839 Y76.361 E163.04626
G1 X81.638 Y75.159 E163.07955
G1 X80.000 Y74.722 E163.11277
G1 X78.360 Y75.159 E163.14603
G1 X77.159 Y76.361 E163.17932
G1 X76.931 Y77.214 E163.19662
G1 X76.721 Y77.999 E163.21255
G1 X76.949 Y78.853 E163.22987
G1 X77.160 Y79.638 E163.24579
G1 X78.359 Y80.839 E163.27905
G1 X80.000 Y81.280 E163.31234
G1 X81.638 Y80.839 E163.34558
G1 X82.840 Y79.638 E163.37887
G0 F10500 X82.391 Y79.379
;TYPE:WALL-OUTER
G1 F1260 X82.761 Y78.000 E163.40685
G1 X82.391 Y76.620 E163.43485
G1 X81.379 Y75.608 E163.46289
G1 X80.000 Y75.239 E163.49086
G1 X78.619 Y75.608 E163.51887
G1 X77.608 Y76.620 E163.54690
G1 X77.238 Y78.000 E163.57489
G1 X77.608 Y79.379 E163.60287
G1 X78.618 Y80.391 E163.63088
G1 X80.000 Y80.762 E163.65892
G1 X81.379 Y80.391 E163.68690
G1 X82.391 Y79.379 E163.71495
G0 F10500 X82.728 Y79.470
G0 X92.802 Y86.552
G0 X93.095 Y86.747
G1 F1260 X91.135 Y89.136 E163.77550
G1 X88.750 Y91.093 E163.83595
G1 X86.023 Y92.551 E163.89654
G1 X83.074 Y93.445 E163.95692
G1 X79.999 Y93.749 E164.01747
G1 X76.924 Y93.445 E164.07801
G1 X73.977 Y92.552 E164.13835
G1 X71.249 Y91.093 E164.19897
G1 X68.864 Y89.136 E164.25942
G1 X66.904 Y86.747 E164.31997
G1 X65.449 Y84.028 E164.38039
G1 X64.554 Y81.073 E164.44089
G1 X64.251 Y78.000 E164.50140
G1 X64.554 Y74.924 E164.56196
G1 X65.449 Y71.973 E164.62239
G1 X66.904 Y69.253 E164.68283
G1 X68.864 Y66.864 E164.74338
G1 X71.252 Y64.904 E164.80391
G1 X73.972 Y63.449 E164.86435
G1 X76.926 Y62.554 E164.92483
G1 X80.000 Y62.251 E164.98536
G1 X83.075 Y62.554 E165.04590
G1 X86.026 Y63.449 E165.10633
G1 X88.747 Y64.904 E165.16679
G1 X91.135 Y66.864 E165.22732
G1 X93.095 Y69.253 E165.28787
G1 X94.550 Y71.972 E165.34830
G1 X95.445 Y74.926 E165.40878
G1 X95.749 Y78.000 E165.46930
G1 X95.445 Y81.073 E165.52981
G1 X94.550 Y84.028 E165.59031
G1 X93.095 Y86.747 E165.65073
G0 F10500 X92.802 Y86.552
G0 X91.347 Y87.812
;TYPE:FILL
G1 F1680 X83.052 Y79.516 E165.88061
G0 F10500 X83.220 Y78.000
G0 X82.912 Y76.186
G1 F1680 X91.150 Y67.948 E166.10889
G0 F10500 X87.191 Y64.836
G1 F1680 X66.837 Y85.190 E166.67291
G0 F10500 X66.067 Y83.745
G1 F1680 X74.251 Y91.929 E166.89969
G0 F10500 X74.242 Y91.927
G1 F1680 X93.926 Y72.243 E167.44515
G0 F10500 X95.004 Y77.326
G1 F1680 X80.673 Y62.995 E167.84227
G0 F10500 X81.846 Y63.110
G1 F1680 X65.111 Y79.845 E168.30600
G0 F10500 X65.149 Y75.755
G1 F1680 X82.242 Y92.848 E168.77966
G0 F10500 X80.189 Y93.051
G1 F1680 X95.050 Y78.190 E169.19147
G0 F10500 X94.028 Y83.421
G1 F1680 X74.577 Y63.970 E169.73046
G0 F10500 X73.328 Y64.557
G1 F1680 X66.559 Y71.326 E169.91804
G0 F10500 X66.987 Y70.523
G1 F1680 X87.474 Y91.009 E170.48573
G0 F10500 X78.186 Y80.912
G1 F1680 X69.947 Y89.151 E170.71404
G0 F10500 X77.210 Y76.392
G0 X78.480 Y74.944
G1 F1680 X70.187 Y66.651 E170.94384
;LAYER:5
G0 F10500 X69.219 Y67.219 Z1.675
;TYPE:WALL-INNER
G1 F1440 X71.534 Y65.320 E171.00251
G1 X74.162 Y63.914 E171.06091
G1 X77.027 Y63.045 E171.11957
G1 X80.000 Y62.753 E171.17811
G1 X82.970 Y63.045 E171.23658
G1 X85.838 Y63.915 E171.29531
G1 X88.465 Y65.320 E171.35368
G1 X90.780 Y67.219 E171.41235
G1 X92.678 Y69.533 E171.47099
G1 X94.085 Y72.164 E171.52946
G1 X94.954 Y75.028 E171.58810
G1 X95.247 Y78.000 E171.64662
G1 X94.954 Y80.971 E171.70511
G1 X94.085 Y83.836 E171.76378
G1 X92.678 Y86.467 E171.82224
G1 X90.778 Y88.783 E171.88094
G1 X88.470 Y90.676 E171.93943
G1 X85.835 Y92.085 E171.99798
G1 X82.971 Y92.954 E172.05662
G1 X80.000 Y93.247 E172.11512
G1 X77.029 Y92.954 E172.17361
G1 X74.163 Y92.085 E172.23230
G1 X71.529 Y90.676 E172.29083
G1 X69.221 Y88.783 E172.34932
G1 X67.321 Y86.467 E172.40801
G1 X65.914 Y83.836 E172.46648
G1 X65.045 Y80.972 E172.52512
G1 X64.753 Y78.000 E172.58364
G1 X65.045 Y75.029 E172.64213
G1 X65.914 Y72.163 E172.70081
G1 X67.321 Y69.533 E172.75926
G1 X69.219 Y67.219 E172.81790
G0 F10500 X78.359 Y75.160
G1 F1440 X77.159 Y76.361 E172.85117
G1 X76.721 Y78.000 E172.88441
G1 X77.159 Y79.638 E172.91763
G1 X78.359 Y80.839 E172.95090
G1 X79.100 Y81.038 E172.96593
G1 X80.000 Y81.280 E172.98419
G1 X80.740 Y81.081 E172.99921
G1 X81.639 Y80.839 E173.01745
G1 X82.839 Y79.638 E173.05072
G1 X83.278 Y78.000 E173.08395
G1 X82.839 Y76.361 E173.11719
G1 X81.638 Y75.159 E173.15049
G1 X80.898 Y74.962 E173.16549
G1 X80.001 Y74.722 E173.18369
G1 X79.261 Y74.918 E173.19869
G1 X78.359 Y75.160 E173.21698
G0 F10500 X78.619 Y75.608
;TYPE:WALL-OUTER
G1 F1260 X77.608 Y76.620 E173.24501
G1 X77.238 Y78.000 E173.27301
G1 X77.608 Y79.379 E173.30099
G1 X78.618 Y80.391 E173.32900
G1 X80.000 Y80.762 E173.35704
G1 X81.379 Y80.391 E173.38502
G1 X82.391 Y79.379 E173.41306
G1 X82.761 Y78.000 E173.44104
G1 X82.391 Y76.620 E173.46903
G1 X81.379 Y75.608 E173.49708
G1 X80.000 Y75.239 E173.52505
G1 X78.619 Y75.608 E173.55306
G0 F10500 X78.372 Y75.360
G0 X71.446 Y65.198
G0 X71.252 Y64.904
G1 F1260 X73.973 Y63.449 E173.61352
G1 X76.924 Y62.554 E173.67394
G1 X80.000 Y62.251 E173.73451
G1 X83.073 Y62.554 E173.79501
G1 X86.027 Y63.449 E173.85549
G1 X88.747 Y64.904 E173.91593
G1 X91.135 Y66.864 E173.97647
G1 X93.095 Y69.253 E174.03702
G1 X94.550 Y71.973 E174.09746
G1 X95.445 Y74.924 E174.15788
G1 X95.749 Y78.000 E174.21845
G1 X95.445 Y81.075 E174.27900
G1 X94.550 Y84.027 E174.33944
G1 X93.095 Y86.747 E174.39988
G1 X91.133 Y89.139 E174.46050
G1 X88.750 Y91.094 E174.52090
G1 X86.026 Y92.550 E174.58142
G1 X83.075 Y93.445 E174.64184
G1 X80.000 Y93.749 E174.70239
G1 X76.926 Y93.445 E174.76291
G1 X73.972 Y92.550 E174.82339
G1 X71.249 Y91.094 E174.88390
G1 X68.866 Y89.139 E174.94429
G1 X66.904 Y86.747 E175.00491
G1 X65.449 Y84.027 E175.06536
G1 X64.554 Y81.075 E175.12580
G1 X64.251 Y78.000 E175.18634
G1 X64.554 Y74.926 E175.24687
G1 X65.449 Y71.972 E175.30735
G1 X66.904 Y69.253 E175.36777
G1 X68.864 Y66.864 E175.42832
G1 X71.252 Y64.904 E175.48886
G0 F10500 X71.446 Y65.198
G0 X70.187 Y66.651
;TYPE:FILL
G1 F1680 X78.481 Y74.945 E175.71869
G0 F10500 X73.329 Y64.556
G1 F1680 X66.558 Y71.327 E175.90632
G0 F10500 X66.987 Y70.523
G1 F1680 X87.474 Y91.009 E176.47401
G0 F10500 X91.347 Y87.812
G1 F1680 X83.051 Y79.516 E176.70390
G0 F10500 X83.220 Y78.000
G0 X82.912 Y76.186
G1 F1680 X91.150 Y67.948 E176.93218
G0 F10500 X87.191 Y64.836
G1 F1680 X66.837 Y85.190 E177.49620
G0 F10500 X66.069 Y83.746
G1 F1680 X74.251 Y91.928 E177.72292
G0 F10500 X74.242 Y91.927
G1 F1680 X93.926 Y72.243 E178.26838
G0 F10500 X95.004 Y77.326
G1 F1680 X80.673 Y62.995 E178.66550
G0 F10500 X81.846 Y63.110
G1 F1680 X65.111 Y79.845 E179.12924
G0 F10500 X65.149 Y75.755
G1 F1680 X82.242 Y92.848 E179.60289
G0 F10500 X80.189 Y93.051
G1 F1680 X95.051 Y78.189 E180.01473
G0 F10500 X94.028 Y83.421
G1 F1680 X74.577 Y63.970 E180.55372
G0 F10500 X77.211 Y79.607
G0 X78.186 Y80.912
G1 F1680 X69.947 Y89.151 E180.78203
;LAYER:6
M106 S191
G0 F10500 X69.217 Y88.779 Z1.925
;TYPE:WALL-INNER
G1 F2100 X67.324 Y86.472 E180.84051
G1 X65.913 Y83.834 E180.89913
G1 X65.045 Y80.972 E180.95773
G1 X64.753 Y78.000 E181.01624
G1 X65.045 Y75.029 E181.07474
G1 X65.914 Y72.165 E181.13338
G1 X67.324 Y69.528 E181.19197
G1 X69.217 Y67.221 E181.25045
G1 X71.532 Y65.321 E181.30913
G1 X74.164 Y63.914 E181.36761
G1 X77.027 Y63.045 E181.42624
G1 X80.000 Y62.753 E181.48477
G1 X82.970 Y63.045 E181.54325
G1 X85.836 Y63.914 E181.60193
G1 X88.467 Y65.321 E181.66039
G1 X90.780 Y67.219 E181.71902
G1 X92.678 Y69.533 E181.77766
G1 X94.085 Y72.164 E181.83612
G1 X94.954 Y75.028 E181.89476
G1 X95.247 Y78.000 E181.95328
G1 X94.954 Y80.971 E182.01178
G1 X94.085 Y83.836 E182.07044
G1 X92.678 Y86.467 E182.12890
G1 X90.780 Y88.781 E182.18755
G1 X88.469 Y90.676 E182.24611
G1 X85.833 Y92.086 E182.30468
G1 X82.971 Y92.954 E182.36328
G1 X80.000 Y93.247 E182.42178
G1 X77.029 Y92.954 E182.48028
G1 X74.165 Y92.085 E182.53892
G1 X71.530 Y90.676 E182.59747
G1 X69.217 Y88.779 E182.65609
G0 F10500 X78.359 Y80.839
G1 F2100 X80.000 Y81.280 E182.68938
G1 X81.638 Y80.839 E182.72262
G1 X82.839 Y79.638 E182.75590
G1 X83.278 Y78.000 E182.78913
G1 X82.839 Y76.361 E182.82237
G1 X81.638 Y75.159 E182.85567
G1 X80.000 Y74.722 E182.88889
G1 X78.360 Y75.159 E182.92214
G1 X77.159 Y76.361 E182.95544
G1 X76.721 Y78.000 E182.98868
G1 X77.160 Y79.638 E183.02191
G1 X78.359 Y80.839 E183.05516
G0 F10500 X78.618 Y80.391
;TYPE:WALL-OUTER
G1 F1800 X80.000 Y80.762 E183.08320
G1 X81.379 Y80.391 E183.11118
G1 X82.391 Y79.379 E183.13922
G1 X82.761 Y78.000 E183.16720
G1 X82.391 Y76.620 E183.19519
G1 X81.379 Y75.608 E183.22324
G1 X80.000 Y75.239 E183.25121
G1 X78.619 Y75.608 E183.27922
G1 X77.608 Y76.620 E183.30725
G1 X77.238 Y78.000 E183.33524
G1 X77.608 Y79.379 E183.36322
G1 X78.618 Y80.391 E183.39123
G0 F10500 X78.371 Y80.637
G0 X71.443 Y90.800
G0 X71.249 Y91.093
G1 F1800 X68.861 Y89.134 E183.45176
G1 X66.908 Y86.753 E183.51210
G1 X65.447 Y84.023 E183.57277
G1 X64.554 Y81.075 E183.63312
G1 X64.251 Y78.000 E183.69367
G1 X64.554 Y74.926 E183.75419
G1 X65.448 Y71.976 E183.81459
G1 X66.908 Y69.247 E183.87524
G1 X68.861 Y66.866 E183.93558
G1 X71.252 Y64.904 E183.99618
G1 X73.973 Y63.449 E184.05664
G1 X76.924 Y62.554 E184.11707
G1 X80.000 Y62.251 E184.17763
G1 X83.073 Y62.554 E184.23813
G1 X86.027 Y63.449 E184.29861
G1 X88.747 Y64.904 E184.35906
G1 X91.135 Y66.864 E184.41959
G1 X93.095 Y69.253 E184.48014
G1 X94.550 Y71.973 E184.54058
G1 X95.445 Y74.924 E184.60101
G1 X95.749 Y78.000 E184.66157
G1 X95.445 Y81.075 E184.72212
G1 X94.550 Y84.027 E184.78256
G1 X93.095 Y86.747 E184.84300
G1 X91.135 Y89.136 E184.90355
G1 X88.750 Y91.093 E184.96400
G1 X86.022 Y92.552 E185.02462
G1 X83.075 Y93.445 E185.08496
G1 X80.000 Y93.749 E185.14551
G1 X76.926 Y93.445 E185.20603
G1 X73.976 Y92.551 E185.26643
G1 X71.249 Y91.093 E185.32702
G0 F10500 X71.978 Y90.716
;TYPE:SKIN
G1 F3000 X67.278 Y86.016 E185.45726
G0 F10500 X66.465 Y84.496
G1 F3000 X73.500 Y91.531 E185.65221
G0 F10500 X74.758 Y92.082
G1 F3000 X65.915 Y83.239 E185.89725
G0 F10500 X65.607 Y82.224
G1 F3000 X75.772 Y92.389 E186.17893
G0 F10500 X76.786 Y92.696
G1 F3000 X65.299 Y81.209 E186.49724
G0 F10500 X65.161 Y80.364
G1 F3000 X77.633 Y92.836 E186.84285
G0 F10500 X78.418 Y92.913
G1 F3000 X65.084 Y79.579 E187.21234
G0 F10500 X65.007 Y78.795
G1 F3000 X79.202 Y92.990 E187.60569
G0 F10500 X79.987 Y93.068
G1 F3000 X64.930 Y78.011 E188.02293
G0 F10500 X64.990 Y77.365
G1 F3000 X80.632 Y93.007 E188.45638
G0 F10500 X81.276 Y92.943
G1 F3000 X65.054 Y76.721 E188.90590
G0 F10500 X65.117 Y76.077
G1 F3000 X81.920 Y92.880 E189.37152
G0 F10500 X82.563 Y92.816
G1 F3000 X65.181 Y75.434 E189.85318
G0 F10500 X65.286 Y74.832
G1 F3000 X83.164 Y92.710 E190.34859
G0 F10500 X83.708 Y92.546
G1 F3000 X65.451 Y74.290 E190.85449
G0 F10500 X65.615 Y73.746
G1 F3000 X84.250 Y92.382 E191.37089
G0 F10500 X84.793 Y92.218
G1 F3000 X65.780 Y73.204 E191.89777
G0 F10500 X65.944 Y72.661
G1 F3000 X85.335 Y92.053 E192.43512
G0 F10500 X85.861 Y91.872
G1 F3000 X66.125 Y72.136 E192.98201
G0 F10500 X66.371 Y71.675
G1 F3000 X86.322 Y91.625 E193.53485
G0 F10500 X86.783 Y91.379
G1 F3000 X66.618 Y71.214 E194.09364
G0 F10500 X66.864 Y70.753
G1 F3000 X87.243 Y91.132 E194.65835
G0 F10500 X87.704 Y90.886
G1 F3000 X67.111 Y70.293 E195.22899
G0 F10500 X67.358 Y69.833
G1 F3000 X76.912 Y79.386 E195.49373
G0 F10500 X76.651 Y78.419
G1 F3000 X67.644 Y69.412 E195.74331
G0 F10500 X67.962 Y69.023
G1 F3000 X76.623 Y77.684 E195.98332
G0 F10500 X76.772 Y77.126
G1 F3000 X68.281 Y68.635 E196.21861
G0 F10500 X68.600 Y68.247
G1 F3000 X76.921 Y76.568 E196.44919
G0 F10500 X77.166 Y76.105
G1 F3000 X68.919 Y67.858 E196.67771
G0 F10500 X69.238 Y67.470
G1 F3000 X77.520 Y75.752 E196.90721
G0 F10500 X77.873 Y75.398
G1 F3000 X69.605 Y67.130 E197.13632
G0 F10500 X69.993 Y66.811
G1 F3000 X78.227 Y75.045 E197.36449
G0 F10500 X78.759 Y74.870
G1 F3000 X70.381 Y66.492 E197.59665
G0 F10500 X70.770 Y66.173
G1 F3000 X79.317 Y74.721 E197.83351
G0 F10500 X79.876 Y74.572
G1 F3000 X71.158 Y65.854 E198.07509
G0 F10500 X71.546 Y65.536
G1 F3000 X80.750 Y74.740 E198.33014
G0 F10500 X81.715 Y74.997
G1 F3000 X71.991 Y65.273 E198.59960
G0 F10500 X72.452 Y65.027
G1 F3000 X92.971 Y85.547 E199.16820
G0 F10500 X92.725 Y86.008
G1 F3000 X82.997 Y76.279 E199.43778
G0 F10500 X83.256 Y77.246
G1 F3000 X92.463 Y86.452 E199.69290
G0 F10500 X92.144 Y86.841
G1 F3000 X83.425 Y78.122 E199.93451
G0 F10500 X83.275 Y78.679
G1 F3000 X91.826 Y87.230 E200.17146
G0 F10500 X91.507 Y87.618
G1 F3000 X83.126 Y79.237 E200.40371
G0 F10500 X82.952 Y79.770
G1 F3000 X91.188 Y88.006 E200.63193
G0 F10500 X90.869 Y88.394
G1 F3000 X82.599 Y80.124 E200.86110
G0 F10500 X82.245 Y80.477
G1 F3000 X90.527 Y88.759 E201.09060
G0 F10500 X90.139 Y89.078
G1 F3000 X81.892 Y80.831 E201.31912
G0 F10500 X81.430 Y81.076
G1 F3000 X89.750 Y89.397 E201.54969
G0 F10500 X89.362 Y89.716
G1 F3000 X80.873 Y81.226 E201.78494
G0 F10500 X80.316 Y81.376
G1 F3000 X88.973 Y90.034 E202.02484
G0 F10500 X88.585 Y90.353
G1 F3000 X79.580 Y81.348 E202.27438
G0 F10500 X78.614 Y81.088
G1 F3000 X88.164 Y90.639 E202.53903
G0 F10500 X93.218 Y85.086
G1 F3000 X72.912 Y64.780 E203.10172
G0 F10500 X73.373 Y64.534
G1 F3000 X93.464 Y84.625 E203.65845
G0 F10500 X93.711 Y84.165
G1 F3000 X73.833 Y64.288 E204.20927
G0 F10500 X74.306 Y64.053
G1 F3000 X93.946 Y83.693 E204.75350
G0 F10500 X94.110 Y83.150
G1 F3000 X74.849 Y63.889 E205.28724
G0 F10500 X75.391 Y63.724
G1 F3000 X94.275 Y82.607 E205.81051
G0 F10500 X94.439 Y82.064
G1 F3000 X75.934 Y63.559 E206.32329
G0 F10500 X76.476 Y63.394
G1 F3000 X94.603 Y81.522 E206.82562
G0 F10500 X94.767 Y80.979
G1 F3000 X77.019 Y63.230 E207.31744
G0 F10500 X77.655 Y63.160
G1 F3000 X94.839 Y80.343 E207.79360
G0 F10500 X94.902 Y79.700
G1 F3000 X78.299 Y63.096 E208.25369
G0 F10500 X78.943 Y63.033
G1 F3000 X94.966 Y79.056 E208.69770
G0 F10500 X95.030 Y78.413
G1 F3000 X79.586 Y62.969 E209.12566
G0 F10500 X80.281 Y62.957
G1 F3000 X95.042 Y77.718 E209.53470
G0 F10500 X94.965 Y76.934
G1 F3000 X81.065 Y63.034 E209.91987
G0 F10500 X81.849 Y63.111
G1 F3000 X94.888 Y76.149 E210.28118
G0 F10500 X94.810 Y75.364
G1 F3000 X82.633 Y63.188 E210.61860
G0 F10500 X83.559 Y63.406
G1 F3000 X94.591 Y74.439 E210.92431
G0 F10500 X94.284 Y73.425
G1 F3000 X84.574 Y63.714 E211.19340
G0 F10500 X85.588 Y64.022
G1 F3000 X93.977 Y72.410 E211.42585
G0 F10500 X93.253 Y70.979
G1 F3000 X87.018 Y64.744 E211.59862
G0 F10500 X88.811 Y65.830
G1 F3000 X92.163 Y69.182 E211.69151
;LAYER:7
G0 F10500 X92.678 Y69.533 Z2.175
;TYPE:WALL-INNER
G1 F2100 X94.085 Y72.163 E211.74995
G1 X94.954 Y75.029 E211.80863
G1 X95.247 Y78.000 E211.86713
G1 X94.954 Y80.970 E211.92561
G1 X94.085 Y83.837 E211.98431
G1 X92.678 Y86.467 E212.04275
G1 X90.780 Y88.781 E212.10140
G1 X88.469 Y90.676 E212.15996
G1 X85.834 Y92.085 E212.21851
G1 X82.970 Y92.954 E212.27715
G1 X80.000 Y93.247 E212.33563
G1 X77.028 Y92.954 E212.39414
G1 X74.166 Y92.086 E212.45275
G1 X71.530 Y90.676 E212.51132
G1 X69.219 Y88.781 E212.56988
G1 X67.321 Y86.467 E212.62852
G1 X65.914 Y83.837 E212.68697
G1 X65.045 Y80.970 E212.74567
G1 X64.753 Y78.000 E212.80414
G1 X65.045 Y75.027 E212.86268
G1 X65.914 Y72.164 E212.92130
G1 X67.321 Y69.533 E212.97977
G1 X69.219 Y67.219 E213.03841
G1 X71.532 Y65.321 E213.09703
G1 X74.163 Y63.914 E213.15550
G1 X77.029 Y63.045 E213.21418
G1 X80.000 Y62.753 E213.27267
G1 X82.972 Y63.045 E213.33119
G1 X85.835 Y63.914 E213.38981
G1 X88.467 Y65.321 E213.44829
G1 X90.780 Y67.219 E213.50692
G1 X92.678 Y69.533 E213.56556
G0 F10500 X82.839 Y76.361
G1 F2100 X81.638 Y75.159 E213.59886
G1 X80.000 Y74.722 E213.63207
G1 X78.360 Y75.159 E213.66533
G1 X77.159 Y76.361 E213.69862
G1 X76.721 Y78.000 E213.73187
G1 X77.160 Y79.638 E213.76510
G1 X78.359 Y80.839 E213.79835
G1 X80.000 Y81.280 E213.83164
G1 X81.638 Y80.839 E213.86488
G1 X82.839 Y79.638 E213.89816
G1 X83.278 Y78.000 E213.93139
G1 X82.839 Y76.361 E213.96464
G0 F10500 X82.391 Y76.620
;TYPE:WALL-OUTER
G1 F1800 X81.379 Y75.608 E213.99268
G1 X80.000 Y75.239 E214.02065
G1 X78.619 Y75.608 E214.04866
G1 X77.608 Y76.620 E214.07669
G1 X77.238 Y78.000 E214.10469
G1 X77.608 Y79.379 E214.13266
G1 X78.618 Y80.391 E214.16068
G1 X80.000 Y80.762 E214.18871
G1 X81.379 Y80.391 E214.21670
G1 X82.391 Y79.379 E214.24474
G1 X82.761 Y78.000 E214.27272
G1 X82.391 Y76.620 E214.30071
G0 F10500 X82.639 Y76.374
G0 X92.801 Y69.447
G0 X93.095 Y69.253
G1 F1800 X94.550 Y71.972 E214.36114
G1 X95.445 Y74.926 E214.42162
G1 X95.749 Y78.000 E214.48214
G1 X95.445 Y81.073 E214.54265
G1 X94.550 Y84.028 E214.60315
G1 X93.095 Y86.747 E214.66357
G1 X91.135 Y89.136 E214.72412
G1 X88.750 Y91.093 E214.78458
G1 X86.023 Y92.551 E214.84517
G1 X83.073 Y93.445 E214.90557
G1 X80.000 Y93.749 E214.96607
G1 X76.924 Y93.445 E215.02664
G1 X73.977 Y92.552 E215.08698
G1 X71.249 Y91.093 E215.14759
G1 X68.864 Y89.136 E215.20805
G1 X66.904 Y86.747 E215.26859
G1 X65.449 Y84.028 E215.32902
G1 X64.554 Y81.073 E215.38952
G1 X64.251 Y78.000 E215.45002
G1 X64.554 Y74.924 E215.51059
G1 X65.449 Y71.973 E215.57101
G1 X66.904 Y69.253 E215.63145
G1 X68.864 Y66.864 E215.69200
G1 X71.252 Y64.904 E215.75254
G1 X73.972 Y63.449 E215.81298
G1 X76.926 Y62.554 E215.87346
G1 X80.000 Y62.251 E215.93399
G1 X83.075 Y62.554 E215.99453
G1 X86.026 Y63.449 E216.05495
G1 X88.747 Y64.904 E216.11541
G1 X91.135 Y66.864 E216.17595
G1 X93.095 Y69.253 E216.23650
G0 F10500 X92.572 Y69.708
;TYPE:SKIN
G1 F3000 X83.157 Y79.123 E216.49739
G0 F10500 X83.417 Y78.156
G1 F3000 X92.266 Y69.307 E216.74260
G0 F10500 X91.947 Y68.919
G1 F3000 X83.333 Y77.532 E216.98129
G0 F10500 X83.184 Y76.974
G1 F3000 X91.628 Y68.531 E217.21526
G0 F10500 X91.309 Y68.143
G1 F3000 X83.034 Y76.417 E217.44455
G0 F10500 X82.735 Y76.009
G1 F3000 X90.991 Y67.754 E217.67332
G0 F10500 X90.672 Y67.366
G1 F3000 X82.382 Y75.656 E217.90304
G0 F10500 X82.028 Y75.302
G1 F3000 X90.288 Y67.042 E218.13193
G0 F10500 X89.900 Y66.724
G1 F3000 X81.644 Y74.979 E218.36069
G0 F10500 X81.086 Y74.830
G1 F3000 X89.511 Y66.405 E218.59415
G0 F10500 X89.123 Y66.086
G1 F3000 X80.528 Y74.681 E218.83233
G0 F10500 X79.949 Y74.553
G1 F3000 X88.735 Y65.767 E219.07579
G0 F10500 X88.343 Y65.452
G1 F3000 X78.984 Y74.811 E219.33513
G0 F10500 X76.809 Y76.986
G1 F3000 X67.453 Y86.341 E219.59438
G0 F10500 X67.768 Y86.734
G1 F3000 X76.551 Y77.951 E219.83776
G0 F10500 X76.680 Y78.529
G1 F3000 X68.087 Y87.122 E220.07588
G0 F10500 X68.405 Y87.511
G1 F3000 X76.830 Y79.086 E220.30934
G0 F10500 X76.980 Y79.643
G1 F3000 X68.724 Y87.899 E220.53812
G0 F10500 X69.043 Y88.287
G1 F3000 X77.303 Y80.028 E220.76699
G0 F10500 X77.655 Y80.382
G1 F3000 X69.365 Y88.673 E220.99673
G0 F10500 X69.753 Y88.991
G1 F3000 X78.009 Y80.736 E221.22549
G0 F10500 X78.417 Y81.035
G1 F3000 X70.142 Y89.310 E221.45480
G0 F10500 X70.530 Y89.629
G1 F3000 X78.974 Y81.185 E221.68879
G0 F10500 X79.531 Y81.334
G1 F3000 X70.918 Y89.948 E221.92747
G0 F10500 X71.307 Y90.266
G1 F3000 X80.154 Y81.419 E222.17263
G0 F10500 X81.122 Y81.158
G1 F3000 X71.708 Y90.572 E222.43349
G0 F10500 X72.168 Y90.819
G1 F3000 X92.819 Y70.169 E223.00573
G0 F10500 X93.065 Y70.629
G1 F3000 X72.629 Y91.066 E223.57204
G0 F10500 X73.089 Y91.312
G1 F3000 X93.311 Y71.090 E224.13240
G0 F10500 X93.558 Y71.550
G1 F3000 X73.550 Y91.559 E224.68685
G0 F10500 X74.010 Y91.805
G1 F3000 X93.804 Y72.011 E225.23535
G0 F10500 X94.008 Y72.515
G1 F3000 X74.514 Y92.009 E225.77554
G0 F10500 X75.056 Y92.174
G1 F3000 X94.173 Y73.057 E226.30528
G0 F10500 X94.337 Y73.600
G1 F3000 X75.599 Y92.338 E226.82452
G0 F10500 X76.141 Y92.503
G1 F3000 X94.501 Y74.142 E227.33330
G0 F10500 X94.666 Y74.685
G1 F3000 X76.685 Y92.667 E227.83158
G0 F10500 X77.259 Y92.799
G1 F3000 X94.799 Y75.259 E228.31762
G0 F10500 X94.863 Y75.902
G1 F3000 X77.902 Y92.863 E228.78762
G0 F10500 X78.546 Y92.927
G1 F3000 X94.926 Y76.546 E229.24154
G0 F10500 X94.990 Y77.189
G1 F3000 X79.189 Y92.990 E229.67939
G0 F10500 X79.833 Y93.053
G1 F3000 X95.053 Y77.834 E230.10113
G0 F10500 X95.012 Y78.582
G1 F3000 X80.581 Y93.012 E230.50101
G0 F10500 X81.366 Y92.935
G1 F3000 X94.935 Y79.366 E230.87701
G0 F10500 X87.882 Y65.205
G1 F3000 X67.206 Y85.881 E231.44996
G0 F10500 X66.960 Y85.421
G1 F3000 X87.421 Y64.959 E232.01696
G0 F10500 X86.961 Y64.712
G1 F3000 X66.713 Y84.961 E232.57806
G0 F10500 X66.467 Y84.499
G1 F3000 X86.500 Y64.466 E233.13318
G0 F10500 X86.040 Y64.220
G1 F3000 X66.220 Y84.039 E233.68239
G0 F10500 X66.007 Y83.545
G1 F3000 X85.545 Y64.008 E234.22379
G0 F10500 X85.002 Y63.843
G1 F3000 X65.843 Y83.002 E234.75469
G0 F10500 X65.679 Y82.459
G1 F3000 X84.459 Y63.679 E235.27510
G0 F10500 X83.917 Y63.514
G1 F3000 X65.514 Y81.916 E235.78504
G0 F10500 X65.350 Y81.373
G1 F3000 X83.374 Y63.349 E236.28450
G0 F10500 X82.812 Y63.205
G1 F3000 X65.205 Y80.811 E236.77238
G0 F10500 X65.142 Y80.167
G1 F3000 X82.168 Y63.141 E237.24418
G0 F10500 X81.524 Y63.078
G1 F3000 X65.079 Y79.524 E237.69990
G0 F10500 X65.016 Y78.879
G1 F3000 X80.880 Y63.015 E238.13950
G0 F10500 X80.237 Y62.951
G1 F3000 X64.952 Y78.236 E238.56305
G0 F10500 X64.978 Y77.503
G1 F3000 X79.504 Y62.977 E238.96558
G0 F10500 X78.720 Y63.054
G1 F3000 X65.055 Y76.719 E239.34424
G0 F10500 X65.132 Y75.935
G1 F3000 X77.936 Y63.131 E239.69905
G0 F10500 X77.152 Y63.208
G1 F3000 X65.209 Y75.151 E240.02999
G0 F10500 X65.490 Y74.163
G1 F3000 X76.164 Y63.488 E240.32579
G0 F10500 X75.149 Y63.796
G1 F3000 X65.797 Y73.148 E240.58494
G0 F10500 X66.153 Y72.086
G1 F3000 X74.089 Y64.150 E240.80485
G0 F10500 X72.568 Y64.964
G1 F3000 X66.965 Y70.566 E240.96010
G0 F10500 X68.713 Y68.111
G1 F3000 X70.111 Y66.713 E240.99884
G0 F10500 X94.857 Y80.151
G1 F3000 X82.150 Y92.858 E241.35096
G0 F10500 X82.934 Y92.781
G1 F3000 X94.780 Y80.935 E241.67922
G0 F10500 X94.473 Y81.949
G1 F3000 X83.948 Y92.474 E241.97087
G0 F10500 X84.963 Y92.166
G1 F3000 X94.166 Y82.963 E242.22589
G0 F10500 X93.755 Y84.081
G1 F3000 X86.083 Y91.753 E242.43849
G0 F10500 X87.603 Y90.941
G1 F3000 X92.942 Y85.602 E242.58643
G0 F10500 X90.926 Y88.325
G1 F3000 X90.323 Y88.927 E242.60313
;LAYER:8
G0 F10500 X90.780 Y88.781 Z2.425
;TYPE:WALL-INNER
G1 F2100 X88.467 Y90.678 E242.66174
G1 X85.836 Y92.085 E242.72020
G1 X82.970 Y92.954 E242.77889
G1 X80.000 Y93.247 E242.83736
G1 X77.025 Y92.953 E242.89594
G1 X76.605 Y92.827 E242.90453
G1 X74.163 Y92.085 E242.95454
G1 X71.532 Y90.678 E243.01300
G1 X69.219 Y88.781 E243.07162
G1 X67.321 Y86.467 E243.13026
G1 X65.914 Y83.837 E243.18871
G1 X65.045 Y80.970 E243.24741
G1 X64.753 Y78.000 E243.30588
G1 X65.046 Y75.025 E243.36446
G1 X65.172 Y74.605 E243.37305
G1 X65.914 Y72.163 E243.42306
G1 X67.321 Y69.533 E243.48150
G1 X69.219 Y67.219 E243.54015
G1 X71.534 Y65.320 E243.59882
G1 X73.778 Y64.121 E243.64867
G1 X74.165 Y63.914 E243.65727
G1 X77.029 Y63.045 E243.71591
G1 X80.000 Y62.753 E243.77441
G1 X82.974 Y63.046 E243.83296
G1 X83.394 Y63.172 E243.84156
G1 X85.838 Y63.915 E243.89161
G1 X88.080 Y65.113 E243.94142
G1 X88.469 Y65.322 E243.95007
G1 X90.780 Y67.219 E244.00865
G1 X92.678 Y69.533 E244.06730
G1 X93.878 Y71.778 E244.11718
G1 X94.085 Y72.165 E244.12577
G1 X94.954 Y75.029 E244.18442
G1 X95.247 Y78.000 E244.24292
G1 X94.954 Y80.970 E244.30139
G1 X94.085 Y83.837 E244.36009
G1 X92.885 Y86.080 E244.40994
G1 X92.676 Y86.469 E244.41859
G1 X90.780 Y88.781 E244.47718
G0 F10500 X81.638 Y80.839
G1 F2100 X82.839 Y79.638 E244.51046
G1 X83.278 Y78.000 E244.54369
G1 X82.839 Y76.361 E244.57694
G1 X81.638 Y75.159 E244.61023
G1 X80.000 Y74.722 E244.64345
G1 X78.360 Y75.159 E244.67670
G1 X77.159 Y76.361 E244.71000
G1 X76.721 Y78.000 E244.74324
G1 X77.160 Y79.638 E244.77647
G1 X78.359 Y80.839 E244.80972
G1 X80.000 Y81.280 E244.84302
G1 X81.638 Y80.839 E244.87625
G0 F10500 X81.379 Y80.391
;TYPE:WALL-OUTER
G1 F1800 X82.391 Y79.379 E244.90430
G1 X82.761 Y78.000 E244.93227
G1 X82.391 Y76.620 E244.96027
G1 X81.379 Y75.608 E244.98831
G1 X80.000 Y75.239 E245.01628
G1 X78.619 Y75.608 E245.04429
G1 X77.608 Y76.620 E245.07232
G1 X77.238 Y78.000 E245.10032
G1 X77.608 Y79.379 E245.12829
G1 X78.618 Y80.391 E245.15631
G1 X80.000 Y80.762 E245.18435
G1 X81.379 Y80.391 E245.21233
G0 F10500 X81.625 Y80.639
G0 X88.557 Y90.799
G0 X88.747 Y91.095
G1 F1800 X86.027 Y92.550 E245.27277
G1 X83.073 Y93.445 E245.33325
G1 X80.000 Y93.749 E245.39376
G1 X76.924 Y93.445 E245.45432
G1 X73.973 Y92.550 E245.51475
G1 X71.252 Y91.095 E245.57521
G1 X68.864 Y89.136 E245.63573
G1 X66.904 Y86.747 E245.69628
G1 X65.449 Y84.028 E245.75670
G1 X64.554 Y81.073 E245.81720
G1 X64.251 Y78.000 E245.87771
G1 X64.554 Y74.924 E245.93827
G1 X65.449 Y71.973 E245.99870
G1 X66.904 Y69.253 E246.05914
G1 X68.864 Y66.864 E246.11969
G1 X71.252 Y64.904 E246.18022
G1 X73.972 Y63.449 E246.24066
G1 X76.926 Y62.554 E246.30114
G1 X80.000 Y62.251 E246.36167
G1 X83.075 Y62.554 E246.42221
G1 X86.026 Y63.449 E246.48264
G1 X88.747 Y64.904 E246.54310
G1 X91.135 Y66.864 E246.60363
G1 X93.095 Y69.253 E246.66418
G1 X94.550 Y71.972 E246.72461
G1 X95.445 Y74.926 E246.78509
G1 X95.749 Y78.000 E246.84561
G1 X95.445 Y81.073 E246.90612
G1 X94.550 Y84.028 E246.96662
G1 X93.095 Y86.747 E247.02704
G1 X91.135 Y89.136 E247.08759
G1 X88.747 Y91.095 E247.14811
G0 F10500 X88.165 Y90.640
;TYPE:SKIN
G1 F3000 X78.614 Y81.088 E247.41279
G0 F10500 X79.580 Y81.348
G1 F3000 X88.585 Y90.353 E247.66233
G0 F10500 X88.973 Y90.034
G1 F3000 X80.316 Y81.376 E247.90223
G0 F10500 X80.873 Y81.226
G1 F3000 X89.362 Y89.716 E248.13748
G0 F10500 X89.750 Y89.397
G1 F3000 X81.430 Y81.076 E248.36804
G0 F10500 X81.892 Y80.831
G1 F3000 X90.139 Y89.078 E248.59657
G0 F10500 X90.527 Y88.759
G1 F3000 X82.245 Y80.477 E248.82607
G0 F10500 X82.599 Y80.124
G1 F3000 X90.869 Y88.394 E249.05524
G0 F10500 X91.188 Y88.006
G1 F3000 X82.952 Y79.770 E249.28346
G0 F10500 X83.126 Y79.237
G1 F3000 X91.507 Y87.618 E249.51571
G0 F10500 X91.825 Y87.229
G1 F3000 X83.275 Y78.679 E249.75263
G0 F10500 X83.425 Y78.122
G1 F3000 X92.144 Y86.841 E249.99424
G0 F10500 X92.463 Y86.452
G1 F3000 X83.256 Y77.246 E250.24936
G0 F10500 X82.997 Y76.279
G1 F3000 X92.725 Y86.007 E250.51892
G0 F10500 X92.971 Y85.547
G1 F3000 X72.451 Y65.026 E251.08756
G0 F10500 X72.912 Y64.780
G1 F3000 X93.218 Y85.086 E251.65025
G0 F10500 X93.464 Y84.625
G1 F3000 X73.372 Y64.534 E252.20700
G0 F10500 X73.833 Y64.288
G1 F3000 X93.711 Y84.165 E252.75781
G0 F10500 X93.946 Y83.693
G1 F3000 X74.306 Y64.053 E253.30205
G0 F10500 X74.848 Y63.888
G1 F3000 X94.110 Y83.150 E253.83581
G0 F10500 X94.275 Y82.607
G1 F3000 X75.391 Y63.724 E254.35908
G0 F10500 X75.934 Y63.559
G1 F3000 X94.439 Y82.065 E254.87188
G0 F10500 X94.603 Y81.522
G1 F3000 X76.476 Y63.394 E255.37420
G0 F10500 X77.019 Y63.230
G1 F3000 X94.768 Y80.979 E255.86604
G0 F10500 X94.839 Y80.343
G1 F3000 X77.655 Y63.159 E256.34222
G0 F10500 X78.299 Y63.096
G1 F3000 X94.902 Y79.700 E256.80231
G0 F10500 X94.966 Y79.056
G1 F3000 X78.942 Y63.032 E257.24634
G0 F10500 X79.586 Y62.969
G1 F3000 X95.030 Y78.413 E257.67431
G0 F10500 X95.042 Y77.718
G1 F3000 X80.281 Y62.957 E258.08334
G0 F10500 X81.065 Y63.034
G1 F3000 X94.965 Y76.934 E258.46852
G0 F10500 X94.888 Y76.149
G1 F3000 X81.850 Y63.112 E258.82979
G0 F10500 X82.635 Y63.189
G1 F3000 X94.810 Y75.365 E259.16718
G0 F10500 X94.592 Y74.439
G1 F3000 X83.559 Y63.406 E259.47292
G0 F10500 X84.574 Y63.715
G1 F3000 X94.284 Y73.425 E259.74199
G0 F10500 X93.976 Y72.409
G1 F3000 X85.589 Y64.022 E259.97439
G0 F10500 X87.020 Y64.746
G1 F3000 X93.252 Y70.978 E260.14709
G0 F10500 X92.163 Y69.182
G1 F3000 X88.812 Y65.831 E260.23994
G0 F10500 X81.715 Y74.997
G1 F3000 X71.990 Y65.273 E260.50942
G0 F10500 X71.546 Y65.536
G1 F3000 X80.750 Y74.740 E260.76446
G0 F10500 X79.876 Y74.572
G1 F3000 X71.158 Y65.854 E261.00604
G0 F10500 X70.770 Y66.173
G1 F3000 X79.317 Y74.721 E261.24290
G0 F10500 X78.759 Y74.870
G1 F3000 X70.381 Y66.492 E261.47506
G0 F10500 X69.992 Y66.810
G1 F3000 X78.227 Y75.045 E261.70326
G0 F10500 X77.873 Y75.398
G1 F3000 X69.604 Y67.129 E261.93239
G0 F10500 X69.239 Y67.471
G1 F3000 X77.520 Y75.752 E262.16187
G0 F10500 X77.166 Y76.105
G1 F3000 X68.920 Y67.859 E262.39037
G0 F10500 X68.601 Y68.247
G1 F3000 X76.921 Y76.568 E262.62093
G0 F10500 X76.772 Y77.126
G1 F3000 X68.282 Y68.636 E262.85620
G0 F10500 X67.963 Y69.024
G1 F3000 X76.623 Y77.684 E263.09617
G0 F10500 X76.651 Y78.419
G1 F3000 X67.644 Y69.412 E263.34576
G0 F10500 X67.357 Y69.832
G1 F3000 X76.912 Y79.386 E263.61052
G0 F10500 X65.084 Y79.579
G1 F3000 X78.418 Y92.913 E263.98001
G0 F10500 X79.202 Y92.990
G1 F3000 X65.007 Y78.795 E264.37336
G0 F10500 X64.930 Y78.011
G1 F3000 X79.987 Y93.068 E264.79060
G0 F10500 X77.633 Y92.836
G1 F3000 X65.161 Y80.364 E265.13621
G0 F10500 X65.300 Y81.210
G1 F3000 X76.787 Y92.697 E265.45452
G0 F10500 X75.772 Y92.389
G1 F3000 X65.607 Y82.224 E265.73620
G0 F10500 X65.914 Y83.238
G1 F3000 X74.757 Y92.081 E265.98124
G0 F10500 X73.500 Y91.531
G1 F3000 X66.463 Y84.494 E266.17624
G0 F10500 X67.278 Y86.016
G1 F3000 X71.980 Y90.718 E266.30654
G0 F10500 X80.632 Y93.007
G1 F3000 X64.991 Y77.365 E266.73997
G0 F10500 X65.054 Y76.721
G1 F3000 X81.276 Y92.944 E267.18950
G0 F10500 X81.920 Y92.880
G1 F3000 X65.118 Y76.078 E267.65510
G0 F10500 X65.181 Y75.434
G1 F3000 X82.563 Y92.816 E268.13676
G0 F10500 X83.165 Y92.711
G1 F3000 X65.286 Y74.832 E268.63220
G0 F10500 X65.451 Y74.290
G1 F3000 X83.708 Y92.546 E269.13810
G0 F10500 X84.250 Y92.382
G1 F3000 X65.615 Y73.746 E269.65450
G0 F10500 X65.780 Y73.204
G1 F3000 X84.792 Y92.217 E270.18135
G0 F10500 X85.335 Y92.053
G1 F3000 X65.944 Y72.662 E270.71868
G0 F10500 X66.125 Y72.136
G1 F3000 X85.861 Y91.872 E271.26558
G0 F10500 X86.322 Y91.625
G1 F3000 X66.371 Y71.675 E271.81842
G0 F10500 X66.618 Y71.214
G1 F3000 X86.783 Y91.379 E272.37720
G0 F10500 X87.244 Y91.133
G1 F3000 X66.864 Y70.753 E272.94194
G0 F10500 X67.110 Y70.292
G1 F3000 X87.704 Y90.886 E273.51261
;LAYER:9
G0 F10500 X88.467 Y90.678 Z2.675
;TYPE:WALL-INNER
G1 F2100 X85.835 Y92.085 E273.57109
G1 X83.122 Y92.908 E273.62664
G1 X82.973 Y92.953 E273.62969
G1 X80.000 Y93.247 E273.68823
G1 X77.029 Y92.954 E273.74673
G1 X74.163 Y92.085 E273.80541
G1 X71.532 Y90.678 E273.86387
G1 X69.219 Y88.781 E273.92249
G1 X67.321 Y86.467 E273.98113
G1 X65.914 Y83.836 E274.03959
G1 X65.091 Y81.122 E274.09516
G1 X65.046 Y80.973 E274.09821
G1 X64.753 Y78.000 E274.15675
G1 X65.045 Y75.029 E274.21524
G1 X65.914 Y72.163 E274.27392
G1 X67.321 Y69.533 E274.33237
G1 X69.219 Y67.219 E274.39101
G1 X71.532 Y65.321 E274.44964
G1 X74.164 Y63.914 E274.50812
G1 X76.877 Y63.091 E274.56367
G1 X77.026 Y63.046 E274.56672
G1 X80.000 Y62.753 E274.62527
G1 X82.970 Y63.045 E274.68375
G1 X85.836 Y63.914 E274.74243
G1 X88.467 Y65.321 E274.80089
G1 X90.780 Y67.219 E274.85952
G1 X92.678 Y69.533 E274.91816
G1 X94.085 Y72.164 E274.97662
G1 X94.908 Y74.877 E275.03218
G1 X94.953 Y75.026 E275.03523
G1 X95.247 Y78.000 E275.09378
G1 X94.969 Y80.818 E275.14927
G1 X94.953 Y80.972 E275.15230
G1 X94.132 Y83.685 E275.20784
G1 X94.087 Y83.833 E275.21087
G1 X92.678 Y86.467 E275.26940
G1 X90.780 Y88.781 E275.32805
G1 X88.467 Y90.678 E275.38666
G0 F10500 X81.638 Y80.839
G1 F2100 X82.839 Y79.638 E275.41994
G1 X83.278 Y78.000 E275.45317
G1 X82.839 Y76.361 E275.48642
G1 X81.638 Y75.159 E275.51971
G1 X80.000 Y74.722 E275.55293
G1 X78.360 Y75.159 E275.58619
G1 X77.159 Y76.361 E275.61948
G1 X76.721 Y78.000 E275.65272
G1 X77.160 Y79.638 E275.68595
G1 X78.359 Y80.839 E275.71920
G1 X80.000 Y81.280 E275.75250
G1 X81.638 Y80.839 E275.78574
G0 F10500 X81.379 Y80.391
;TYPE:WALL-OUTER
G1 F1800 X82.391 Y79.379 E275.81378
G1 X82.761 Y78.000 E275.84176
G1 X82.391 Y76.620 E275.86975
G1 X81.379 Y75.608 E275.89779
G1 X80.000 Y75.239 E275.92577
G1 X78.619 Y75.608 E275.95377
G1 X77.608 Y76.620 E275.98180
G1 X77.238 Y78.000 E276.00980
G1 X77.608 Y79.379 E276.03778
G1 X78.618 Y80.391 E276.06579
G1 X80.000 Y80.762 E276.09383
G1 X81.379 Y80.391 E276.12181
G0 F10500 X81.625 Y80.639
G0 X88.553 Y90.801
G0 X88.747 Y91.095
G1 F1800 X86.026 Y92.550 E276.18227
G1 X83.075 Y93.445 E276.24269
G1 X80.000 Y93.749 E276.30324
G1 X76.925 Y93.445 E276.36379
G1 X73.972 Y92.550 E276.42425
G1 X71.252 Y91.095 E276.48469
G1 X68.864 Y89.136 E276.54521
G1 X66.904 Y86.747 E276.60576
G1 X65.449 Y84.027 E276.66620
G1 X64.554 Y81.075 E276.72665
G1 X64.251 Y78.000 E276.78719
G1 X64.554 Y74.926 E276.84772
G1 X65.449 Y71.972 E276.90820
G1 X66.904 Y69.253 E276.96862
G1 X68.864 Y66.864 E277.02917
G1 X71.252 Y64.904 E277.08970
G1 X73.973 Y63.449 E277.15016
G1 X76.924 Y62.554 E277.21059
G1 X80.000 Y62.251 E277.27115
G1 X83.073 Y62.554 E277.33166
G1 X86.027 Y63.449 E277.39214
G1 X88.747 Y64.904 E277.45258
G1 X91.135 Y66.864 E277.51311
G1 X93.095 Y69.253 E277.57366
G1 X94.550 Y71.973 E277.63411
G1 X95.445 Y74.924 E277.69453
G1 X95.749 Y78.000 E277.75510
G1 X95.445 Y81.075 E277.81564
G1 X94.550 Y84.027 E277.87608
G1 X93.095 Y86.747 E277.93653
G1 X91.135 Y89.136 E277.99708
G1 X88.747 Y91.095 E278.05760
G0 F10500 X87.602 Y90.942
;TYPE:SKIN
G1 F3000 X92.942 Y85.602 E278.20557
G0 F10500 X93.754 Y84.082
G1 F3000 X86.081 Y91.755 E278.41820
G0 F10500 X84.963 Y92.167
G1 F3000 X94.166 Y82.963 E278.67323
G0 F10500 X94.473 Y81.949
G1 F3000 X83.949 Y92.474 E278.96487
G0 F10500 X82.935 Y92.780
G1 F3000 X94.779 Y80.936 E279.29307
G0 F10500 X94.856 Y80.151
G1 F3000 X82.150 Y92.857 E279.64516
G0 F10500 X81.366 Y92.935
G1 F3000 X94.934 Y79.367 E280.02114
G0 F10500 X95.012 Y78.582
G1 F3000 X80.581 Y93.012 E280.42102
G0 F10500 X71.707 Y90.573
G1 F3000 X81.122 Y81.158 E280.68191
G0 F10500 X80.154 Y81.419
G1 F3000 X71.306 Y90.267 E280.92710
G0 F10500 X70.918 Y89.948
G1 F3000 X79.531 Y81.334 E281.16578
G0 F10500 X78.974 Y81.185
G1 F3000 X70.530 Y89.629 E281.39977
G0 F10500 X70.142 Y89.310
G1 F3000 X78.417 Y81.035 E281.62907
G0 F10500 X78.009 Y80.736
G1 F3000 X69.753 Y88.992 E281.85785
G0 F10500 X69.365 Y88.673
G1 F3000 X77.655 Y80.382 E282.08759
G0 F10500 X77.303 Y80.028
G1 F3000 X69.043 Y88.287 E282.31646
G0 F10500 X68.724 Y87.899
G1 F3000 X76.980 Y79.643 E282.54524
G0 F10500 X76.830 Y79.086
G1 F3000 X68.405 Y87.511 E282.77870
G0 F10500 X68.087 Y87.122
G1 F3000 X76.680 Y78.529 E283.01682
G0 F10500 X76.550 Y77.952
G1 F3000 X67.768 Y86.734 E283.26017
G0 F10500 X67.453 Y86.341
G1 F3000 X76.809 Y76.986 E283.51942
G0 F10500 X78.984 Y74.811
G1 F3000 X88.343 Y65.452 E283.77876
G0 F10500 X88.735 Y65.767
G1 F3000 X79.949 Y74.553 E284.02223
G0 F10500 X78.720 Y63.054
G1 F3000 X65.055 Y76.719 E284.40089
G0 F10500 X64.978 Y77.503
G1 F3000 X79.504 Y62.977 E284.80342
G0 F10500 X80.237 Y62.951
G1 F3000 X64.953 Y78.235 E285.22694
G0 F10500 X65.016 Y78.879
G1 F3000 X80.880 Y63.015 E285.66655
G0 F10500 X81.524 Y63.078
G1 F3000 X65.079 Y79.523 E286.12225
G0 F10500 X65.132 Y75.935
G1 F3000 X77.935 Y63.131 E286.47704
G0 F10500 X77.151 Y63.208
G1 F3000 X65.209 Y75.151 E286.80797
G0 F10500 X65.490 Y74.163
G1 F3000 X76.163 Y63.489 E287.10374
G0 F10500 X75.149 Y63.797
G1 F3000 X65.797 Y73.148 E287.36288
G0 F10500 X66.151 Y72.088
G1 F3000 X74.086 Y64.152 E287.58277
G0 F10500 X72.566 Y64.965
G1 F3000 X66.965 Y70.567 E287.73799
G0 F10500 X68.713 Y68.111
G1 F3000 X70.111 Y66.713 E287.77673
G0 F10500 X82.168 Y63.141
G1 F3000 X65.142 Y80.167 E288.24853
G0 F10500 X65.206 Y80.810
G1 F3000 X82.812 Y63.205 E288.73639
G0 F10500 X83.374 Y63.350
G1 F3000 X65.350 Y81.373 E289.23583
G0 F10500 X65.514 Y81.916
G1 F3000 X83.916 Y63.515 E289.74575
G0 F10500 X84.459 Y63.679
G1 F3000 X65.679 Y82.459 E290.26615
G0 F10500 X65.844 Y83.001
G1 F3000 X85.002 Y63.843 E290.79703
G0 F10500 X85.545 Y64.008
G1 F3000 X66.008 Y83.544 E291.33840
G0 F10500 X66.221 Y84.038
G1 F3000 X86.039 Y64.220 E291.88757
G0 F10500 X86.500 Y64.466
G1 F3000 X66.467 Y84.499 E292.44269
G0 F10500 X66.714 Y84.960
G1 F3000 X86.961 Y64.712 E293.00376
G0 F10500 X87.421 Y64.959
G1 F3000 X66.960 Y85.420 E293.57075
G0 F10500 X67.206 Y85.881
G1 F3000 X87.882 Y65.205 E294.14369
G0 F10500 X89.123 Y66.086
G1 F3000 X80.528 Y74.681 E294.38186
G0 F10500 X81.086 Y74.830
G1 F3000 X89.511 Y66.405 E294.61533
G0 F10500 X89.900 Y66.724
G1 F3000 X81.644 Y74.979 E294.84409
G0 F10500 X82.028 Y75.302
G1 F3000 X90.288 Y67.042 E295.07298
G0 F10500 X90.672 Y67.366
G1 F3000 X82.382 Y75.656 E295.30270
G0 F10500 X82.735 Y76.009
G1 F3000 X90.991 Y67.754 E295.53147
G0 F10500 X91.309 Y68.143
G1 F3000 X83.034 Y76.417 E295.76076
G0 F10500 X83.184 Y76.974
G1 F3000 X91.628 Y68.531 E295.99473
G0 F10500 X91.947 Y68.919
G1 F3000 X83.334 Y77.532 E296.23340
G0 F10500 X83.416 Y78.157
G1 F3000 X92.266 Y69.307 E296.47864
G0 F10500 X92.572 Y69.708
G1 F3000 X83.157 Y79.123 E296.73954
G0 F10500 X95.053 Y77.834
G1 F3000 X79.833 Y93.053 E297.16128
G0 F10500 X79.189 Y92.990
G1 F3000 X94.989 Y77.190 E297.59910
G0 F10500 X94.926 Y76.547
G1 F3000 X78.546 Y92.927 E298.05300
G0 F10500 X77.902 Y92.863
G1 F3000 X94.862 Y75.903 E298.52297
G0 F10500 X94.798 Y75.260
G1 F3000 X77.259 Y92.799 E299.00899
G0 F10500 X76.685 Y92.667
G1 F3000 X94.666 Y74.686 E299.50725
G0 F10500 X94.501 Y74.143
G1 F3000 X76.142 Y92.502 E300.01599
G0 F10500 X75.599 Y92.338
G1 F3000 X94.337 Y73.600 E300.53523
G0 F10500 X94.172 Y73.058
G1 F3000 X75.057 Y92.173 E301.06492
G0 F10500 X74.514 Y92.009
G1 F3000 X94.008 Y72.515 E301.60511
G0 F10500 X93.804 Y72.011
G1 F3000 X74.010 Y91.805 E302.15361
G0 F10500 X73.549 Y91.559
G1 F3000 X93.558 Y71.550 E302.70807
G0 F10500 X93.311 Y71.090
G1 F3000 X73.089 Y91.312 E303.26844
G0 F10500 X72.628 Y91.066
G1 F3000 X93.065 Y70.629 E303.83476
G0 F10500 X92.819 Y70.169
G1 F3000 X72.168 Y90.820 E304.40701
G0 F10500 X90.322 Y88.928
G1 F3000 X90.926 Y88.325 E304.42373
M107
G1 F600 E302.67373
G1 Z2.775
G0 F10500 X90.926 Y88.325 Z7.750
M400
M104 S0                                      ; hotend off
M140 S0                                      ; heated bed heater off (if you have it)
M107                                         ; fans off
G92 E5                                       ; set extruder to 5mm for retract on print end
G1 X5 Y5 Z158 E0 F10000                      ; move to cooling positioning
M190 R50                                     ; wait for bed to cool
M140 S0                                      ;
G1 X145 F1000                                ; move to cooling positioning
G1 Y175 F1000                                ; move to cooling positioning
M84                                          ; steppers off
G90                                          ; absolute positioning
;CURA_PROFILE_STRING:eNrtWltv20YWfhWE/RHz1haNtSQlxnYIPjSpbRSwiyD2Yl2/ECNyJM2GIglyaPkC/ff9zgwpkTKlyrvZbtIqD455dG5zrt/QivmjyIOZkNOZ8q2B4/YWPI4DNZPh50QUhW/3cqFyHiqZJoFI+DgW/k1eil6RxjIKYi3fZJ9IyEciKaR69B2rl4lczoUC11hM0lwEMiEWoyRJn55iERTyScC628tymaigyISIfNeqHpWYQwlXZS6g0H1JdfwO1mEXcdRFdFfEsYha1t5avaLMsjRX/q9pInpZzBXOMA94NBMFImLIFU8QlTwOxIPKS/3Z+1TNeguZiUClC5H75zwuRIMQ3KdxORe+7fbS9AlRmEkRRxUbYsTnAj5Fkuvw+c7gxH1JprO/IA67iKMuotskTuJ04duWNbCaSTfZsFs0Pk/LRPn24NhtknUA6s/eDlqfzWUS4OFexBBrfRKm87FMpv5PcbwhIOetgMIxqyU5SzMQ7d44VSqdN8rQGoxQyro4rWAhIzULJpBJc98GPR3/S4QoM5l8Jp299F7kMc+0+6TP7RlH66PjkJUFU+4V2e2ZUq6eR5bpCZ4LXpFIuUwKoayKMKyeH+pntxemaayDU7USmoXaZsLrdouqfvssUWKxTAQCpgNckaY884cwZJ7qqMUimaqZ77hG1aSEn6s2dzXNuHDceAjm/IEKYO3UBFQ0g6D8a+JMcHS9nKiqTs0YUEhEYyqYaBmKjlAVYYpZ3SzqMRP+JY5TrEg8mcbNpgu0rDY/XBMfHlG9heJJKHQl1fSnNVnnsMhkzmOaLJWncp5h1szTqKaMMZlaEUWN8wliyPOpTHx3UD1rliLjIVXpsKaOeSFaJTds0ElE1x1crPgxYESOKmwLOcebn65FUcXmQy5zZDnAZNYl1aDpZOrnoqzEqYwK32lTu0yuJFoGJ/IBfZXnEqUXlInudtoISFfA65RuZxmv5leTBxFJM5EEY6mKLgb0OG2Me4RZSRXOKNCGLYtL5AIJQqtN/bp1Q0HhCh78I3uD9Egkk+orZPpaKAVlhd+gfcxTFBa6LEgwy3nc+OgKtZZLTAE7wKzv+OCGqva9gEuJyP+GcsvVYBpSSXk3M1mwC/qdzXjBxkIkbCoS2iUiYuivUE5kiEA9MuwQpmaCXZbxE7YEu0LT9r33vJAhKyqP37FLyiQzTfuOPceNVb1k/4Qi8Dy31/WSnaNlQG5u4WXfO69GPPu5mvuGpb0LwPer3sfsGl0DjsZ2XvYvnLds6z+PhbHgOctS5FEhTuy7LE/Hgk24jL9jyF4kaWJDi71LC/zIEYN7Hpei6F+cWruY+RjTplQCVgutHWHrX504u2QQXaYXSoTQqnStg8ZC/8q2jncJU7rZQqqZzh7GJksnE7jpsDNrP5O1q2Tbgr2Rxa6fO8HH0kP1KJRRhBLgVBKszBC/k13Hm6VzwVARdJJT9onUb/UJHlDSKGqM7DKeRGzBpepf2OzOdi12djS02Pmxuylchp/hC7u9nc8RAFYX0u8ZpWOQXC4KRXIL/kimbkcu+80+HrFz23Ydq10PWBwIAeYBOijMOYKjvQPXue1YVoeVD59+ufnlw0+X7/Qh7+iYpmfIJPYU/ddQtbJ+dzRw2fnIWin1kOmMguMxDKFkKhiylBIRFccjLexqYWe7cNuE1eLZ4Kp1tVm26drN9cfremvto+vE+jp1ne6l62QvXcBP3cq+CV22vUXZt6HLXjWkRR1p17ye6dsipouXnnTjMn9k2HDo6moOFjNG2N2Mv+3zPOeyEOxJj+JbOGXtGMUP2tTjnuOYVmY9jftXjjVi10NriwiAzYqfh6GIaW2YDXu6a0N8pLVcKXesTu0e+4QJjas6LbwE95lowwINBYTZ1WE6d1tazNZKS6VXpB7xsGRvdyjjQIf9q5Fl/S66GJeTCaa2Cebzi3v8smvFtxcbueJutUI8GpvR0kU+tDAtXRSEXvGbu9CIVcZWe5CNORakXhYGQe2754lq9jyLypx+m8gcu1Ijv55Iogpq6mhRGHCcHQhpsx4BzSINWIw7+0sKjWBrJIKoQgn7Xk7YY1oC62JFS/XDbvD0UivQU7GGT+7ecpsIzgUIoZxVrwUYsJWOM8Np61KlSnVPdAZpIlhb4SfBDcJFuOlS+FvA0saS+ORae7q5WUuk8pWBNxNt1BxjO03u8h6qMBe/iKqrkxF7RZ4LJTLUep1r6zWynQjfQx/pCxzuitQky57G5U59D7uOZYiYc7ozRfxxST8VhsMzvVpZ/k+vWR914ZEdfFbNJ2N0dQHDsIualy/ztmw5b5AWxva0IRWmhWpK0TO0mprcMleY948kTOdanm46UUT9iuZdJKtpU/EyegVA6miidA3WHao61ZyyG7tLk/MfqbL+e6ca905v6yXT675Rrueat+0GuIYCnm6d27//Rj7NgS0whrBMs0Iz3VVoRDPdvWTRF68BxtRz8w3kshIgk/UraBbROW1Mv/7Nlu3qXS/oXYreZJB0MP3rwbn1zuo9idywV6wRM28SybdzunGdbUAjr15/tlVdBwW97lBp+Pn1VhifcpmsbR09d79dXvZvrL0ObRboN3TsduIxUkpl9hmN4TlmD8dFFDvu8sPPdI0VIkGB2sfsY8UzGAwIKaym4RmyfvGherkx0r3UHTlvtVTXS76SsV8ps33JeXtiiYtTe68NkQu0g7wXm7vu7AihHO7edF6NGEydVJOWs7EkNEZ/qmL0nlsDcnAYKPeGCgtWBccdoCCIT28VqC9z5AbjRvfwj3T5ODty2e2Rg7FAP7o7+o6wnjFJILX2aOWNuBcJljGp3XXbaBxq2/h5A2+1o/QCn8lCQ/TKd0Lpu7a6t/cO916zsYeHjX3Y2H/Nje38FTf2AaYcYMoGTBn+P2EKyTgHaHOANl8e2owO0OargjbOl4M2B5T0h6Gk4V67cwSn/0SAYT9oOPxzHfoADQ/QcAMajr41aEgywwOcPMDJLwsnq2+3Nr9quCKu/yRsvpzbYtKUBkcusGNDMQiLe7+HJJgxc1bV5QqwmuEzFmpBX2CkQ4dlnusQ1yVMCdCJBmVFfcMWM5GsO12DiXkZK5nFq3GRF4O++aKk/p4k/ge80VWuq4iU3nyf/NBDTNTX5B+fUAPW7v0bHBiZ6w==

